G21
G90
G92 X0 Y0 Z0
;PYCAM-META-DATA: Filename: None
;PYCAM-META-DATA: Timestamp: 2012-10-27 20:32:27.306767
;PYCAM-META-DATA: Version: 0.5.1
;Estimated machine time: 7 minutes
;PYCAM_TOOLPATH_SETTINGS: START
;[Bounds]
;maxz = 0.0
;maxx = 109.79813
;maxy = 64.97511
;minx = -9.79983
;miny = -5.72501
;minz = 0.0
;
;[Tool]
;torus_radius = 0.125
;speed = 1000.0
;shape = CylindricalCutter
;tool_radius = 0.2
;feedrate = 200.0
;
;[Process]
;engrave_offset = 0.0
;step_down = 2.0
;generator = EngraveCutter
;postprocessor = SimpleCutter
;milling_style = conventional
;material_allowance = 0.0
;pocketing_type = none
;path_direction = x
;
;PYCAM_TOOLPATH_SETTINGS: END
G00 Z2.0000
G01 X79.2014 Y40.6865
G01 Z0.0000
G01 X79.2058 Y40.6999
G01 X79.2192 Y40.7367
G01 X79.2410 Y40.7961
G01 X79.2712 Y40.8779
G01 X79.3096 Y40.9812
G01 X79.3558 Y41.1057
G01 X79.4099 Y41.2506
G01 X79.4713 Y41.4154
G01 X79.5400 Y41.5994
G01 X79.6158 Y41.8024
G01 X79.6985 Y42.0233
G01 X79.7876 Y42.2618
G01 X79.8832 Y42.5172
G01 X79.9850 Y42.7890
G01 X80.0926 Y43.0767
G01 X80.2061 Y43.3796
G01 X80.3251 Y43.6969
G01 X80.4493 Y44.0285
G01 X80.5786 Y44.3735
G01 X80.7128 Y44.7312
G01 X80.8517 Y45.1014
G01 X80.9949 Y45.4832
G01 X81.1422 Y45.8761
G01 X81.2936 Y46.2796
G01 X81.4488 Y46.6929
G01 X81.6075 Y47.1157
G01 X81.7694 Y47.5472
G01 X81.9346 Y47.9869
G01 X82.1026 Y48.4343
G01 X82.2732 Y48.8886
G01 X82.4462 Y49.3494
G01 X82.6217 Y49.8161
G01 X86.0407 Y58.9164
G01 X92.2390
G01 X95.6426 Y49.8588
G01 X95.8172 Y49.3943
G01 X95.9896 Y48.9356
G01 X96.1596 Y48.4831
G01 X96.3271 Y48.0375
G01 X96.4917 Y47.5993
G01 X96.6532 Y47.1692
G01 X96.8115 Y46.7478
G01 X96.9662 Y46.3356
G01 X97.1174 Y45.9331
G01 X97.2646 Y45.5410
G01 X97.4078 Y45.1600
G01 X97.5464 Y44.7904
G01 X97.6806 Y44.4331
G01 X97.8100 Y44.0885
G01 X97.9343 Y43.7571
G01 X98.0533 Y43.4397
G01 X98.1671 Y43.1367
G01 X98.2750 Y42.8489
G01 X98.3772 Y42.5767
G01 X98.4732 Y42.3206
G01 X98.5629 Y42.0814
G01 X98.6461 Y41.8596
G01 X98.7225 Y41.6558
G01 X98.7919 Y41.4707
G01 X98.8542 Y41.3046
G01 X98.9089 Y41.1583
G01 X98.9561 Y41.0324
G01 X98.9954 Y40.9274
G01 X99.0267 Y40.8438
G01 X99.0496 Y40.7822
G01 X99.0642 Y40.7435
G01 X99.0699 Y40.7279
G01 X99.0721 Y40.7158
G01 X99.0679 Y40.7051
G01 X99.0533 Y40.6960
G01 X99.0243 Y40.6881
G01 X98.9772 Y40.6814
G01 X98.9079 Y40.6758
G01 X98.8125 Y40.6714
G01 X98.6869 Y40.6681
G01 X98.5275 Y40.6654
G01 X98.3301 Y40.6638
G01 X98.0910 Y40.6628
G01 X97.8061 Y40.6624
G01 X97.4715 Y40.6626
G01 X97.0833 Y40.6633
G01 X96.6376 Y40.6644
G01 X96.1306 Y40.6657
G01 X93.1679 Y40.6767
G01 X92.7242 Y42.1707
G01 X92.2803 Y43.6658
G01 X85.8503
G01 X85.4107 Y42.1608
G01 X84.9697 Y40.6576
G01 X82.0858
G01 X81.7917 Y40.6578
G01 X81.5060 Y40.6582
G01 X81.2299 Y40.6589
G01 X80.9651 Y40.6599
G01 X80.7131 Y40.6610
G01 X80.4751 Y40.6625
G01 X80.2529 Y40.6640
G01 X80.0478 Y40.6660
G01 X79.8612 Y40.6679
G01 X79.6949 Y40.6701
G01 X79.5500 Y40.6725
G01 X79.4283 Y40.6751
G01 X79.3311 Y40.6778
G01 X79.2599 Y40.6806
G01 X79.2161 Y40.6835
G01 X79.2014 Y40.6865
G00 Z2.0000
G01 X56.8621 Y49.7967
G01 Z0.0000
G01 Y58.9358
G01 X64.3146
G01 X65.7267 Y53.4458
G01 X65.8708 Y52.8867
G01 X66.0111 Y52.3431
G01 X66.1469 Y51.8174
G01 X66.2774 Y51.3129
G01 X66.4019 Y50.8322
G01 X66.5196 Y50.3782
G01 X66.6299 Y49.9539
G01 X66.7319 Y49.5618
G01 X66.8250 Y49.2050
G01 X66.9083 Y48.8861
G01 X66.9814 Y48.6082
G01 X67.0432 Y48.3740
G01 X67.0931 Y48.1862
G01 X67.1304 Y48.0481
G01 X67.1544 Y47.9619
G01 X67.1643 Y47.9308
G01 X67.1792 Y47.9658
G01 X67.2133 Y48.0765
G01 X67.2643 Y48.2550
G01 X67.3300 Y48.4935
G01 X67.4082 Y48.7836
G01 X67.4968 Y49.1175
G01 X67.5936 Y49.4874
G01 X67.6962 Y49.8849
G01 X67.7528 Y50.1049
G01 X67.8169 Y50.3547
G01 X67.8881 Y50.6317
G01 X67.9653 Y50.9326
G01 X68.0479 Y51.2551
G01 X68.1354 Y51.5960
G01 X68.2269 Y51.9526
G01 X68.3217 Y52.3222
G01 X68.4189 Y52.7017
G01 X68.5181 Y53.0885
G01 X68.6183 Y53.4794
G01 X68.7190 Y53.8721
G01 X68.9187 Y54.6506
G01 X69.0162 Y55.0308
G01 X69.1112 Y55.4012
G01 X70.0168 Y58.9358
G01 X77.4375
G01 Y40.6576
G01 X72.8017
G01 X72.7922 Y47.5393
G01 X72.7822 Y54.4226
G01 X71.0183 Y47.5492
G01 X69.2560 Y40.6767
G01 X65.0504
G01 X61.5171 Y54.5014
G01 X61.4976 Y40.6576
G01 X56.8621
G01 Y49.7967
G00 Z2.0000
G01 X37.1285
G01 Z0.0000
G01 Y58.9358
G01 X42.9279
G01 X43.4375 Y58.9356
G01 X43.9167 Y58.9353
G01 X44.3669 Y58.9347
G01 X44.7892 Y58.9339
G01 X45.1847 Y58.9328
G01 X45.5547 Y58.9314
G01 X45.9003 Y58.9296
G01 X46.2225 Y58.9274
G01 X46.5228 Y58.9246
G01 X46.8022 Y58.9214
G01 X47.0619 Y58.9176
G01 X47.3031 Y58.9133
G01 X47.5268 Y58.9083
G01 X47.7344 Y58.9028
G01 X47.9271 Y58.8964
G01 X48.1057 Y58.8892
G01 X48.2718 Y58.8813
G01 X48.4264 Y58.8725
G01 X48.5706 Y58.8628
G01 X48.7057 Y58.8522
G01 X48.8328 Y58.8406
G01 X48.9531 Y58.8281
G01 X49.0676 Y58.8143
G01 X49.1778 Y58.7996
G01 X49.2847 Y58.7836
G01 X49.3894 Y58.7665
G01 X49.4932 Y58.7482
G01 X49.5972 Y58.7286
G01 X49.7026 Y58.7076
G01 X49.8106 Y58.6854
G01 X49.9224 Y58.6617
G01 X50.3928 Y58.5407
G01 X50.8314 Y58.3860
G01 X51.2390 Y58.1969
G01 X51.6168 Y57.9729
G01 X51.9654 Y57.7136
G01 X52.2860 Y57.4179
G01 X52.5793 Y57.0856
G01 X52.8465 Y56.7157
G01 X53.0074 Y56.4522
G01 X53.1474 Y56.1844
G01 X53.2676 Y55.9096
G01 X53.3690 Y55.6246
G01 X53.4524 Y55.3264
G01 X53.5188 Y55.0122
G01 X53.5690 Y54.6789
G01 X53.6042 Y54.3236
G01 X53.6237 Y53.7169
G01 X53.5869 Y53.1379
G01 X53.4939 Y52.5865
G01 X53.3446 Y52.0622
G01 X53.1389 Y51.5653
G01 X52.8769 Y51.0951
G01 X52.5585 Y50.6518
G01 X52.1836 Y50.2349
G01 X51.9117 Y49.9807
G01 X51.6285 Y49.7511
G01 X51.3308 Y49.5444
G01 X51.0158 Y49.3592
G01 X50.6800 Y49.1936
G01 X50.3207 Y49.0458
G01 X49.9344 Y48.9144
G01 X49.5183 Y48.7976
G01 X49.2443 Y48.7275
G01 X49.6189 Y48.5853
G01 X49.8593 Y48.4915
G01 X50.0682 Y48.4022
G01 X50.2515 Y48.3140
G01 X50.4150 Y48.2233
G01 X50.5640 Y48.1268
G01 X50.7047 Y48.0211
G01 X50.8426 Y47.9028
G01 X50.9835 Y47.7682
G01 X51.2511 Y47.4850
G01 X51.5313 Y47.1600
G01 X51.8136 Y46.8054
G01 X52.0883 Y46.4329
G01 X52.1090 Y46.3994
G01 X52.1449 Y46.3368
G01 X52.1946 Y46.2469
G01 X52.2574 Y46.1319
G01 X52.3319 Y45.9939
G01 X52.4174 Y45.8344
G01 X52.5128 Y45.6557
G01 X52.6171 Y45.4599
G01 X52.7290 Y45.2485
G01 X52.8479 Y45.0237
G01 X52.9725 Y44.7876
G01 X53.1017 Y44.5419
G01 X53.2347 Y44.2889
G01 X53.3704 Y44.0303
G01 X53.5078 Y43.7682
G01 X53.6457 Y43.5044
G01 X53.7832 Y43.2410
G01 X53.9194 Y42.9799
G01 X54.0531 Y42.7232
G01 X54.1832 Y42.4726
G01 X54.3089 Y42.2304
G01 X54.4290 Y41.9983
G01 X54.5425 Y41.7783
G01 X54.6485 Y41.5725
G01 X54.7458 Y41.3828
G01 X54.8336 Y41.2111
G01 X54.9106 Y41.0594
G01 X54.9760 Y40.9297
G01 X55.0285 Y40.8240
G01 X55.0674 Y40.7442
G01 X55.0914 Y40.6922
G01 X55.0997 Y40.6700
G01 X55.0831 Y40.6687
G01 X55.0344 Y40.6674
G01 X54.9554 Y40.6662
G01 X54.8475 Y40.6651
G01 X54.7126 Y40.6640
G01 X54.5521 Y40.6631
G01 X54.3678 Y40.6621
G01 X54.1613 Y40.6613
G01 X53.9342 Y40.6604
G01 X53.6881 Y40.6597
G01 X53.4246 Y40.6592
G01 X53.1456 Y40.6586
G01 X52.8525 Y40.6582
G01 X52.5469 Y40.6579
G01 X52.2307 Y40.6578
G01 X51.9053 Y40.6576
G01 X48.7122
G01 X47.0931 Y43.6563
G01 X46.9271 Y43.9632
G01 X46.7638 Y44.2646
G01 X46.6039 Y44.5589
G01 X46.4486 Y44.8443
G01 X46.2986 Y45.1192
G01 X46.1549 Y45.3818
G01 X46.0183 Y45.6306
G01 X45.8901 Y45.8636
G01 X45.7708 Y46.0794
G01 X45.6618 Y46.2761
G01 X45.5636 Y46.4522
G01 X45.4774 Y46.6058
G01 X45.4039 Y46.7353
G01 X45.3442 Y46.8390
G01 X45.2992 Y46.9151
G01 X45.2699 Y46.9621
G01 X45.1596 Y47.1222
G01 X45.0528 Y47.2631
G01 X44.9471 Y47.3867
G01 X44.8403 Y47.4950
G01 X44.7303 Y47.5903
G01 X44.6149 Y47.6747
G01 X44.4918 Y47.7503
G01 X44.3590 Y47.8190
G01 X44.2181 Y47.8835
G01 X44.0881 Y47.9356
G01 X43.9635 Y47.9764
G01 X43.8383 Y48.0072
G01 X43.7071 Y48.0293
G01 X43.5640 Y48.0436
G01 X43.4033 Y48.0514
G01 X43.2194 Y48.0536
G01 X42.7990
G01 Y40.6576
G01 X37.1285
G01 Y49.7967
G00 Z2.0000
G01 X24.2164 Y40.3736
G01 Z0.0000
G01 X23.6167 Y40.4333
G01 X23.0603 Y40.5067
G01 X22.5418 Y40.5950
G01 X22.0558 Y40.6996
G01 X21.5968 Y40.8218
G01 X21.1594 Y40.9629
G01 X20.7381 Y41.1242
G01 X20.3274 Y41.3068
G01 X19.8658 Y41.5456
G01 X19.4288 Y41.8111
G01 X19.0149 Y42.1050
G01 X18.6224 Y42.4283
G01 X18.2500 Y42.7828
G01 X17.8961 Y43.1696
G01 X17.5592 Y43.5903
G01 X17.2378 Y44.0461
G01 X17.0490 Y44.3425
G01 X16.8738 Y44.6439
G01 X16.7118 Y44.9508
G01 X16.5629 Y45.2642
G01 X16.4271 Y45.5846
G01 X16.3039 Y45.9126
G01 X16.1932 Y46.2492
G01 X16.0950 Y46.5949
G01 X16.0089 Y46.9506
G01 X15.9349 Y47.3167
G01 X15.8726 Y47.6943
G01 X15.8219 Y48.0839
G01 X15.7828 Y48.4864
G01 X15.7547 Y48.9022
G01 X15.7378 Y49.3324
G01 X15.7318 Y49.7772
G01 X15.7418 Y50.4128
G01 X15.7736 Y51.0118
G01 X15.8279 Y51.5787
G01 X15.9054 Y52.1181
G01 X16.0069 Y52.6342
G01 X16.1332 Y53.1317
G01 X16.2851 Y53.6147
G01 X16.4635 Y54.0879
G01 X16.6325 Y54.4792
G01 X16.8096 Y54.8446
G01 X16.9981 Y55.1886
G01 X17.2003 Y55.5157
G01 X17.4196 Y55.8301
G01 X17.6586 Y56.1364
G01 X17.9204 Y56.4388
G01 X18.2079 Y56.7418
G01 X18.7426 Y57.2361
G01 X19.3175 Y57.6751
G01 X19.9335 Y58.0596
G01 X20.5921 Y58.3900
G01 X21.2949 Y58.6672
G01 X22.0428 Y58.8917
G01 X22.8375 Y59.0642
G01 X23.6803 Y59.1851
G01 X24.0875 Y59.2203
G01 X24.5361 Y59.2418
G01 X25.0122 Y59.2501
G01 X25.5019 Y59.2456
G01 X25.9914 Y59.2286
G01 X26.4668 Y59.1993
G01 X26.9140 Y59.1582
G01 X27.3194 Y59.1054
G01 X27.8364 Y59.0140
G01 X28.3356 Y58.9018
G01 X28.8171 Y58.7692
G01 X29.2807 Y58.6157
G01 X29.7264 Y58.4417
G01 X30.1543 Y58.2471
G01 X30.5644 Y58.0318
G01 X30.9565 Y57.7961
G01 X31.3308 Y57.5397
G01 X31.6871 Y57.2629
G01 X32.0253 Y56.9656
G01 X32.3457 Y56.6475
G01 X32.6479 Y56.3092
G01 X32.9322 Y55.9501
G01 X33.1983 Y55.5708
G01 X33.4465 Y55.1708
G01 X33.6632 Y54.7715
G01 X33.8582 Y54.3544
G01 X34.0322 Y53.9176
G01 X34.1857 Y53.4590
G01 X34.3192 Y52.9767
G01 X34.4335 Y52.4688
G01 X34.5292 Y51.9331
G01 X34.6068 Y51.3676
G01 X34.6197 Y51.2360
G01 X34.6307 Y51.0803
G01 X34.6396 Y50.9039
G01 X34.6467 Y50.7101
G01 X34.6518 Y50.5024
G01 X34.6551 Y50.2837
G01 X34.6564 Y50.0578
G01 X34.6560 Y49.8276
G01 X34.6536 Y49.5967
G01 X34.6494 Y49.3681
G01 X34.6435 Y49.1454
G01 X34.6357 Y48.9317
G01 X34.6263 Y48.7304
G01 X34.6150 Y48.5449
G01 X34.6019 Y48.3782
G01 X34.5874 Y48.2339
G01 X34.5279 Y47.7837
G01 X34.4574 Y47.3508
G01 X34.3753 Y46.9347
G01 X34.2813 Y46.5344
G01 X34.1753 Y46.1494
G01 X34.0571 Y45.7792
G01 X33.9260 Y45.4226
G01 X33.7818 Y45.0793
G01 X33.6244 Y44.7485
G01 X33.4533 Y44.4296
G01 X33.2683 Y44.1217
G01 X33.0692 Y43.8242
G01 X32.8554 Y43.5364
G01 X32.6267 Y43.2576
G01 X32.3829 Y42.9874
G01 X32.1236 Y42.7246
G01 X31.8728 Y42.4906
G01 X31.6168 Y42.2703
G01 X31.3553 Y42.0632
G01 X31.0875 Y41.8690
G01 X30.8128 Y41.6875
G01 X30.5304 Y41.5185
G01 X30.2399 Y41.3615
G01 X29.9404 Y41.2163
G01 X29.6314 Y41.0826
G01 X29.3122 Y40.9601
G01 X28.9822 Y40.8486
G01 X28.6407 Y40.7476
G01 X28.2872 Y40.6569
G01 X27.9208 Y40.5763
G01 X27.5411 Y40.5054
G01 X27.1474 Y40.4439
G01 X27.0528 Y40.4332
G01 X26.9236 Y40.4228
G01 X26.7646 Y40.4128
G01 X26.5807 Y40.4033
G01 X26.3768 Y40.3944
G01 X26.1578 Y40.3865
G01 X25.9286 Y40.3793
G01 X25.6942 Y40.3732
G01 X25.4593 Y40.3682
G01 X25.2289 Y40.3643
G01 X25.0079 Y40.3618
G01 X24.8014 Y40.3608
G01 X24.6140 Y40.3614
G01 X24.4508 Y40.3636
G01 X24.3167 Y40.3678
G01 X24.2164 Y40.3736
G00 Z2.0000
G01 X0.0385 Y49.7967
G01 Z0.0000
G01 Y58.9358
G01 X14.0243
G01 Y54.9893
G01 X5.7478
G01 Y51.8471
G01 X12.8171 Y51.8281
G01 X12.8365 Y48.1292
G01 X5.7478
G01 Y40.6576
G01 X0.0385
G01 Y49.7967
G00 Z2.0000
G01 X0.0000 Y19.1217
G01 Z0.0000
G01 Y38.2432
G01 X16.2017
G01 X16.6025 Y37.9621
G01 X17.3371 Y37.4868
G01 X18.1106 Y37.0617
G01 X18.9210 Y36.6874
G01 X19.7667 Y36.3643
G01 X20.6461 Y36.0932
G01 X21.5575 Y35.8747
G01 X22.4990 Y35.7093
G01 X23.4693 Y35.5974
G01 X23.7708 Y35.5779
G01 X24.1319 Y35.5649
G01 X24.5328 Y35.5582
G01 X24.9536 Y35.5578
G01 X25.3744 Y35.5633
G01 X25.7756 Y35.5749
G01 X26.1369 Y35.5922
G01 X26.4389 Y35.6154
G01 X26.9249 Y35.6704
G01 X27.4068 Y35.7396
G01 X27.8836 Y35.8228
G01 X28.3547 Y35.9196
G01 X28.8190 Y36.0297
G01 X29.2758 Y36.1529
G01 X29.7243 Y36.2889
G01 X30.1636 Y36.4372
G01 X30.5929 Y36.5978
G01 X31.0113 Y36.7703
G01 X31.4179 Y36.9542
G01 X31.8121 Y37.1493
G01 X32.1929 Y37.3554
G01 X32.5594 Y37.5722
G01 X32.9108 Y37.7993
G01 X33.2465 Y38.0365
G01 X33.5262 Y38.2432
G01 X38.4267
G01 X38.5231 Y37.9261
G01 X38.5369 Y37.8799
G01 X38.5588 Y37.8072
G01 X38.5879 Y37.7097
G01 X38.6240 Y37.5890
G01 X38.6665 Y37.4465
G01 X38.7151 Y37.2839
G01 X38.7692 Y37.1026
G01 X38.8283 Y36.9043
G01 X38.8921 Y36.6906
G01 X38.9599 Y36.4628
G01 X39.0314 Y36.2226
G01 X39.1060 Y35.9717
G01 X39.1833 Y35.7114
G01 X39.2631 Y35.4435
G01 X39.3444 Y35.1692
G01 X39.4271 Y34.8904
G01 X39.5097 Y34.6126
G01 X39.5904 Y34.3414
G01 X39.6687 Y34.0781
G01 X39.7443 Y33.8242
G01 X39.8167 Y33.5813
G01 X39.8853 Y33.3507
G01 X40.0100 Y32.9322
G01 X40.0651 Y32.7475
G01 X40.1149 Y32.5810
G01 X40.1587 Y32.4340
G01 X40.1964 Y32.3082
G01 X40.2275 Y32.2049
G01 X40.2513 Y32.1256
G01 X40.2676 Y32.0718
G01 X40.2760 Y32.0449
G01 X40.3144 Y31.9207
G01 X53.6456
G01 X53.6772 Y32.0061
G01 X53.6853 Y32.0310
G01 X53.7024 Y32.0865
G01 X53.7282 Y32.1710
G01 X53.7621 Y32.2828
G01 X53.8036 Y32.4201
G01 X53.8522 Y32.5818
G01 X53.9075 Y32.7658
G01 X53.9689 Y32.9708
G01 X54.0361 Y33.1950
G01 X54.1085 Y33.4368
G01 X54.1857 Y33.6947
G01 X54.2671 Y33.9669
G01 X54.3522 Y34.2519
G01 X54.4407 Y34.5481
G01 X54.5319 Y34.8537
G01 X54.6256 Y35.1674
G01 X55.5407 Y38.2432
G01 X60.1568 Y38.2475
G01 X60.6871 Y38.2479
G01 X61.3201 Y38.2483
G01 X62.0476 Y38.2485
G01 X62.8614 Y38.2487
G01 X65.7361
G01 X66.8115 Y38.2486
G01 X67.9315 Y38.2483
G01 X69.0878 Y38.2481
G01 X70.2724 Y38.2476
G01 X71.4767 Y38.2472
G01 X72.6926 Y38.2467
G01 X73.9117 Y38.2461
G01 X75.1258 Y38.2454
G01 X76.3267 Y38.2446
G01 X77.3349 Y38.2440
G01 X78.2831 Y38.2433
G01 X79.1731 Y38.2428
G01 X80.0072 Y38.2421
G01 X80.7872 Y38.2414
G01 X81.5151 Y38.2407
G01 X82.1929 Y38.2399
G01 X82.8225 Y38.2390
G01 X83.4060 Y38.2381
G01 X83.9451 Y38.2371
G01 X84.4422 Y38.2358
G01 X84.8990 Y38.2346
G01 X85.3175 Y38.2332
G01 X85.6999 Y38.2317
G01 X86.0478 Y38.2300
G01 X86.3633 Y38.2282
G01 X86.6486 Y38.2261
G01 X86.9056 Y38.2238
G01 X87.1360 Y38.2212
G01 X87.3419 Y38.2186
G01 X87.5257 Y38.2156
G01 X87.6887 Y38.2124
G01 X87.8335 Y38.2089
G01 X87.9617 Y38.2051
G01 X88.0753 Y38.2011
G01 X88.1764 Y38.1967
G01 X88.2668 Y38.1919
G01 X88.3487 Y38.1869
G01 X88.4239 Y38.1815
G01 X88.4946 Y38.1758
G01 X88.5625 Y38.1697
G01 X88.6297 Y38.1632
G01 X89.5228 Y38.0532
G01 X90.3679 Y37.9025
G01 X91.1665 Y37.7108
G01 X91.9199 Y37.4775
G01 X92.6294 Y37.2024
G01 X93.2963 Y36.8849
G01 X93.9218 Y36.5246
G01 X94.5074 Y36.1210
G01 X94.9571 Y35.7585
G01 X95.3928 Y35.3576
G01 X95.8090 Y34.9260
G01 X96.1997 Y34.4703
G01 X96.5594 Y33.9979
G01 X96.8822 Y33.5160
G01 X97.1624 Y33.0315
G01 X97.3942 Y32.5518
G01 X97.6282 Y31.9578
G01 X97.8194 Y31.3514
G01 X97.9682 Y30.7332
G01 X98.0742 Y30.1029
G01 X98.1376 Y29.4611
G01 X98.1585 Y28.8078
G01 X98.1367 Y28.1429
G01 X98.0722 Y27.4669
G01 X97.9990 Y26.9893
G01 X97.9006 Y26.5274
G01 X97.7758 Y26.0782
G01 X97.6239 Y25.6389
G01 X97.4435 Y25.2071
G01 X97.2338 Y24.7794
G01 X96.9935 Y24.3537
G01 X96.7218 Y23.9268
G01 X96.3351 Y23.3989
G01 X95.9114 Y22.9106
G01 X95.4475 Y22.4596
G01 X94.9408 Y22.0439
G01 X94.3885 Y21.6612
G01 X93.7876 Y21.3097
G01 X93.1356 Y20.9871
G01 X92.4292 Y20.6911
G01 X92.3040 Y20.6426
G01 X92.1881 Y20.5967
G01 X92.0835 Y20.5546
G01 X91.9928 Y20.5172
G01 X91.9186 Y20.4856
G01 X91.8635 Y20.4610
G01 X91.8297 Y20.4440
G01 X91.8200 Y20.4361
G01 X91.8350 Y20.4297
G01 X91.8722 Y20.4172
G01 X91.9293 Y20.3993
G01 X92.0035 Y20.3765
G01 X92.0925 Y20.3499
G01 X92.1938 Y20.3200
G01 X92.3050 Y20.2874
G01 X92.4236 Y20.2529
G01 X92.7117 Y20.1696
G01 X92.9790 Y20.0900
G01 X93.2282 Y20.0132
G01 X93.4613 Y19.9382
G01 X93.6808 Y19.8639
G01 X93.8889 Y19.7894
G01 X94.0882 Y19.7139
G01 X94.2810 Y19.6363
G01 X94.4693 Y19.5554
G01 X94.6560 Y19.4706
G01 X94.8429 Y19.3807
G01 X95.0328 Y19.2847
G01 X95.2278 Y19.1818
G01 X95.4303 Y19.0708
G01 X95.6426 Y18.9510
G01 X95.8674 Y18.8211
G01 X96.3156 Y18.5410
G01 X96.7368 Y18.2368
G01 X97.1442 Y17.8987
G01 X97.5511 Y17.5161
G01 X97.7035 Y17.3633
G01 X97.8340 Y17.2281
G01 X97.9482 Y17.1036
G01 X98.0517 Y16.9833
G01 X98.1497 Y16.8608
G01 X98.2479 Y16.7292
G01 X98.3515 Y16.5819
G01 X98.4662 Y16.4122
G01 X98.6186 Y16.1793
G01 X98.7532 Y15.9644
G01 X98.8733 Y15.7613
G01 X98.9821 Y15.5639
G01 X99.0828 Y15.3663
G01 X99.1783 Y15.1622
G01 X99.2724 Y14.9457
G01 X99.3676 Y14.7106
G01 X99.5317 Y14.2589
G01 X99.6697 Y13.7975
G01 X99.7825 Y13.3216
G01 X99.8711 Y12.8258
G01 X99.9361 Y12.3052
G01 X99.9782 Y11.7546
G01 X99.9983 Y11.1689
G01 X99.9974 Y10.5431
G01 X99.9908 Y10.2151
G01 X99.9838 Y9.9545
G01 X99.9744 Y9.7434
G01 X99.9613 Y9.5635
G01 X99.9426 Y9.3968
G01 X99.9169 Y9.2251
G01 X99.8825 Y9.0304
G01 X99.8375 Y8.7944
G01 X99.7775 Y8.4950
G01 X99.7208 Y8.2303
G01 X99.6657 Y7.9945
G01 X99.6104 Y7.7816
G01 X99.5536 Y7.5856
G01 X99.4933 Y7.4007
G01 X99.4283 Y7.2210
G01 X99.3567 Y7.0404
G01 X99.2037 Y6.6825
G01 X99.0469 Y6.3396
G01 X98.8856 Y6.0106
G01 X98.7189 Y5.6947
G01 X98.5461 Y5.3908
G01 X98.3668 Y5.0981
G01 X98.1800 Y4.8156
G01 X97.9853 Y4.5424
G01 X97.7815 Y4.2775
G01 X97.5685 Y4.0200
G01 X97.3451 Y3.7688
G01 X97.1108 Y3.5232
G01 X96.8650 Y3.2821
G01 X96.6068 Y3.0446
G01 X96.3356 Y2.8098
G01 X96.0508 Y2.5767
G01 X95.6956 Y2.3044
G01 X95.3504 Y2.0633
G01 X95.0069 Y1.8493
G01 X94.6572 Y1.6583
G01 X94.2929 Y1.4860
G01 X93.9060 Y1.3283
G01 X93.4882 Y1.1812
G01 X93.0314 Y1.0404
G01 X92.8428 Y0.9869
G01 X92.6554 Y0.9368
G01 X92.4660 Y0.8894
G01 X92.2707 Y0.8442
G01 X92.0663 Y0.8007
G01 X91.8490 Y0.7582
G01 X91.6157 Y0.7162
G01 X91.3625 Y0.6742
G01 X91.0861 Y0.6315
G01 X90.7829 Y0.5877
G01 X90.4494 Y0.5421
G01 X90.0822 Y0.4942
G01 X89.6778 Y0.4435
G01 X89.2324 Y0.3893
G01 X88.7428 Y0.3312
G01 X88.2054 Y0.2684
G01 X85.8890 Y0.0000
G01 X64.7556
G01 X64.7542 Y14.8206
G01 X64.7538 Y16.9908
G01 X64.7535 Y17.9956
G01 X64.7532 Y18.9481
G01 X64.7528 Y19.8499
G01 X64.7522 Y20.7021
G01 X64.7517 Y21.5060
G01 X64.7511 Y22.2629
G01 X64.7504 Y22.9739
G01 X64.7496 Y23.6404
G01 X64.7488 Y24.2635
G01 X64.7478 Y24.8444
G01 X64.7468 Y25.3847
G01 X64.7456 Y25.8853
G01 X64.7443 Y26.3475
G01 X64.7429 Y26.7728
G01 X64.7414 Y27.1619
G01 X64.7399 Y27.5167
G01 X64.7381 Y27.8381
G01 X64.7362 Y28.1272
G01 X64.7343 Y28.3856
G01 X64.7322 Y28.6142
G01 X64.7299 Y28.8144
G01 X64.7275 Y28.9876
G01 X64.7250 Y29.1349
G01 X64.7224 Y29.2575
G01 X64.7194 Y29.3567
G01 X64.7165 Y29.4337
G01 X64.7133 Y29.4899
G01 X64.7100 Y29.5262
G01 X64.7067 Y29.5443
G01 X64.7029 Y29.5451
G01 X64.6932 Y29.5208
G01 X64.6692 Y29.4589
G01 X64.6315 Y29.3599
G01 X64.5804 Y29.2250
G01 X64.5161 Y29.0551
G01 X64.4392 Y28.8514
G01 X64.3497 Y28.6144
G01 X64.2483 Y28.3456
G01 X64.1354 Y28.0454
G01 X64.0111 Y27.7150
G01 X63.8757 Y27.3554
G01 X63.7299 Y26.9675
G01 X63.5739 Y26.5521
G01 X63.4079 Y26.1104
G01 X63.2324 Y25.6432
G01 X63.0478 Y25.1515
G01 X62.8543 Y24.6363
G01 X62.6524 Y24.0983
G01 X62.4425 Y23.5388
G01 X62.2247 Y22.9585
G01 X61.9996 Y22.3583
G01 X61.7675 Y21.7396
G01 X61.2836 Y20.4492
G01 X61.0326 Y19.7794
G01 X60.7760 Y19.0947
G01 X60.5140 Y18.3960
G01 X60.2472 Y17.6840
G01 X59.9760 Y16.9600
G01 X59.7006 Y16.2247
G01 X59.4214 Y15.4792
G01 X59.1386 Y14.7242
G01 X53.6236 Y0.0000
G01 X40.5983 Y0.0190
G01 X35.2517 Y14.3507
G01 X34.9776 Y15.0856
G01 X34.4399 Y16.5275
G01 X34.1768 Y17.2329
G01 X33.9179 Y17.9265
G01 X33.6639 Y18.6076
G01 X33.4150 Y19.2751
G01 X33.1713 Y19.9282
G01 X32.9333 Y20.5658
G01 X32.7015 Y21.1872
G01 X32.4761 Y21.7912
G01 X32.2575 Y22.3771
G01 X32.0460 Y22.9439
G01 X31.8419 Y23.4906
G01 X31.6457 Y24.0163
G01 X31.4576 Y24.5201
G01 X31.2781 Y25.0011
G01 X31.1074 Y25.4583
G01 X30.9458 Y25.8908
G01 X30.7939 Y26.2979
G01 X30.6518 Y26.6782
G01 X30.5200 Y27.0311
G01 X30.3987 Y27.3557
G01 X30.2885 Y27.6508
G01 X30.1894 Y27.9158
G01 X30.1021 Y28.1496
G01 X30.0267 Y28.3511
G01 X29.9636 Y28.5197
G01 X29.9132 Y28.6543
G01 X29.8757 Y28.7540
G01 X29.8518 Y28.8178
G01 X29.8415 Y28.8449
G01 X29.7781 Y29.0075
G01 X20.8182 Y28.9981
G01 X11.8593 Y28.9885
G01 X11.8400 Y0.0000
G01 X0.0000
G01 Y19.1217
G00 Z2.0000
G01 X49.0636 Y16.9031
G01 Z0.0000
G01 X49.2724 Y17.5964
G01 X49.6714 Y18.9226
G01 X49.8596 Y19.5486
G01 X50.0388 Y20.1449
G01 X50.2078 Y20.7081
G01 X50.3658 Y21.2349
G01 X50.5117 Y21.7215
G01 X50.6443 Y22.1647
G01 X50.7626 Y22.5607
G01 X50.8657 Y22.9061
G01 X50.9524 Y23.1975
G01 X51.0217 Y23.4313
G01 X51.0724 Y23.6039
G01 X51.1036 Y23.7119
G01 X51.1143 Y23.7518
G01 X51.1021 Y23.7579
G01 X51.0643 Y23.7636
G01 X50.9993 Y23.7686
G01 X50.9057 Y23.7732
G01 X50.7815 Y23.7772
G01 X50.6256 Y23.7808
G01 X50.4360 Y23.7840
G01 X50.2111 Y23.7867
G01 X49.9494 Y23.7890
G01 X49.6494 Y23.7910
G01 X49.3094 Y23.7926
G01 X48.9278 Y23.7939
G01 X48.5028 Y23.7949
G01 X48.0331 Y23.7954
G01 X47.5168 Y23.7958
G01 X46.3032
G01 X45.7239 Y23.7956
G01 X45.2108 Y23.7950
G01 X44.7601 Y23.7940
G01 X44.3681 Y23.7928
G01 X44.0306 Y23.7911
G01 X43.7438 Y23.7889
G01 X43.5040 Y23.7862
G01 X43.3074 Y23.7829
G01 X43.1500 Y23.7790
G01 X43.0278 Y23.7744
G01 X42.9372 Y23.7692
G01 X42.8743 Y23.7631
G01 X42.8351 Y23.7561
G01 X42.8160 Y23.7483
G01 X42.8128 Y23.7394
G01 X42.8253 Y23.6999
G01 X42.9079 Y23.4275
G01 X42.9760 Y23.2015
G01 X43.0607 Y22.9201
G01 X43.1608 Y22.5868
G01 X43.2754 Y22.2049
G01 X43.4036 Y21.7776
G01 X43.5442 Y21.3087
G01 X43.6962 Y20.8014
G01 X43.8589 Y20.2589
G01 X44.0308 Y19.6849
G01 X44.2112 Y19.0826
G01 X44.3992 Y18.4554
G01 X44.5935 Y17.8068
G01 X44.7932 Y17.1401
G01 X44.9931 Y16.4717
G01 X45.1882 Y15.8187
G01 X45.3779 Y15.1846
G01 X45.5608 Y14.5731
G01 X45.7360 Y13.9875
G01 X46.0589 Y12.9084
G01 X46.2044 Y12.4219
G01 X46.3381 Y11.9755
G01 X46.4586 Y11.5727
G01 X46.5651 Y11.2170
G01 X46.6565 Y10.9121
G01 X46.7317 Y10.6612
G01 X46.7894 Y10.4681
G01 X46.8290 Y10.3362
G01 X46.8492 Y10.2690
G01 X46.8993 Y10.1131
G01 X46.9347 Y10.0257
G01 X46.9603 Y9.9980
G01 X46.9801 Y10.0210
G01 X46.9940 Y10.0640
G01 X47.0285 Y10.1751
G01 X47.0824 Y10.3507
G01 X47.1544 Y10.5874
G01 X47.2440 Y10.8816
G01 X47.3497 Y11.2298
G01 X47.4706 Y11.6284
G01 X47.6054 Y12.0739
G01 X47.7533 Y12.5628
G01 X47.9132 Y13.0915
G01 X48.0839 Y13.6566
G01 X48.2644 Y14.2544
G01 X48.4539 Y14.8815
G01 X48.8544 Y16.2093
G01 X49.0636 Y16.9031
G00 Z2.0000
G01 X84.0094 Y8.2363
G01 Z0.0000
G01 X84.2772 Y8.2662
G01 X84.5042 Y8.2949
G01 X84.7017 Y8.3250
G01 X84.8807 Y8.3587
G01 X85.0526 Y8.3983
G01 X85.2288 Y8.4464
G01 X85.4201 Y8.5050
G01 X85.6382 Y8.5767
G01 X85.8142 Y8.6370
G01 X85.9589 Y8.6892
G01 X86.0803 Y8.7372
G01 X86.1867 Y8.7850
G01 X86.2861 Y8.8365
G01 X86.3867 Y8.8956
G01 X86.4964 Y8.9663
G01 X86.6235 Y9.0523
G01 X86.8360 Y9.2116
G01 X87.0332 Y9.3861
G01 X87.2153 Y9.5750
G01 X87.3817 Y9.7775
G01 X87.5319 Y9.9929
G01 X87.6663 Y10.2203
G01 X87.7840 Y10.4590
G01 X87.8849 Y10.7082
G01 X87.9688 Y10.9671
G01 X88.0353 Y11.2349
G01 X88.0840 Y11.5108
G01 X88.1151 Y11.7942
G01 X88.1278 Y12.0840
G01 X88.1221 Y12.3796
G01 X88.0975 Y12.6802
G01 X88.0540 Y12.9850
G01 X88.0214 Y13.1571
G01 X87.9901 Y13.3048
G01 X87.9636 Y13.4123
G01 X87.9450 Y13.4634
G01 X87.9261 Y13.4959
G01 X87.9004 Y13.5512
G01 X87.8713 Y13.6215
G01 X87.8417 Y13.6991
G01 X87.8054 Y13.7877
G01 X87.7567 Y13.8865
G01 X87.7022 Y13.9836
G01 X87.6488 Y14.0669
G01 X87.5981 Y14.1412
G01 X87.5529 Y14.2140
G01 X87.5181 Y14.2769
G01 X87.4985 Y14.3217
G01 X87.4711 Y14.3704
G01 X87.4154 Y14.4393
G01 X87.3354 Y14.5246
G01 X87.2350 Y14.6226
G01 X87.1181 Y14.7296
G01 X86.9889 Y14.8417
G01 X86.8511 Y14.9551
G01 X86.7089 Y15.0661
G01 X86.5181 Y15.1967
G01 X86.3032 Y15.3169
G01 X86.0631 Y15.4276
G01 X85.7958 Y15.5287
G01 X85.5006 Y15.6212
G01 X85.1756 Y15.7053
G01 X84.8194 Y15.7813
G01 X84.4310 Y15.8500
G01 X83.7406 Y15.9604
G01 X76.6135
G01 X76.6039 Y12.1087
G01 X76.6029 Y11.7162
G01 X76.6022 Y11.3342
G01 X76.6018 Y10.9647
G01 X76.6014 Y10.6097
G01 Y10.2713
G01 X76.6015 Y9.9513
G01 X76.6018 Y9.6519
G01 X76.6022 Y9.3750
G01 X76.6029 Y9.1226
G01 X76.6038 Y8.8968
G01 X76.6047 Y8.6994
G01 X76.6060 Y8.5326
G01 X76.6072 Y8.3982
G01 X76.6088 Y8.2983
G01 X76.6103 Y8.2350
G01 X76.6121 Y8.2102
G01 X76.6233 Y8.2034
G01 X76.6525 Y8.1971
G01 X76.7017 Y8.1915
G01 X76.7725 Y8.1865
G01 X76.8668 Y8.1820
G01 X76.9864 Y8.1781
G01 X77.1332 Y8.1747
G01 X77.3088 Y8.1718
G01 X77.5153 Y8.1694
G01 X77.7543 Y8.1674
G01 X78.0276 Y8.1659
G01 X78.3374 Y8.1646
G01 X78.6850 Y8.1639
G01 X79.0725 Y8.1634
G01 X79.5017 Y8.1632
G01 X79.9744 Y8.1633
G01 X80.5097 Y8.1635
G01 X80.9879 Y8.1639
G01 X81.4132 Y8.1646
G01 X81.7894 Y8.1656
G01 X82.1211 Y8.1673
G01 X82.4122 Y8.1694
G01 X82.6669 Y8.1722
G01 X82.8894 Y8.1756
G01 X83.0840 Y8.1799
G01 X83.2546 Y8.1849
G01 X83.4054 Y8.1908
G01 X83.5407 Y8.1977
G01 X83.6646 Y8.2056
G01 X83.7813 Y8.2147
G01 X83.8949 Y8.2249
G01 X84.0094 Y8.2363
G00 Z2.0000
G01 X83.0558 Y23.4915
G01 Z0.0000
G01 X83.4482 Y23.5644
G01 X83.7956 Y23.6422
G01 X84.1033 Y23.7267
G01 X84.3768 Y23.8197
G01 X84.6211 Y23.9236
G01 X84.8415 Y24.0401
G01 X85.0433 Y24.1715
G01 X85.2318 Y24.3194
G01 X85.3599 Y24.4415
G01 X85.4925 Y24.5914
G01 X85.6240 Y24.7604
G01 X85.7490 Y24.9401
G01 X85.8619 Y25.1222
G01 X85.9571 Y25.2979
G01 X86.0290 Y25.4590
G01 X86.0722 Y25.5968
G01 X86.0863 Y25.6558
G01 X86.1096 Y25.7439
G01 X86.1390 Y25.8494
G01 X86.1717 Y25.9610
G01 X86.1947 Y26.0444
G01 X86.2128 Y26.1261
G01 X86.2265 Y26.2131
G01 X86.2364 Y26.3125
G01 X86.2429 Y26.4314
G01 X86.2468 Y26.5769
G01 X86.2485 Y26.7562
G01 Y26.9763
G01 X86.2471 Y27.2371
G01 X86.2433 Y27.4490
G01 X86.2361 Y27.6215
G01 X86.2247 Y27.7642
G01 X86.2078 Y27.8860
G01 X86.1844 Y27.9967
G01 X86.1537 Y28.1057
G01 X86.1149 Y28.2222
G01 X86.0876 Y28.2999
G01 X86.0633 Y28.3692
G01 X86.0446 Y28.4224
G01 X86.0338 Y28.4522
G01 X86.0108 Y28.5032
G01 X85.9693 Y28.5813
G01 X85.9138 Y28.6789
G01 X85.8487 Y28.7882
G01 X85.7790 Y28.9015
G01 X85.7093 Y29.0111
G01 X85.6443 Y29.1093
G01 X85.5885 Y29.1882
G01 X85.4515 Y29.3513
G01 X85.2869 Y29.5085
G01 X85.0979 Y29.6578
G01 X84.8878 Y29.7974
G01 X84.6597 Y29.9249
G01 X84.4172 Y30.0385
G01 X84.1635 Y30.1363
G01 X83.9018 Y30.2161
G01 X83.7599 Y30.2535
G01 X83.6272 Y30.2863
G01 X83.4985 Y30.3149
G01 X83.3679 Y30.3397
G01 X83.2303 Y30.3610
G01 X83.0797 Y30.3792
G01 X82.9110 Y30.3943
G01 X82.7182 Y30.4071
G01 X82.4960 Y30.4175
G01 X82.2389 Y30.4260
G01 X81.9413 Y30.4328
G01 X81.5974 Y30.4382
G01 X81.2019 Y30.4428
G01 X80.7494 Y30.4465
G01 X80.2340 Y30.4499
G01 X79.6506 Y30.4532
G01 X76.5956 Y30.4712
G01 Y23.4128
G01 X79.5983
G01 X80.1008 Y23.4129
G01 X80.5453 Y23.4132
G01 X80.9360 Y23.4138
G01 X81.2771 Y23.4147
G01 X81.5729 Y23.4161
G01 X81.8278 Y23.4182
G01 X82.0458 Y23.4208
G01 X82.2312 Y23.4243
G01 X82.3886 Y23.4286
G01 X82.5218 Y23.4339
G01 X82.6353 Y23.4403
G01 X82.7333 Y23.4478
G01 X82.8201 Y23.4567
G01 X82.9000 Y23.4668
G01 X82.9772 Y23.4783
G01 X83.0558 Y23.4915
G00 Z2.0000
G01 X91.0689 Y47.6981
G01 Z0.0000
G01 X91.0550 Y47.7463
G01 X91.0314 Y47.8258
G01 X90.9988 Y47.9344
G01 X90.9576 Y48.0703
G01 X90.9089 Y48.2310
G01 X90.8529 Y48.4144
G01 X90.7907 Y48.6185
G01 X90.7225 Y48.8410
G01 X90.6493 Y49.0797
G01 X90.5718 Y49.3326
G01 X90.4904 Y49.5975
G01 X90.4060 Y49.8721
G01 X90.3190 Y50.1544
G01 X90.2304 Y50.4425
G01 X90.1407 Y50.7338
G01 X90.0504 Y51.0262
G01 X89.9606 Y51.3178
G01 X89.8714 Y51.6062
G01 X89.7839 Y51.8894
G01 X89.6985 Y52.1653
G01 X89.6161 Y52.4317
G01 X89.5371 Y52.6862
G01 X89.4624 Y52.9269
G01 X89.3926 Y53.1518
G01 X89.3282 Y53.3583
G01 X89.2701 Y53.5447
G01 X89.2189 Y53.7085
G01 X89.1751 Y53.8476
G01 X89.1396 Y53.9601
G01 X89.1129 Y54.0437
G01 X89.0957 Y54.0962
G01 X89.0888 Y54.1154
G01 X89.0819 Y54.1001
G01 X89.0651 Y54.0519
G01 X89.0389 Y53.9729
G01 X89.0039 Y53.8653
G01 X88.9608 Y53.7311
G01 X88.9103 Y53.5724
G01 X88.8529 Y53.3912
G01 X88.7893 Y53.1899
G01 X88.7203 Y52.9703
G01 X88.6464 Y52.7344
G01 X88.5683 Y52.4846
G01 X88.4867 Y52.2229
G01 X88.4021 Y51.9514
G01 X88.3153 Y51.6721
G01 X88.2268 Y51.3872
G01 X88.1374 Y51.0988
G01 X88.0476 Y50.8088
G01 X87.9583 Y50.5196
G01 X87.8699 Y50.2329
G01 X87.7831 Y49.9513
G01 X87.6985 Y49.6764
G01 X87.6169 Y49.4106
G01 X87.4650 Y48.9144
G01 X87.3961 Y48.6882
G01 X87.3326 Y48.4794
G01 X87.2754 Y48.2900
G01 X87.2250 Y48.1222
G01 X87.1821 Y47.9782
G01 X87.1471 Y47.8599
G01 X87.1210 Y47.7694
G01 X87.1044 Y47.7090
G01 X87.1017 Y47.6954
G01 X87.1025 Y47.6835
G01 X87.1099 Y47.6732
G01 X87.1265 Y47.6643
G01 X87.1554 Y47.6568
G01 X87.1992 Y47.6506
G01 X87.2608 Y47.6454
G01 X87.3432 Y47.6414
G01 X87.4490 Y47.6382
G01 X87.5811 Y47.6358
G01 X87.7425 Y47.6340
G01 X87.9358 Y47.6329
G01 X88.1639 Y47.6322
G01 X88.4299 Y47.6318
G01 X88.7362 Y47.6317
G01 X89.4194
G01 X89.7139 Y47.6319
G01 X89.9715 Y47.6324
G01 X90.1947 Y47.6332
G01 X90.3861 Y47.6343
G01 X90.5478 Y47.6360
G01 X90.6824 Y47.6382
G01 X90.7922 Y47.6411
G01 X90.8796 Y47.6447
G01 X90.9472 Y47.6492
G01 X90.9972 Y47.6544
G01 X91.0321 Y47.6608
G01 X91.0543 Y47.6683
G01 X91.0663 Y47.6769
G01 X91.0703 Y47.6868
G01 X91.0689 Y47.6981
G00 Z2.0000
G01 X45.8047 Y51.6156
G01 Z0.0000
G01 X46.0219 Y51.6547
G01 X46.2269 Y51.6950
G01 X46.4174 Y51.7360
G01 X46.5908 Y51.7771
G01 X46.7450 Y51.8178
G01 X46.8775 Y51.8574
G01 X46.9861 Y51.8954
G01 X47.0683 Y51.9314
G01 X47.1475 Y51.9779
G01 X47.2333 Y52.0389
G01 X47.3222 Y52.1111
G01 X47.4107 Y52.1913
G01 X47.4954 Y52.2761
G01 X47.5729 Y52.3624
G01 X47.6397 Y52.4469
G01 X47.6924 Y52.5265
G01 X47.8154 Y52.7872
G01 X47.8946 Y53.0672
G01 X47.9306 Y53.3579
G01 X47.9242 Y53.6503
G01 X47.8763 Y53.9358
G01 X47.7876 Y54.2056
G01 X47.6590 Y54.4507
G01 X47.4914 Y54.6625
G01 X47.4012 Y54.7485
G01 X47.3049 Y54.8261
G01 X47.1999 Y54.8960
G01 X47.0844 Y54.9582
G01 X46.9561 Y55.0133
G01 X46.8131 Y55.0618
G01 X46.6531 Y55.1038
G01 X46.4738 Y55.1397
G01 X46.2733 Y55.1701
G01 X46.0496 Y55.1953
G01 X45.8003 Y55.2154
G01 X45.5235 Y55.2311
G01 X45.2168 Y55.2428
G01 X44.8783 Y55.2506
G01 X44.5058 Y55.2550
G01 X44.0972 Y55.2562
G01 X42.7990
G01 Y51.5397
G01 X44.0792
G01 X44.4537 Y51.5404
G01 X44.7594 Y51.5426
G01 X45.0079 Y51.5468
G01 X45.2111 Y51.5535
G01 X45.3807 Y51.5632
G01 X45.5283 Y51.5765
G01 X45.6657 Y51.5939
G01 X45.8047 Y51.6156
G00 Z2.0000
G01 X25.9511 Y44.6454
G01 Z0.0000
G01 X26.0992 Y44.6713
G01 X26.2589 Y44.7078
G01 X26.4247 Y44.7533
G01 X26.5914 Y44.8061
G01 X26.7535 Y44.8643
G01 X26.9056 Y44.9262
G01 X27.0422 Y44.9899
G01 X27.1582 Y45.0536
G01 X27.3476 Y45.1756
G01 X27.5239 Y45.3038
G01 X27.6876 Y45.4392
G01 X27.8393 Y45.5831
G01 X27.9796 Y45.7361
G01 X28.1089 Y45.8996
G01 X28.2276 Y46.0743
G01 X28.3365 Y46.2613
G01 X28.4361 Y46.4617
G01 X28.5268 Y46.6764
G01 X28.6093 Y46.9063
G01 X28.6839 Y47.1525
G01 X28.7513 Y47.4161
G01 X28.8119 Y47.6981
G01 X28.8665 Y47.9993
G01 X28.9154 Y48.3207
G01 X28.9321 Y48.4626
G01 X28.9467 Y48.6272
G01 X28.9590 Y48.8110
G01 X28.9692 Y49.0107
G01 X28.9772 Y49.2229
G01 X28.9831 Y49.4440
G01 X28.9867 Y49.6708
G01 X28.9879 Y49.8999
G01 X28.9871 Y50.1278
G01 X28.9840 Y50.3510
G01 X28.9787 Y50.5663
G01 X28.9711 Y50.7701
G01 X28.9612 Y50.9593
G01 X28.9492 Y51.1301
G01 X28.9349 Y51.2793
G01 X28.9182 Y51.4036
G01 X28.8386 Y51.8375
G01 X28.7450 Y52.2299
G01 X28.6357 Y52.5849
G01 X28.5086 Y52.9069
G01 X28.3619 Y53.2008
G01 X28.1936 Y53.4706
G01 X28.0015 Y53.7207
G01 X27.7840 Y53.9556
G01 X27.5797 Y54.1432
G01 X27.3656 Y54.3111
G01 X27.1411 Y54.4596
G01 X26.9061 Y54.5889
G01 X26.6604 Y54.6990
G01 X26.4035 Y54.7901
G01 X26.1350 Y54.8625
G01 X25.8547 Y54.9163
G01 X25.6712 Y54.9360
G01 X25.4506 Y54.9461
G01 X25.2060 Y54.9472
G01 X24.9511 Y54.9399
G01 X24.6997 Y54.9246
G01 X24.4650 Y54.9022
G01 X24.2607 Y54.8729
G01 X24.1004 Y54.8375
G01 X23.8400 Y54.7511
G01 X23.5857 Y54.6435
G01 X23.3397 Y54.5162
G01 X23.1049 Y54.3713
G01 X22.8832 Y54.2101
G01 X22.6776 Y54.0343
G01 X22.4904 Y53.8456
G01 X22.3242 Y53.6456
G01 X22.0900 Y53.2882
G01 X21.8889 Y52.8786
G01 X21.7213 Y52.4179
G01 X21.5874 Y51.9075
G01 X21.4872 Y51.3486
G01 X21.4215 Y50.7425
G01 X21.3904 Y50.0907
G01 X21.3942 Y49.3942
G01 X21.4231 Y48.8088
G01 X21.4751 Y48.2719
G01 X21.5514 Y47.7808
G01 X21.6525 Y47.3325
G01 X21.7793 Y46.9239
G01 X21.9325 Y46.5521
G01 X22.1129 Y46.2140
G01 X22.3213 Y45.9067
G01 X22.6397 Y45.5456
G01 X23.0012 Y45.2410
G01 X23.4037 Y44.9938
G01 X23.8449 Y44.8047
G01 X24.3224 Y44.6746
G01 X24.8340 Y44.6042
G01 X25.3776 Y44.5942
G01 X25.9511 Y44.6454
G00 Z2.0000
G00 Z2.0000
G01 X0 Y0
