G21
G90
G92 X0 Y0 Z0
;PYCAM-META-DATA: Filename: /home/moi/Documents/FormaLab/GCode/Fractal-koch-triangle.svg
;PYCAM-META-DATA: Timestamp: 2012-10-28 12:20:18.049800
;PYCAM-META-DATA: Version: 0.5.1
;Estimated machine time: 33 minutes
;PYCAM_TOOLPATH_SETTINGS: START
;[Bounds]
;maxz = 0.0
;maxx = 159.534975
;maxy = 162.876485382
;minx = -4.452475
;miny = -4.5498005451
;minz = 0.0
;
;[Tool]
;torus_radius = 0.125
;speed = 1000.0
;shape = CylindricalCutter
;tool_radius = 0.2
;feedrate = 200.0
;
;[Process]
;engrave_offset = 0.0
;step_down = 2.0
;generator = EngraveCutter
;postprocessor = SimpleCutter
;overlap_percent = 0
;milling_style = conventional
;material_allowance = 0.0
;pocketing_type = none
;path_direction = x
;
;PYCAM_TOOLPATH_SETTINGS: END
G00 Z5.0000
G01 X48.7625 Y9.8099
G01 Z0.0000
G01 X49.5298 Y8.9889
G01 X48.7557 Y8.6900
G01 X49.5086 Y7.8762
G01 X48.7356 Y7.5775
G01 X48.7439 Y8.1889
G01 X47.9789 Y7.8984
G01 X48.7310 Y7.0842
G01 X47.9661 Y6.7925
G01 X48.7053 Y5.9843
G01 X47.9322 Y5.6857
G01 X47.9415 Y6.2983
G01 X47.1753 Y6.0077
G01 X47.1847 Y6.6191
G01 X47.6006 Y6.4446
G01 X47.6134 Y7.0491
G01 X46.8472 Y6.7586
G01 X46.8602 Y7.3631
G01 X46.1013 Y7.0794
G01 X46.8545 Y6.2644
G01 X46.0883 Y5.9739
G01 X46.8287 Y5.1657
G01 X46.0626 Y4.8740
G01 X46.0742 Y5.4794
G01 X45.3165 Y5.1960
G01 X46.0569 Y4.3867
G01 X45.2989 Y4.1033
G01 X46.0250 Y3.3009
G01 X45.2509 Y3.0022
G01 X45.2604 Y3.6148
G01 X44.4955 Y3.3242
G01 X44.5048 Y3.9357
G01 X44.9207 Y3.7599
G01 X44.9336 Y4.3657
G01 X44.1674 Y4.0739
G01 X44.1791 Y4.6794
G01 X43.4214 Y4.3960
G01 X43.4307 Y5.0074
G01 X43.8478 Y4.8329
G01 X43.8595 Y5.4374
G01 X44.2762 Y5.2617
G01 X44.0409 Y5.0251
G01 X44.4520 Y4.8494
G01 X44.4638 Y5.4548
G01 X44.8748 Y5.2791
G01 X44.8901 Y5.8767
G01 X44.1240 Y5.5861
G01 X44.1368 Y6.1906
G01 X43.3779 Y5.9070
G01 X43.3909 Y6.5115
G01 X43.8019 Y6.3370
G01 X43.8172 Y6.9343
G01 X43.0583 Y6.6509
G01 X43.0735 Y7.2483
G01 X42.3239 Y6.9718
G01 X43.0756 Y6.1565
G01 X42.3110 Y5.8659
G01 X43.0499 Y5.0578
G01 X42.2839 Y4.7672
G01 X42.2969 Y5.3717
G01 X41.5389 Y5.0883
G01 X42.2781 Y4.2790
G01 X41.5203 Y3.9954
G01 X42.2465 Y3.1929
G01 X41.4803 Y2.9027
G01 X41.4933 Y3.5069
G01 X40.7356 Y3.2235
G01 X40.7472 Y3.8280
G01 X41.1583 Y3.6535
G01 X41.1737 Y4.2508
G01 X40.4156 Y3.9671
G01 X40.4308 Y4.5648
G01 X39.6800 Y4.2883
G01 X40.4191 Y3.4790
G01 X39.6613 Y3.1965
G01 X40.3886 Y2.3929
G01 X39.6296 Y2.1095
G01 X39.6449 Y2.7068
G01 X38.8953 Y2.4316
G01 X39.6216 Y1.6282
G01 X38.8708 Y1.3518
G01 X39.5853 Y0.5553
G01 X38.8110 Y0.2564
G01 X38.8203 Y0.8690
G01 X38.0542 Y0.5787
G01 X38.0638 Y1.1902
G01 X38.4806 Y1.0157
G01 X38.4922 Y1.6199
G01 X37.7273 Y1.3296
G01 X37.7391 Y1.9338
G01 X36.9813 Y1.6504
G01 X36.9906 Y2.2630
G01 X37.4076 Y2.0873
G01 X37.4194 Y2.6918
G01 X37.8365 Y2.5174
G01 X37.6010 Y2.2795
G01 X38.0123 Y2.1050
G01 X38.0239 Y2.7092
G01 X38.4350 Y2.5335
G01 X38.4503 Y3.1308
G01 X37.6842 Y2.8406
G01 X37.6959 Y3.4448
G01 X36.9382 Y3.1614
G01 X36.9509 Y3.7669
G01 X37.3609 Y3.5914
G01 X37.3761 Y4.1888
G01 X36.6181 Y3.9051
G01 X36.6335 Y4.5027
G01 X35.8839 Y4.2263
G01 X35.8918 Y4.8389
G01 X36.3090 Y4.6632
G01 X36.3219 Y5.2674
G01 X36.7378 Y5.0929
G01 X36.5033 Y4.8562
G01 X36.9135 Y4.6805
G01 X36.9264 Y5.2851
G01 X37.3363 Y5.1093
G01 X37.3514 Y5.7067
G01 X37.7685 Y5.5322
G01 X37.5330 Y5.2955
G01 X37.9441 Y5.1198
G01 X37.7087 Y4.8832
G01 X37.6116 Y5.1093
G01 X37.3782 Y4.8763
G01 X37.7894 Y4.7007
G01 X37.5552 Y4.4685
G01 X37.9607 Y4.2928
G01 X37.9723 Y4.8973
G01 X38.3834 Y4.7228
G01 X38.3987 Y5.3189
G01 X38.8098 Y5.1444
G01 X38.5756 Y4.9115
G01 X38.9807 Y4.7357
G01 X38.9961 Y5.3330
G01 X39.4012 Y5.1585
G01 X39.4188 Y5.7477
G01 X38.6527 Y5.4572
G01 X38.6656 Y6.0629
G01 X37.9079 Y5.7793
G01 X37.9196 Y6.3837
G01 X38.3307 Y6.2080
G01 X38.3459 Y6.8054
G01 X37.5870 Y6.5220
G01 X37.6020 Y7.1193
G01 X36.8523 Y6.8441
G01 X36.8642 Y7.4485
G01 X37.2755 Y7.2728
G01 X37.2904 Y7.8702
G01 X37.7006 Y7.6956
G01 X37.4673 Y7.4626
G01 X37.8729 Y7.2869
G01 X37.8881 Y7.8842
G01 X38.2919 Y7.7085
G01 X38.3109 Y8.2989
G01 X37.5529 Y8.0153
G01 X37.5681 Y8.6129
G01 X36.8172 Y8.3376
G01 X36.8325 Y8.9349
G01 X37.2379 Y8.7592
G01 X37.2554 Y9.3496
G01 X36.5044 Y9.0731
G01 X36.5235 Y9.6636
G01 X35.7807 Y9.3940
G01 X36.5327 Y8.5799
G01 X35.7677 Y8.2885
G01 X36.5069 Y7.4800
G01 X35.7407 Y7.1898
G01 X35.7536 Y7.7940
G01 X34.9959 Y7.5106
G01 X35.7350 Y6.7013
G01 X34.9772 Y6.4188
G01 X35.7033 Y5.6155
G01 X34.9387 Y5.3249
G01 X34.9504 Y5.9292
G01 X34.1924 Y5.6458
G01 X34.2040 Y6.2515
G01 X34.6153 Y6.0758
G01 X34.6303 Y6.6731
G01 X33.8726 Y6.3897
G01 X33.8879 Y6.9871
G01 X33.1370 Y6.7106
G01 X33.8774 Y5.9025
G01 X33.1181 Y5.6188
G01 X33.8456 Y4.8155
G01 X33.0868 Y4.5330
G01 X33.1020 Y5.1291
G01 X32.3523 Y4.8541
G01 X33.0783 Y4.0505
G01 X32.3277 Y3.7752
G01 X33.0420 Y2.9776
G01 X32.2761 Y2.6871
G01 X32.2890 Y3.2916
G01 X31.5298 Y3.0079
G01 X31.5427 Y3.6136
G01 X31.9529 Y3.4379
G01 X31.9679 Y4.0352
G01 X31.2101 Y3.7519
G01 X31.2254 Y4.3492
G01 X30.4758 Y4.0727
G01 X30.4875 Y4.6784
G01 X30.8986 Y4.5027
G01 X30.9139 Y5.1001
G01 X31.3238 Y4.9243
G01 X31.0908 Y4.6913
G01 X31.4959 Y4.5165
G01 X31.5111 Y5.1141
G01 X31.9154 Y4.9384
G01 X31.9340 Y5.5288
G01 X31.1762 Y5.2452
G01 X31.1916 Y5.8425
G01 X30.4407 Y5.5660
G01 X30.4558 Y6.1637
G01 X30.8611 Y5.9891
G01 X30.8789 Y6.5783
G01 X30.1280 Y6.3031
G01 X30.1465 Y6.8932
G01 X29.4041 Y6.6239
G01 X30.1430 Y5.8146
G01 X29.3852 Y5.5322
G01 X30.1115 Y4.7288
G01 X29.3536 Y4.4451
G01 X29.3687 Y5.0425
G01 X28.6181 Y4.7672
G01 X29.3453 Y3.9639
G01 X28.5945 Y3.6874
G01 X29.3079 Y2.8909
G01 X28.5501 Y2.6073
G01 X28.5654 Y3.2049
G01 X27.8157 Y2.9284
G01 X27.8308 Y3.5258
G01 X28.2349 Y3.3513
G01 X28.2539 Y3.9405
G01 X27.5029 Y3.6652
G01 X27.5204 Y4.2553
G01 X26.7780 Y3.9860
G01 X27.5054 Y3.1836
G01 X26.7546 Y2.9072
G01 X27.4678 Y2.1095
G01 X26.7182 Y1.8343
G01 X26.7356 Y2.4247
G01 X25.9931 Y2.1554
G01 X26.7063 Y1.3586
G01 X25.9638 Y1.0894
G01 X26.6654 Y0.2987
G01 X25.8913 Y0.0000
G01 X25.9005 Y0.6126
G01 X25.1355 Y0.3208
G01 X25.1439 Y0.9335
G01 X25.5608 Y0.7577
G01 X25.5737 Y1.3635
G01 X24.8075 Y1.0717
G01 X24.8195 Y1.6774
G01 X24.0615 Y1.3938
G01 X24.0707 Y2.0055
G01 X24.4879 Y1.8307
G01 X24.4996 Y2.4352
G01 X24.9167 Y2.2594
G01 X24.6813 Y2.0229
G01 X25.0923 Y1.8471
G01 X25.1041 Y2.4528
G01 X25.5152 Y2.2771
G01 X25.5304 Y2.8745
G01 X24.7642 Y2.5839
G01 X24.7772 Y3.1884
G01 X24.0183 Y2.9051
G01 X24.0311 Y3.5093
G01 X24.4411 Y3.3347
G01 X24.4564 Y3.9321
G01 X23.6983 Y3.6487
G01 X23.7136 Y4.2461
G01 X22.9639 Y3.9695
G01 X22.9721 Y4.5810
G01 X23.3892 Y4.4065
G01 X23.4020 Y5.0110
G01 X23.8179 Y4.8353
G01 X23.5835 Y4.5987
G01 X23.9937 Y4.4241
G01 X24.0066 Y5.0287
G01 X24.4165 Y4.8530
G01 X24.4318 Y5.4503
G01 X24.8486 Y5.2746
G01 X24.6132 Y5.0380
G01 X25.0243 Y4.8634
G01 X24.7890 Y4.6257
G01 X24.6918 Y4.8530
G01 X24.4585 Y4.6197
G01 X24.8698 Y4.4439
G01 X24.6354 Y4.2109
G01 X25.0407 Y4.0365
G01 X25.0525 Y4.6409
G01 X25.4636 Y4.4652
G01 X25.4788 Y5.0626
G01 X25.8901 Y4.8880
G01 X25.6558 Y4.6548
G01 X26.0610 Y4.4793
G01 X26.0762 Y5.0766
G01 X26.4812 Y4.9009
G01 X26.4990 Y5.4911
G01 X25.7329 Y5.2008
G01 X25.7458 Y5.8050
G01 X24.9880 Y5.5216
G01 X24.9997 Y6.1274
G01 X25.4108 Y5.9516
G01 X25.4261 Y6.5490
G01 X24.6683 Y6.2656
G01 X24.6822 Y6.8629
G01 X23.9326 Y6.5865
G01 X23.9445 Y7.1919
G01 X24.3556 Y7.0162
G01 X24.3707 Y7.6138
G01 X24.7820 Y7.4381
G01 X24.5475 Y7.2048
G01 X24.9529 Y7.0303
G01 X24.9682 Y7.6279
G01 X25.3734 Y7.4521
G01 X25.3910 Y8.0423
G01 X24.6330 Y7.7589
G01 X24.6484 Y8.3562
G01 X23.8974 Y8.0798
G01 X23.9127 Y8.6774
G01 X24.3182 Y8.5025
G01 X24.3355 Y9.0918
G01 X23.5859 Y8.8165
G01 X23.6036 Y9.4057
G01 X22.8608 Y9.1377
G01 X22.8704 Y9.7491
G01 X23.2860 Y9.5746
G01 X23.2988 Y10.1788
G01 X23.7149 Y10.0030
G01 X23.4807 Y9.7665
G01 X23.8905 Y9.5920
G01 X23.9034 Y10.1965
G01 X24.3146 Y10.0207
G01 X24.3298 Y10.6181
G01 X24.7455 Y10.4423
G01 X24.5113 Y10.2058
G01 X24.9211 Y10.0313
G01 X24.6870 Y9.7934
G01 X24.5886 Y10.0195
G01 X24.3556 Y9.7877
G01 X24.7668 Y9.6120
G01 X24.5334 Y9.3787
G01 X24.9377 Y9.2042
G01 X24.9506 Y9.8087
G01 X25.3604 Y9.6330
G01 X25.3758 Y10.2303
G01 X25.7869 Y10.0558
G01 X25.5538 Y9.8228
G01 X25.9578 Y9.6471
G01 X25.9730 Y10.2444
G01 X26.3785 Y10.0687
G01 X26.3959 Y10.6592
G01 X26.8130 Y10.4847
G01 X26.5776 Y10.2468
G01 X26.9887 Y10.0723
G01 X26.7532 Y9.8346
G01 X26.6561 Y10.0619
G01 X26.4228 Y9.8285
G01 X26.8340 Y9.6528
G01 X26.5998 Y9.4199
G01 X27.0052 Y9.2454
G01 X26.7696 Y9.0075
G01 X26.6723 Y9.2348
G01 X26.4393 Y9.0018
G01 X26.3422 Y9.2276
G01 X26.5237 Y9.2324
G01 X26.4289 Y9.4562
G01 X26.1956 Y9.2232
G01 X26.1008 Y9.4468
G01 X25.8691 Y9.2183
G01 X26.2789 Y9.0426
G01 X26.0456 Y8.8108
G01 X26.4511 Y8.6351
G01 X26.2180 Y8.4021
G01 X26.1218 Y8.6270
G01 X25.8913 Y8.3973
G01 X26.2951 Y8.2216
G01 X26.0634 Y7.9931
G01 X26.4627 Y7.8186
G01 X26.4756 Y8.4231
G01 X26.8855 Y8.2474
G01 X26.9009 Y8.8447
G01 X27.3119 Y8.6690
G01 X27.0777 Y8.4372
G01 X27.4829 Y8.2615
G01 X27.4982 Y8.8588
G01 X27.9036 Y8.6831
G01 X27.9210 Y9.2735
G01 X28.3320 Y9.0978
G01 X28.0991 Y8.8657
G01 X28.5033 Y8.6900
G01 X28.2701 Y8.4570
G01 X28.1753 Y8.6807
G01 X27.9435 Y8.4525
G01 X28.3486 Y8.2768
G01 X28.1168 Y8.0483
G01 X28.5150 Y7.8726
G01 X28.5302 Y8.4699
G01 X28.9354 Y8.2954
G01 X28.9531 Y8.8846
G01 X29.3582 Y8.7100
G01 X29.1264 Y8.4804
G01 X29.5259 Y8.3059
G01 X29.5432 Y8.8963
G01 X29.9427 Y8.7206
G01 X29.9639 Y9.3038
G01 X29.1978 Y9.0123
G01 X29.2108 Y9.6177
G01 X28.4517 Y9.3343
G01 X28.4646 Y9.9389
G01 X28.8758 Y9.7632
G01 X28.8910 Y10.3605
G01 X28.1318 Y10.0780
G01 X28.1471 Y10.6745
G01 X27.3974 Y10.3992
G01 X27.4091 Y11.0034
G01 X27.8202 Y10.8277
G01 X27.8355 Y11.4253
G01 X28.2454 Y11.2508
G01 X28.0124 Y11.0175
G01 X28.4179 Y10.8418
G01 X28.4328 Y11.4391
G01 X28.8371 Y11.2646
G01 X28.8556 Y11.8538
G01 X28.0979 Y11.5704
G01 X28.1132 Y12.1677
G01 X27.3624 Y11.8925
G01 X27.3777 Y12.4898
G01 X27.7828 Y12.3141
G01 X27.8004 Y12.9045
G01 X27.0496 Y12.6280
G01 X27.0685 Y13.2185
G01 X26.3257 Y12.9491
G01 X26.3373 Y13.5546
G01 X26.7486 Y13.3788
G01 X26.7638 Y13.9762
G01 X27.1737 Y13.8006
G01 X26.9408 Y13.5687
G01 X27.3458 Y13.3930
G01 X27.3612 Y13.9904
G01 X27.7653 Y13.8146
G01 X27.7839 Y14.4050
G01 X28.1938 Y14.2293
G01 X27.9608 Y13.9976
G01 X28.3663 Y13.8218
G01 X28.1330 Y13.5885
G01 X28.0370 Y13.8122
G01 X27.8061 Y13.5840
G01 X28.2103 Y13.4070
G01 X27.9786 Y13.1798
G01 X28.3779 Y13.0041
G01 X28.3932 Y13.6013
G01 X28.7983 Y13.4269
G01 X28.8160 Y14.0161
G01 X29.2211 Y13.8416
G01 X28.9893 Y13.6121
G01 X29.3888 Y13.4374
G01 X29.4063 Y14.0278
G01 X29.8056 Y13.8521
G01 X29.8268 Y14.4355
G01 X29.0680 Y14.1520
G01 X29.0830 Y14.7496
G01 X28.3333 Y14.4731
G01 X28.3486 Y15.0703
G01 X28.7528 Y14.8947
G01 X28.7715 Y15.4851
G01 X28.0205 Y15.2099
G01 X28.0394 Y15.7991
G01 X27.2955 Y15.5308
G01 X27.3108 Y16.1280
G01 X27.7161 Y15.9524
G01 X27.7348 Y16.5428
G01 X28.1390 Y16.3671
G01 X27.9069 Y16.1385
G01 X28.3063 Y15.9628
G01 X28.3240 Y16.5532
G01 X28.7234 Y16.3774
G01 X28.7444 Y16.9608
G01 X27.9936 Y16.6846
G01 X28.0124 Y17.2747
G01 X27.2696 Y17.0066
G01 X27.2874 Y17.5959
G01 X27.6867 Y17.4213
G01 X27.7078 Y18.0033
G01 X26.9641 Y17.7352
G01 X26.9851 Y18.3173
G01 X26.2507 Y18.0549
G01 X27.0029 Y17.2408
G01 X26.2367 Y16.9503
G01 X26.9770 Y16.1409
G01 X26.2108 Y15.8504
G01 X26.2237 Y16.4561
G01 X25.4648 Y16.1728
G01 X26.2052 Y15.3631
G01 X25.4471 Y15.0797
G01 X26.1734 Y14.2773
G01 X25.4072 Y13.9870
G01 X25.4201 Y14.5913
G01 X24.6624 Y14.3079
G01 X24.6741 Y14.9120
G01 X25.0851 Y14.7366
G01 X25.1005 Y15.3340
G01 X24.3415 Y15.0516
G01 X24.3568 Y15.6492
G01 X23.6071 Y15.3727
G01 X24.3460 Y14.5630
G01 X23.5884 Y14.2797
G01 X24.3146 Y13.4772
G01 X23.5568 Y13.1939
G01 X23.5718 Y13.7912
G01 X22.8222 Y13.5147
G01 X23.5484 Y12.7127
G01 X22.7976 Y12.4362
G01 X23.5121 Y11.6394
G01 X22.7460 Y11.3492
G01 X22.7579 Y11.9534
G01 X21.9999 Y11.6700
G01 X22.0128 Y12.2746
G01 X22.4227 Y12.1000
G01 X22.4380 Y12.6973
G01 X21.6803 Y12.4136
G01 X21.6956 Y13.0112
G01 X20.9447 Y12.7348
G01 X20.9576 Y13.3390
G01 X21.3675 Y13.1644
G01 X21.3829 Y13.7609
G01 X21.7939 Y13.5864
G01 X21.5606 Y13.3531
G01 X21.9648 Y13.1775
G01 X21.9801 Y13.7750
G01 X22.3853 Y13.6002
G01 X22.4041 Y14.1894
G01 X21.6452 Y13.9073
G01 X21.6601 Y14.5045
G01 X20.9105 Y14.2281
G01 X20.9258 Y14.8253
G01 X21.3301 Y14.6497
G01 X21.3486 Y15.2401
G01 X20.5977 Y14.9637
G01 X20.6167 Y15.5541
G01 X19.8727 Y15.2860
G01 X20.6131 Y14.4764
G01 X19.8553 Y14.1929
G01 X20.5816 Y13.3906
G01 X19.8235 Y13.1072
G01 X19.8387 Y13.7045
G01 X19.0879 Y13.4281
G01 X19.8142 Y12.6256
G01 X19.0646 Y12.3496
G01 X19.7780 Y11.5528
G01 X19.0202 Y11.2694
G01 X19.0352 Y11.8667
G01 X18.2847 Y11.5902
G01 X18.2996 Y12.1879
G01 X18.7051 Y12.0121
G01 X18.7228 Y12.6023
G01 X17.9732 Y12.3258
G01 X17.9905 Y12.9162
G01 X17.2480 Y12.6481
G01 X17.9739 Y11.8445
G01 X17.2243 Y11.5693
G01 X17.9377 Y10.7716
G01 X17.1869 Y10.4951
G01 X17.2058 Y11.0856
G01 X16.4630 Y10.8172
G01 X17.1764 Y10.0195
G01 X16.4339 Y9.7515
G01 X17.1355 Y8.9596
G01 X16.3695 Y8.6690
G01 X16.3811 Y9.2735
G01 X15.6233 Y8.9910
G01 X15.6363 Y9.5956
G01 X16.0461 Y9.4199
G01 X16.0613 Y10.0172
G01 X15.3034 Y9.7338
G01 X15.3188 Y10.3311
G01 X14.5678 Y10.0546
G01 X14.5806 Y10.6603
G01 X14.9907 Y10.4847
G01 X15.0059 Y11.0819
G01 X15.4170 Y10.9063
G01 X15.1841 Y10.6745
G01 X15.5880 Y10.4988
G01 X15.6033 Y11.0961
G01 X16.0087 Y10.9204
G01 X16.0261 Y11.5108
G01 X15.2684 Y11.2271
G01 X15.2836 Y11.8247
G01 X14.5339 Y11.5483
G01 X14.5493 Y12.1456
G01 X14.9531 Y11.9710
G01 X14.9721 Y12.5615
G01 X14.2212 Y12.2850
G01 X14.2385 Y12.8754
G01 X13.4961 Y12.6058
G01 X13.5091 Y13.2103
G01 X13.9190 Y13.0359
G01 X13.9342 Y13.6331
G01 X14.3454 Y13.4574
G01 X14.1121 Y13.2245
G01 X14.5162 Y13.0500
G01 X14.5316 Y13.6461
G01 X14.9367 Y13.4716
G01 X14.9543 Y14.0620
G01 X15.3655 Y13.8863
G01 X15.1325 Y13.6529
G01 X15.5364 Y13.4785
G01 X15.3034 Y13.2455
G01 X15.2086 Y13.4692
G01 X14.9765 Y13.2407
G01 X15.3820 Y13.0649
G01 X15.1500 Y12.8368
G01 X15.5493 Y12.6611
G01 X15.5646 Y13.2583
G01 X15.9688 Y13.0827
G01 X15.9874 Y13.6730
G01 X16.3916 Y13.4974
G01 X16.1610 Y13.2688
G01 X16.5592 Y13.0931
G01 X16.5778 Y13.6835
G01 X16.9760 Y13.5090
G01 X16.9973 Y14.0911
G01 X16.2392 Y13.8077
G01 X16.2546 Y14.4050
G01 X15.5037 Y14.1297
G01 X15.5190 Y14.7270
G01 X15.9242 Y14.5514
G01 X15.9418 Y15.1418
G01 X15.1922 Y14.8653
G01 X15.2098 Y15.4557
G01 X14.4671 Y15.1865
G01 X14.4824 Y15.7826
G01 X14.8875 Y15.6093
G01 X14.9053 Y16.1985
G01 X15.3106 Y16.0240
G01 X15.0785 Y15.7943
G01 X15.4779 Y15.6198
G01 X15.4956 Y16.2102
G01 X15.8950 Y16.0345
G01 X15.9160 Y16.6177
G01 X15.1652 Y16.3412
G01 X15.1829 Y16.9316
G01 X14.4401 Y16.6621
G01 X14.4590 Y17.2525
G01 X14.8571 Y17.0768
G01 X14.8782 Y17.6603
G01 X14.1358 Y17.3907
G01 X14.1568 Y17.9739
G01 X13.4212 Y17.7128
G01 X14.1616 Y16.9035
G01 X13.4023 Y16.6188
G01 X14.1298 Y15.8176
G01 X13.3720 Y15.5343
G01 X13.3872 Y16.1315
G01 X12.6364 Y15.8552
G01 X13.3625 Y15.0527
G01 X12.6128 Y14.7763
G01 X13.3261 Y13.9786
G01 X12.5684 Y13.6964
G01 X12.5837 Y14.2938
G01 X11.8329 Y14.0173
G01 X11.8482 Y14.6146
G01 X12.2533 Y14.4389
G01 X12.2709 Y15.0293
G01 X11.5212 Y14.7529
G01 X11.5387 Y15.3433
G01 X10.7962 Y15.0750
G01 X11.5224 Y14.2716
G01 X10.7728 Y13.9951
G01 X11.4861 Y13.1987
G01 X10.7353 Y12.9222
G01 X10.7539 Y13.5124
G01 X10.0115 Y13.2443
G01 X10.7249 Y12.4465
G01 X9.9821 Y12.1782
G01 X10.6825 Y11.3866
G01 X9.9248 Y11.1029
G01 X9.9398 Y11.7006
G01 X9.1902 Y11.4253
G01 X9.2042 Y12.0226
G01 X9.6096 Y11.8469
G01 X9.6283 Y12.4374
G01 X8.8774 Y12.1609
G01 X8.8951 Y12.7510
G01 X8.1526 Y12.4817
G01 X8.1676 Y13.0790
G01 X8.5730 Y12.9045
G01 X8.5904 Y13.4937
G01 X8.9958 Y13.3192
G01 X8.7641 Y13.0896
G01 X9.1634 Y12.9150
G01 X9.1808 Y13.5054
G01 X9.5803 Y13.3298
G01 X9.6016 Y13.9130
G01 X8.8507 Y13.6368
G01 X8.8693 Y14.2269
G01 X8.1256 Y13.9577
G01 X8.1442 Y14.5481
G01 X8.5436 Y14.3724
G01 X8.5637 Y14.9556
G01 X7.8210 Y14.6863
G01 X7.8420 Y15.2695
G01 X7.1064 Y15.0084
G01 X7.8339 Y14.2048
G01 X7.0830 Y13.9283
G01 X7.7964 Y13.1317
G01 X7.0467 Y12.8554
G01 X7.0644 Y13.4458
G01 X6.3217 Y13.1775
G01 X7.0351 Y12.3797
G01 X6.2923 Y12.1116
G01 X6.9940 Y11.3198
G01 X6.2431 Y11.0433
G01 X6.2620 Y11.6337
G01 X5.5180 Y11.3653
G01 X5.5370 Y11.9545
G01 X5.9363 Y11.7801
G01 X5.9561 Y12.3624
G01 X5.2137 Y12.0940
G01 X5.2347 Y12.6772
G01 X4.4991 Y12.4148
G01 X5.2137 Y11.6185
G01 X4.4709 Y11.3492
G01 X5.1714 Y10.5584
G01 X4.4289 Y10.2888
G01 X4.4500 Y10.8723
G01 X3.7144 Y10.6099
G01 X4.4161 Y9.8193
G01 X3.6802 Y9.5569
G01 X4.3690 Y8.7722
G01 X3.2751 Y8.5190
G01 X3.4040 Y9.3380
G01 X2.3215 Y9.0930
G01 X2.4505 Y9.9119
G01 X2.9752 Y9.5979
G01 X3.1062 Y10.4073
G01 X2.0241 Y10.1626
G01 X2.1554 Y10.9708
G01 X1.0858 Y10.7353
G01 X1.2135 Y11.5540
G01 X1.7395 Y11.2400
G01 X1.8705 Y12.0484
G01 X2.3953 Y11.7345
G01 X2.0358 Y11.4616
G01 X2.5536 Y11.1477
G01 X2.6847 Y11.9570
G01 X3.2013 Y11.6442
G01 X3.3359 Y12.4419
G01 X2.2537 Y12.1971
G01 X2.3848 Y13.0052
G01 X1.3143 Y12.7699
G01 X1.4454 Y13.5780
G01 X1.9632 Y13.2653
G01 X2.0966 Y14.0629
G01 X1.0261 Y13.8274
G01 X1.1596 Y14.6252
G01 X0.1008 Y14.3981
G01 X0.2297 Y15.2168
G01 X0.7556 Y14.9029
G01 X0.8867 Y15.7113
G01 X1.4115 Y15.3972
G01 X1.0519 Y15.1245
G01 X1.5695 Y14.8117
G01 X1.7008 Y15.6198
G01 X2.2175 Y15.3070
G01 X2.3521 Y16.1046
G01 X2.8769 Y15.7907
G01 X2.5173 Y15.5178
G01 X3.0349 Y15.2050
G01 X2.6742 Y14.9322
G01 X2.5863 Y15.2530
G01 X2.2292 Y14.9862
G01 X2.7467 Y14.6722
G01 X2.3896 Y14.4050
G01 X2.8990 Y14.0922
G01 X3.0301 Y14.9017
G01 X3.5479 Y14.5876
G01 X3.6814 Y15.3865
G01 X4.1993 Y15.0740
G01 X3.8418 Y14.8057
G01 X4.3516 Y14.4941
G01 X4.4862 Y15.2917
G01 X4.9957 Y14.9801
G01 X5.1315 Y15.7673
G01 X4.0493 Y15.5238
G01 X4.1804 Y16.3319
G01 X3.1098 Y16.0953
G01 X3.2412 Y16.9047
G01 X3.7588 Y16.5908
G01 X3.8922 Y17.3895
G01 X2.8217 Y17.1530
G01 X2.9563 Y17.9517
G01 X1.8975 Y17.7233
G01 X2.0288 Y18.5330
G01 X2.5464 Y18.2190
G01 X2.6801 Y19.0178
G01 X3.1965 Y18.7050
G01 X2.8406 Y18.4366
G01 X3.3501 Y18.1250
G01 X3.4835 Y18.9228
G01 X3.9930 Y18.6112
G01 X4.1291 Y19.3983
G01 X3.0583 Y19.1629
G01 X3.1929 Y19.9605
G01 X2.1341 Y19.7335
G01 X2.2675 Y20.5312
G01 X2.7773 Y20.2197
G01 X2.9132 Y21.0080
G01 X1.8543 Y20.7795
G01 X1.9914 Y21.5678
G01 X0.9440 Y21.3474
G01 X1.0717 Y22.1663
G01 X1.5977 Y21.8524
G01 X1.7290 Y22.6617
G01 X2.2550 Y22.3466
G01 X1.8939 Y22.0736
G01 X2.4118 Y21.7609
G01 X2.5428 Y22.5694
G01 X3.0607 Y22.2566
G01 X3.1941 Y23.0554
G01 X3.7189 Y22.7403
G01 X3.3593 Y22.4674
G01 X3.8772 Y22.1546
G01 X3.5165 Y21.8818
G01 X3.4298 Y22.2039
G01 X3.0724 Y21.9354
G01 X3.5902 Y21.6226
G01 X3.2328 Y21.3545
G01 X3.7423 Y21.0430
G01 X3.8736 Y21.8512
G01 X4.3915 Y21.5384
G01 X4.5249 Y22.3361
G01 X5.0412 Y22.0233
G01 X4.6853 Y21.7552
G01 X5.1948 Y21.4437
G01 X5.3285 Y22.2413
G01 X5.8380 Y21.9297
G01 X5.9739 Y22.7181
G01 X6.4998 Y22.4042
G01 X6.1391 Y22.1313
G01 X6.6566 Y21.8172
G01 X6.2971 Y21.5444
G01 X6.2092 Y21.8665
G01 X5.8521 Y21.5981
G01 X6.3697 Y21.2853
G01 X6.0125 Y21.0173
G01 X6.5220 Y20.7057
G01 X6.1624 Y20.4328
G01 X6.0746 Y20.7549
G01 X5.7172 Y20.4865
G01 X5.6293 Y20.8089
G01 X5.8743 Y20.7795
G01 X5.7888 Y21.0979
G01 X5.4326 Y20.8298
G01 X5.3471 Y21.1483
G01 X4.9933 Y20.8858
G01 X5.5100 Y20.5731
G01 X5.1540 Y20.3039
G01 X5.6635 Y19.9935
G01 X5.3060 Y19.7252
G01 X5.2206 Y20.0439
G01 X4.8667 Y19.7804
G01 X5.3765 Y19.4675
G01 X5.0227 Y19.2052
G01 X5.5240 Y18.8949
G01 X5.6551 Y19.7030
G01 X6.1729 Y19.3903
G01 X6.3064 Y20.1890
G01 X6.8243 Y19.8751
G01 X6.4668 Y19.6081
G01 X6.9766 Y19.2954
G01 X7.1100 Y20.0943
G01 X7.6195 Y19.7828
G01 X7.7565 Y20.5698
G01 X8.2732 Y20.2571
G01 X7.9169 Y19.9888
G01 X8.4267 Y19.6772
G01 X8.0693 Y19.4091
G01 X7.9838 Y19.7276
G01 X7.6300 Y19.4652
G01 X8.1397 Y19.1524
G01 X7.7859 Y18.8900
G01 X8.2873 Y18.5796
G01 X8.4207 Y19.3773
G01 X8.9302 Y19.0657
G01 X9.0672 Y19.8529
G01 X9.5770 Y19.5413
G01 X9.2219 Y19.2790
G01 X9.7245 Y18.9687
G01 X9.8603 Y19.7558
G01 X10.3629 Y19.4454
G01 X10.5012 Y20.2228
G01 X9.4186 Y19.9783
G01 X9.5499 Y20.7864
G01 X8.4791 Y20.5509
G01 X8.6105 Y21.3592
G01 X9.1281 Y21.0467
G01 X9.2619 Y21.8442
G01 X8.1910 Y21.6086
G01 X8.3260 Y22.4066
G01 X7.2668 Y22.1792
G01 X7.3982 Y22.9874
G01 X7.9157 Y22.6747
G01 X8.0494 Y23.4722
G01 X8.5671 Y23.1595
G01 X8.2099 Y22.8914
G01 X8.7194 Y22.5799
G01 X8.8528 Y23.3775
G01 X9.3626 Y23.0659
G01 X9.4984 Y23.8543
G01 X8.4288 Y23.6177
G01 X8.5626 Y24.4165
G01 X7.5034 Y24.1880
G01 X7.6372 Y24.9868
G01 X8.1466 Y24.6740
G01 X8.2825 Y25.4624
G01 X7.2249 Y25.2339
G01 X7.3607 Y26.0222
G01 X6.3136 Y25.8034
G01 X6.4446 Y26.6114
G01 X6.9625 Y26.2987
G01 X7.0959 Y27.0963
G01 X7.6138 Y26.7836
G01 X7.2564 Y26.5155
G01 X7.7658 Y26.2040
G01 X7.8995 Y27.0015
G01 X8.4090 Y26.6900
G01 X8.5448 Y27.4784
G01 X9.0627 Y27.1645
G01 X8.7053 Y26.8973
G01 X9.2148 Y26.5845
G01 X8.8576 Y26.3176
G01 X8.7734 Y26.6360
G01 X8.4195 Y26.3725
G01 X8.9290 Y26.0610
G01 X8.5742 Y25.7973
G01 X9.0768 Y25.4870
G01 X9.2103 Y26.2859
G01 X9.7197 Y25.9730
G01 X9.8555 Y26.7614
G01 X10.3650 Y26.4499
G01 X10.0115 Y26.1862
G01 X10.5137 Y25.8759
G01 X10.6498 Y26.6642
G01 X11.1512 Y26.3527
G01 X11.2904 Y27.1305
G01 X10.2199 Y26.8949
G01 X10.3533 Y27.6927
G01 X9.2945 Y27.4654
G01 X9.4279 Y28.2631
G01 X9.9377 Y27.9515
G01 X10.0748 Y28.7387
G01 X9.0156 Y28.5115
G01 X9.1518 Y29.2997
G01 X8.1043 Y29.0797
G01 X8.2381 Y29.8784
G01 X8.7475 Y29.5657
G01 X8.8846 Y30.3541
G01 X9.3940 Y30.0425
G01 X9.0393 Y29.7789
G01 X9.5416 Y29.4683
G01 X9.6774 Y30.2565
G01 X10.1800 Y29.9450
G01 X10.3182 Y30.7229
G01 X9.2594 Y30.4956
G01 X9.3964 Y31.2827
G01 X8.3493 Y31.0638
G01 X8.4852 Y31.8522
G01 X8.9865 Y31.5406
G01 X9.1259 Y32.3182
G01 X8.0786 Y32.0993
G01 X8.2168 Y32.8771
G01 X7.1814 Y32.6651
G01 X7.3103 Y33.4837
G01 X7.8351 Y33.1698
G01 X7.9661 Y33.9779
G01 X8.4921 Y33.6642
G01 X8.1313 Y33.3910
G01 X8.6492 Y33.0783
G01 X8.7802 Y33.8868
G01 X9.2981 Y33.5739
G01 X9.4315 Y34.3716
G01 X9.9563 Y34.0576
G01 X9.5968 Y33.7848
G01 X10.1143 Y33.4721
G01 X9.7536 Y33.1991
G01 X9.6669 Y33.5211
G01 X9.3098 Y33.2530
G01 X9.8274 Y32.9403
G01 X9.4702 Y32.6719
G01 X9.9797 Y32.3604
G01 X10.1110 Y33.1685
G01 X10.6286 Y32.8558
G01 X10.7624 Y33.6534
G01 X11.2786 Y33.3410
G01 X10.9228 Y33.0726
G01 X11.4322 Y32.7609
G01 X11.5657 Y33.5587
G01 X12.0754 Y33.2471
G01 X12.2112 Y34.0353
G01 X12.7372 Y33.7214
G01 X12.3763 Y33.4473
G01 X12.8940 Y33.1346
G01 X12.5345 Y32.8618
G01 X12.4466 Y33.1838
G01 X12.0892 Y32.9157
G01 X12.6070 Y32.6030
G01 X12.2499 Y32.3347
G01 X12.7594 Y32.0231
G01 X12.3999 Y31.7502
G01 X12.3120 Y32.0723
G01 X11.9546 Y31.8039
G01 X11.8667 Y32.1262
G01 X12.1117 Y32.0968
G01 X12.0260 Y32.4156
G01 X11.6700 Y32.1472
G01 X11.5845 Y32.4660
G01 X11.2307 Y32.2036
G01 X11.7473 Y31.8896
G01 X11.3911 Y31.6225
G01 X11.9008 Y31.3097
G01 X11.5434 Y31.0426
G01 X11.4580 Y31.3613
G01 X11.1041 Y31.0977
G01 X11.6136 Y30.7861
G01 X11.2601 Y30.5226
G01 X11.7614 Y30.2123
G01 X11.8924 Y31.0204
G01 X12.4103 Y30.7076
G01 X12.5438 Y31.5064
G01 X13.0617 Y31.1925
G01 X12.7042 Y30.9243
G01 X13.2138 Y30.6128
G01 X13.3475 Y31.4116
G01 X13.8569 Y31.1000
G01 X13.9940 Y31.8872
G01 X14.5106 Y31.5745
G01 X14.1544 Y31.3061
G01 X14.6638 Y30.9945
G01 X14.3067 Y30.7264
G01 X14.2212 Y31.0449
G01 X13.8674 Y30.7825
G01 X14.3768 Y30.4698
G01 X14.0234 Y30.2075
G01 X14.5246 Y29.8970
G01 X14.6582 Y30.6947
G01 X15.1676 Y30.3831
G01 X15.3046 Y31.1703
G01 X15.8142 Y30.8587
G01 X15.4594 Y30.5963
G01 X15.9616 Y30.2847
G01 X16.0977 Y31.0731
G01 X16.6000 Y30.7628
G01 X16.7383 Y31.5406
G01 X17.2642 Y31.2266
G01 X16.9034 Y30.9526
G01 X17.4213 Y30.6398
G01 X17.0615 Y30.3669
G01 X16.9736 Y30.6890
G01 X16.6166 Y30.4206
G01 X17.1344 Y30.1079
G01 X16.7770 Y29.8398
G01 X17.2864 Y29.5281
G01 X16.9268 Y29.2551
G01 X16.8390 Y29.5774
G01 X16.4818 Y29.3090
G01 X16.3940 Y29.6311
G01 X16.6387 Y29.6019
G01 X16.5532 Y29.9204
G01 X16.1962 Y29.6523
G01 X16.1115 Y29.9708
G01 X15.7569 Y29.7084
G01 X16.2744 Y29.3945
G01 X15.9172 Y29.1276
G01 X16.4268 Y28.8148
G01 X16.0708 Y28.5477
G01 X15.9854 Y28.8664
G01 X15.6315 Y28.6028
G01 X16.1409 Y28.2913
G01 X15.7861 Y28.0278
G01 X16.2885 Y27.7173
G01 X15.9289 Y27.4442
G01 X15.8410 Y27.7665
G01 X15.4839 Y27.4982
G01 X15.3961 Y27.8202
G01 X15.6407 Y27.7911
G01 X15.5553 Y28.1096
G01 X15.1983 Y27.8415
G01 X15.1136 Y28.1600
G01 X14.7588 Y27.8976
G01 X14.6722 Y28.2196
G01 X14.9157 Y28.1906
G01 X14.8315 Y28.5090
G01 X15.0762 Y28.4799
G01 X14.9882 Y28.3205
G01 X15.2308 Y28.2913
G01 X15.1454 Y28.6098
G01 X15.3864 Y28.5795
G01 X15.3046 Y28.8943
G01 X14.9475 Y28.6262
G01 X14.8617 Y28.9447
G01 X14.5082 Y28.6823
G01 X14.4239 Y29.0011
G01 X14.6650 Y28.9705
G01 X14.5820 Y29.2868
G01 X14.2281 Y29.0232
G01 X14.1462 Y29.3384
G01 X13.7948 Y29.0806
G01 X14.3124 Y28.7681
G01 X13.9552 Y28.4996
G01 X14.4648 Y28.1881
G01 X14.1075 Y27.9198
G01 X14.0220 Y28.2385
G01 X13.6683 Y27.9748
G01 X14.1777 Y27.6633
G01 X13.8241 Y27.3998
G01 X14.3252 Y27.0895
G01 X13.9681 Y26.8211
G01 X13.8839 Y27.1399
G01 X13.5300 Y26.8762
G01 X13.4446 Y27.1960
G01 X13.6859 Y27.1656
G01 X13.6037 Y27.4807
G01 X13.2503 Y27.2183
G01 X13.1668 Y27.5333
G01 X12.8155 Y27.2756
G01 X13.3253 Y26.9629
G01 X12.9713 Y26.7004
G01 X13.4739 Y26.3902
G01 X13.1189 Y26.1266
G01 X13.0371 Y26.4417
G01 X12.6857 Y26.1839
G01 X13.1878 Y25.8735
G01 X12.8368 Y25.6147
G01 X13.3310 Y25.3055
G01 X13.4622 Y26.1138
G01 X13.9786 Y25.8010
G01 X14.1133 Y26.5998
G01 X14.6299 Y26.2870
G01 X14.2740 Y26.0189
G01 X14.7835 Y25.7071
G01 X14.9169 Y26.5049
G01 X15.4263 Y26.1934
G01 X15.5622 Y26.9806
G01 X16.0800 Y26.6679
G01 X15.7229 Y26.3995
G01 X16.2324 Y26.0878
G01 X15.8749 Y25.8196
G01 X15.7906 Y26.1383
G01 X15.4360 Y25.8759
G01 X15.9466 Y25.5643
G01 X15.5916 Y25.3008
G01 X16.0942 Y24.9904
G01 X16.2275 Y25.7881
G01 X16.7371 Y25.4764
G01 X16.8732 Y26.2648
G01 X17.3826 Y25.9521
G01 X17.0288 Y25.6897
G01 X17.5302 Y25.3793
G01 X17.6672 Y26.1665
G01 X18.1685 Y25.8561
G01 X18.3081 Y26.6336
G01 X18.8244 Y26.3209
G01 X18.4674 Y26.0528
G01 X18.9779 Y25.7413
G01 X18.6208 Y25.4730
G01 X18.5349 Y25.7917
G01 X18.1815 Y25.5268
G01 X18.6909 Y25.2165
G01 X18.3371 Y24.9542
G01 X18.8385 Y24.6425
G01 X18.4814 Y24.3754
G01 X18.3971 Y24.6929
G01 X18.0421 Y24.4306
G01 X17.9578 Y24.7490
G01 X18.1988 Y24.7199
G01 X18.1171 Y25.0349
G01 X17.7619 Y24.7712
G01 X17.6801 Y25.0865
G01 X17.3287 Y24.8288
G01 X17.8382 Y24.5173
G01 X17.4846 Y24.2524
G01 X17.9857 Y23.9433
G01 X17.6322 Y23.6798
G01 X17.5500 Y23.9949
G01 X17.1986 Y23.7370
G01 X17.7000 Y23.4267
G01 X17.3485 Y23.1691
G01 X17.8429 Y22.8584
G01 X17.9775 Y23.6574
G01 X18.4870 Y23.3457
G01 X18.6229 Y24.1328
G01 X19.1326 Y23.8212
G01 X18.7789 Y23.5577
G01 X19.2801 Y23.2473
G01 X19.4160 Y24.0356
G01 X19.9186 Y23.7254
G01 X20.0569 Y24.5031
G01 X20.5663 Y24.1904
G01 X20.2124 Y23.9281
G01 X20.7150 Y23.6177
G01 X20.3600 Y23.3541
G01 X20.2782 Y23.6693
G01 X19.9267 Y23.4114
G01 X20.4281 Y23.1009
G01 X20.0778 Y22.8422
G01 X20.5720 Y22.5330
G01 X20.7081 Y23.3211
G01 X21.2091 Y23.0096
G01 X21.3486 Y23.7873
G01 X21.8499 Y23.4770
G01 X21.4985 Y23.2194
G01 X21.9931 Y22.9100
G01 X22.1325 Y23.6878
G01 X22.6267 Y23.3775
G01 X22.7673 Y24.1458
G01 X21.6848 Y23.9011
G01 X21.8161 Y24.7092
G01 X20.7455 Y24.4737
G01 X20.8767 Y25.2820
G01 X21.3945 Y24.9694
G01 X21.5279 Y25.7670
G01 X20.4586 Y25.5316
G01 X20.5921 Y26.3293
G01 X19.5333 Y26.1020
G01 X19.6642 Y26.9101
G01 X20.1822 Y26.5974
G01 X20.3156 Y27.3950
G01 X20.8334 Y27.0823
G01 X20.4760 Y26.8142
G01 X20.9854 Y26.5026
G01 X21.1192 Y27.3003
G01 X21.6288 Y26.9887
G01 X21.7645 Y27.7771
G01 X20.6953 Y27.5404
G01 X20.8287 Y28.3381
G01 X19.7698 Y28.1108
G01 X19.9033 Y28.9083
G01 X20.4128 Y28.5968
G01 X20.5487 Y29.3852
G01 X19.4910 Y29.1568
G01 X19.6268 Y29.9450
G01 X18.5797 Y29.7249
G01 X18.7107 Y30.5342
G01 X19.2285 Y30.2215
G01 X19.3621 Y31.0192
G01 X19.8800 Y30.7065
G01 X19.5225 Y30.4382
G01 X20.0323 Y30.1267
G01 X20.1657 Y30.9243
G01 X20.6751 Y30.6128
G01 X20.8110 Y31.4012
G01 X21.3289 Y31.0872
G01 X20.9717 Y30.8201
G01 X21.4811 Y30.5073
G01 X21.1237 Y30.2404
G01 X21.0394 Y30.5576
G01 X20.6857 Y30.2953
G01 X21.1954 Y29.9837
G01 X20.8404 Y29.7201
G01 X21.3429 Y29.4097
G01 X21.4764 Y30.2075
G01 X21.9858 Y29.8958
G01 X22.1218 Y30.6841
G01 X22.6315 Y30.3726
G01 X22.2776 Y30.1091
G01 X22.7801 Y29.7987
G01 X22.9160 Y30.5858
G01 X23.4174 Y30.2755
G01 X23.5568 Y31.0533
G01 X22.4861 Y30.8177
G01 X22.6197 Y31.6156
G01 X21.5606 Y31.3882
G01 X21.6944 Y32.1859
G01 X22.2050 Y31.8742
G01 X22.3408 Y32.6615
G01 X21.2820 Y32.4342
G01 X21.4179 Y33.2225
G01 X20.3708 Y33.0024
G01 X20.5042 Y33.8001
G01 X21.0148 Y33.4885
G01 X21.1507 Y34.2768
G01 X21.6601 Y33.9652
G01 X21.3067 Y33.7016
G01 X21.8080 Y33.3910
G01 X21.9439 Y34.1781
G01 X22.4461 Y33.8677
G01 X22.5844 Y34.6456
G01 X21.5256 Y34.4184
G01 X21.6626 Y35.2055
G01 X20.6155 Y34.9866
G01 X20.7513 Y35.7738
G01 X21.2527 Y35.4633
G01 X21.3921 Y36.2409
G01 X20.3450 Y36.0221
G01 X20.4832 Y36.7999
G01 X19.4475 Y36.5879
G01 X19.5788 Y37.3960
G01 X20.0967 Y37.0832
G01 X20.2301 Y37.8808
G01 X20.7477 Y37.5681
G01 X20.3906 Y37.2999
G01 X20.9001 Y36.9884
G01 X21.0338 Y37.7873
G01 X21.5433 Y37.4746
G01 X21.6790 Y38.2628
G01 X22.1966 Y37.9501
G01 X21.8395 Y37.6818
G01 X22.3490 Y37.3702
G01 X21.9919 Y37.1019
G01 X21.9076 Y37.4206
G01 X21.5538 Y37.1570
G01 X22.0632 Y36.8454
G01 X21.7084 Y36.5831
G01 X22.2108 Y36.2714
G01 X22.3445 Y37.0704
G01 X22.8539 Y36.7588
G01 X22.9898 Y37.5458
G01 X23.4992 Y37.2343
G01 X23.1456 Y36.9720
G01 X23.6479 Y36.6605
G01 X23.7839 Y37.4487
G01 X24.2851 Y37.1384
G01 X24.4247 Y37.9160
G01 X24.9424 Y37.6019
G01 X24.5851 Y37.3351
G01 X25.0948 Y37.0224
G01 X24.7374 Y36.7552
G01 X24.6519 Y37.0739
G01 X24.2981 Y36.8103
G01 X24.8075 Y36.4987
G01 X24.4539 Y36.2352
G01 X24.9553 Y35.9249
G01 X24.5980 Y35.6566
G01 X24.5137 Y35.9753
G01 X24.1586 Y35.7128
G01 X24.0744 Y36.0313
G01 X24.3158 Y36.0010
G01 X24.2336 Y36.3159
G01 X23.8789 Y36.0534
G01 X23.7967 Y36.3686
G01 X23.4456 Y36.1110
G01 X23.9550 Y35.7983
G01 X23.6012 Y35.5359
G01 X24.1024 Y35.2256
G01 X23.7487 Y34.9620
G01 X23.6668 Y35.2771
G01 X23.3154 Y35.0192
G01 X23.8167 Y34.7089
G01 X23.4654 Y34.4501
G01 X23.9607 Y34.1407
G01 X24.0944 Y34.9386
G01 X24.6038 Y34.6271
G01 X24.7398 Y35.4151
G01 X25.2492 Y35.1035
G01 X24.8955 Y34.8403
G01 X25.3967 Y34.5295
G01 X25.5337 Y35.3179
G01 X26.0352 Y35.0064
G01 X26.1734 Y35.7842
G01 X26.6841 Y35.4727
G01 X26.3293 Y35.2103
G01 X26.8315 Y34.8976
G01 X26.4768 Y34.6364
G01 X26.3947 Y34.9515
G01 X26.0435 Y34.6937
G01 X26.5458 Y34.3821
G01 X26.1944 Y34.1245
G01 X26.6888 Y33.8154
G01 X26.8247 Y34.6024
G01 X27.3272 Y34.2918
G01 X27.4655 Y35.0696
G01 X27.9669 Y34.7593
G01 X27.6166 Y34.5017
G01 X28.1108 Y34.1911
G01 X28.2491 Y34.9688
G01 X28.7433 Y34.6598
G01 X28.8838 Y35.4271
G01 X27.8133 Y35.1913
G01 X27.9480 Y35.9893
G01 X26.8892 Y35.7620
G01 X27.0225 Y36.5597
G01 X27.5320 Y36.2470
G01 X27.6682 Y37.0364
G01 X26.6092 Y36.8080
G01 X26.7461 Y37.5963
G01 X25.6991 Y37.3761
G01 X25.8324 Y38.1750
G01 X26.3422 Y37.8623
G01 X26.4780 Y38.6505
G01 X26.9875 Y38.3387
G01 X26.6337 Y38.0755
G01 X27.1351 Y37.7649
G01 X27.2722 Y38.5531
G01 X27.7734 Y38.2428
G01 X27.9128 Y39.0195
G01 X26.8541 Y38.7922
G01 X26.9899 Y39.5805
G01 X25.9428 Y39.3604
G01 X26.0786 Y40.1486
G01 X26.5811 Y39.8380
G01 X26.7192 Y40.6146
G01 X25.6720 Y40.3945
G01 X25.8102 Y41.1736
G01 X24.7748 Y40.9616
G01 X24.9083 Y41.7605
G01 X25.4193 Y41.4478
G01 X25.5550 Y42.2360
G01 X26.0646 Y41.9242
G01 X25.7107 Y41.6610
G01 X26.2121 Y41.3502
G01 X26.3479 Y42.1386
G01 X26.8504 Y41.8270
G01 X26.9887 Y42.6049
G01 X27.4982 Y42.2934
G01 X27.1444 Y42.0310
G01 X27.6457 Y41.7193
G01 X27.2921 Y41.4570
G01 X27.2100 Y41.7721
G01 X26.8586 Y41.5143
G01 X27.3600 Y41.2028
G01 X27.0085 Y40.9452
G01 X27.5042 Y40.6360
G01 X27.6400 Y41.4244
G01 X28.1414 Y41.1124
G01 X28.2804 Y41.8904
G01 X28.7818 Y41.5799
G01 X28.4305 Y41.3224
G01 X28.9249 Y41.0129
G01 X29.0643 Y41.7895
G01 X29.5585 Y41.4804
G01 X29.6991 Y42.2489
G01 X28.6402 Y42.0204
G01 X28.7762 Y42.8088
G01 X27.7290 Y42.5884
G01 X27.8661 Y43.3768
G01 X28.3675 Y43.0664
G01 X28.5053 Y43.8442
G01 X27.4583 Y43.6238
G01 X27.5977 Y44.4016
G01 X26.5622 Y44.1896
G01 X26.6982 Y44.9780
G01 X27.1995 Y44.6676
G01 X27.3390 Y45.4455
G01 X27.8403 Y45.1339
G01 X27.4889 Y44.8761
G01 X27.9831 Y44.5668
G01 X28.1225 Y45.3446
G01 X28.6169 Y45.0355
G01 X28.7573 Y45.8026
G01 X27.7101 Y45.5837
G01 X27.8484 Y46.3600
G01 X26.8130 Y46.1492
G01 X26.9513 Y46.9270
G01 X27.4455 Y46.6179
G01 X27.5873 Y47.3850
G01 X26.5518 Y47.1729
G01 X26.6925 Y47.9415
G01 X25.6675 Y47.7376
G01 X25.9952 Y48.8105
G01 X26.6409 Y48.2906
G01 X26.9698 Y49.3493
G01 X27.6154 Y48.8294
G01 X27.0802 Y48.5307
G01 X27.7149 Y48.0129
G01 X28.0439 Y49.0730
G01 X28.6790 Y48.5541
G01 X29.0092 Y49.6000
G01 X29.6547 Y49.0788
G01 X29.1192 Y48.7813
G01 X29.7543 Y48.2624
G01 X29.2199 Y47.9649
G01 X29.1626 Y48.4135
G01 X28.6331 Y48.1216
G01 X29.2680 Y47.6042
G01 X28.7388 Y47.3123
G01 X29.3630 Y46.7970
G01 X29.6923 Y47.8572
G01 X30.3271 Y47.3394
G01 X30.6571 Y48.3841
G01 X31.2921 Y47.8665
G01 X30.7615 Y47.5748
G01 X31.3859 Y47.0596
G01 X31.7172 Y48.1043
G01 X32.3416 Y47.5900
G01 X32.6731 Y48.6209
G01 X33.3185 Y48.0996
G01 X32.7844 Y47.8021
G01 X33.4180 Y47.2834
G01 X32.8839 Y46.9855
G01 X32.8278 Y47.4345
G01 X32.2972 Y47.1414
G01 X32.9320 Y46.6249
G01 X32.4027 Y46.3333
G01 X33.0270 Y45.8180
G01 X32.4927 Y45.5205
G01 X32.4354 Y45.9678
G01 X31.9059 Y45.6760
G01 X31.8498 Y46.1246
G01 X32.1718 Y46.0403
G01 X32.1178 Y46.4833
G01 X31.5886 Y46.1915
G01 X31.5345 Y46.6353
G01 X31.0098 Y46.3496
G01 X31.6446 Y45.8320
G01 X31.1154 Y45.5403
G01 X31.7397 Y45.0247
G01 X31.2101 Y44.7321
G01 X31.1562 Y45.1771
G01 X30.6314 Y44.8913
G01 X31.2557 Y44.3759
G01 X30.7309 Y44.0913
G01 X31.3449 Y43.5795
G01 X31.6741 Y44.6382
G01 X32.3088 Y44.1206
G01 X32.6393 Y45.1654
G01 X33.2741 Y44.6478
G01 X32.7446 Y44.3560
G01 X33.3689 Y43.8406
G01 X33.6994 Y44.8866
G01 X34.3236 Y44.3713
G01 X34.6561 Y45.4020
G01 X35.2910 Y44.8845
G01 X34.7605 Y44.5926
G01 X35.3848 Y44.0772
G01 X34.8553 Y43.7857
G01 X34.8016 Y44.2295
G01 X34.2768 Y43.9438
G01 X34.9011 Y43.4283
G01 X34.3764 Y43.1437
G01 X34.9911 Y42.6318
G01 X35.3215 Y43.6765
G01 X35.9458 Y43.1615
G01 X36.2771 Y44.1921
G01 X36.9015 Y43.6778
G01 X36.3767 Y43.3920
G01 X36.9917 Y42.8801
G01 X37.3234 Y43.9111
G01 X37.9385 Y43.3989
G01 X38.2710 Y44.4158
G01 X38.9163 Y43.8946
G01 X38.3811 Y43.5971
G01 X39.0159 Y43.0793
G01 X38.4817 Y42.7806
G01 X38.4257 Y43.2292
G01 X37.8950 Y42.9374
G01 X38.5298 Y42.4198
G01 X38.0005 Y42.1281
G01 X38.6249 Y41.6127
G01 X38.0892 Y41.3152
G01 X38.0332 Y41.7638
G01 X37.5036 Y41.4723
G01 X37.4476 Y41.9209
G01 X37.7697 Y41.8355
G01 X37.7156 Y42.2781
G01 X37.1864 Y41.9866
G01 X37.1323 Y42.4303
G01 X36.6076 Y42.1446
G01 X37.2425 Y41.6267
G01 X36.7131 Y41.3352
G01 X37.3375 Y40.8210
G01 X36.8068 Y40.5280
G01 X36.7540 Y40.9721
G01 X36.2292 Y40.6863
G01 X36.8535 Y40.1722
G01 X36.3287 Y39.8863
G01 X36.9425 Y39.3745
G01 X36.4073 Y39.0767
G01 X36.3512 Y39.5244
G01 X35.8217 Y39.2327
G01 X35.7654 Y39.6811
G01 X36.0877 Y39.5958
G01 X36.0337 Y40.0396
G01 X35.5042 Y39.7481
G01 X35.4504 Y40.1907
G01 X34.9256 Y39.9060
G01 X34.8694 Y40.3535
G01 X35.1926 Y40.2693
G01 X35.1389 Y40.7121
G01 X35.4610 Y40.6276
G01 X35.3147 Y40.4296
G01 X35.6319 Y40.3441
G01 X35.5791 Y40.7871
G01 X35.8967 Y40.7014
G01 X35.8463 Y41.1395
G01 X35.3168 Y40.8480
G01 X35.2631 Y41.2918
G01 X34.7383 Y41.0059
G01 X34.6843 Y41.4499
G01 X35.0027 Y41.3631
G01 X34.9525 Y41.8024
G01 X34.4277 Y41.5167
G01 X34.3776 Y41.9548
G01 X33.8573 Y41.6746
G01 X34.4910 Y41.1571
G01 X33.9617 Y40.8654
G01 X34.5860 Y40.3511
G01 X34.0564 Y40.0596
G01 X34.0027 Y40.5022
G01 X33.4779 Y40.2165
G01 X34.1023 Y39.7023
G01 X33.5775 Y39.4164
G01 X34.1910 Y38.9046
G01 X33.6618 Y38.6131
G01 X33.6078 Y39.0569
G01 X33.0831 Y38.7712
G01 X33.0291 Y39.2138
G01 X33.3479 Y39.1283
G01 X33.2975 Y39.5664
G01 X32.7727 Y39.2818
G01 X32.7223 Y39.7199
G01 X32.2023 Y39.4398
G01 X32.8267 Y38.9256
G01 X32.3019 Y38.6398
G01 X32.9157 Y38.1279
G01 X32.3910 Y37.8422
G01 X32.3406 Y38.2803
G01 X31.8203 Y38.0014
G01 X32.4342 Y37.4896
G01 X31.9142 Y37.2098
G01 X32.5184 Y36.7015
G01 X32.8477 Y37.7603
G01 X33.4824 Y37.2425
G01 X33.8130 Y38.2875
G01 X34.4478 Y37.7696
G01 X33.9182 Y37.4778
G01 X34.5425 Y36.9639
G01 X34.8730 Y38.0086
G01 X35.4973 Y37.4931
G01 X35.8299 Y38.5239
G01 X36.4637 Y38.0062
G01 X35.9343 Y37.7145
G01 X36.5585 Y37.2005
G01 X36.0289 Y36.9088
G01 X35.9752 Y37.3514
G01 X35.4504 Y37.0655
G01 X36.0748 Y36.5516
G01 X35.5501 Y36.2656
G01 X36.1638 Y35.7537
G01 X36.4953 Y36.7987
G01 X37.1195 Y36.2844
G01 X37.4511 Y37.3150
G01 X38.0754 Y36.7999
G01 X37.5508 Y36.5141
G01 X38.1655 Y36.0020
G01 X38.4971 Y37.0328
G01 X39.1109 Y36.5211
G01 X39.4446 Y37.5379
G01 X40.0794 Y37.0200
G01 X39.5502 Y36.7282
G01 X40.1746 Y36.2142
G01 X39.6437 Y35.9225
G01 X39.5910 Y36.3651
G01 X39.0651 Y36.0793
G01 X39.6893 Y35.5650
G01 X39.1646 Y35.2792
G01 X39.7795 Y34.7675
G01 X39.2491 Y34.4760
G01 X39.1963 Y34.9186
G01 X38.6716 Y34.6339
G01 X38.6176 Y35.0769
G01 X38.9364 Y34.9910
G01 X38.8848 Y35.4292
G01 X38.3600 Y35.1435
G01 X38.3096 Y35.5828
G01 X37.7894 Y35.3026
G01 X38.4137 Y34.7887
G01 X37.8890 Y34.5027
G01 X38.5028 Y33.9907
G01 X37.9780 Y33.7050
G01 X37.9277 Y34.1430
G01 X37.4076 Y33.8646
G01 X38.0227 Y33.3526
G01 X37.5025 Y33.0726
G01 X38.1058 Y32.5643
G01 X38.4373 Y33.6091
G01 X39.0617 Y33.0935
G01 X39.3930 Y34.1245
G01 X40.0174 Y33.6103
G01 X39.4926 Y33.3245
G01 X40.1076 Y32.8113
G01 X40.4390 Y33.8432
G01 X41.0528 Y33.3314
G01 X41.3868 Y34.3482
G01 X42.0112 Y33.8328
G01 X41.4864 Y33.5482
G01 X42.0999 Y33.0363
G01 X41.5751 Y32.7505
G01 X41.5247 Y33.1886
G01 X41.0048 Y32.9097
G01 X41.6186 Y32.3980
G01 X41.0987 Y32.1178
G01 X41.7029 Y31.6096
G01 X42.0356 Y32.6404
G01 X42.6493 Y32.1285
G01 X42.9833 Y33.1451
G01 X43.5971 Y32.6333
G01 X43.0768 Y32.3535
G01 X43.6814 Y31.8450
G01 X44.0151 Y32.8618
G01 X44.6197 Y32.3523
G01 X44.9534 Y33.3548
G01 X45.5988 Y32.8347
G01 X45.0634 Y32.5361
G01 X45.6982 Y32.0183
G01 X45.1642 Y31.7208
G01 X45.1069 Y32.1694
G01 X44.5773 Y31.8780
G01 X45.2121 Y31.3589
G01 X44.6830 Y31.0671
G01 X45.3072 Y30.5531
G01 X44.7720 Y30.2554
G01 X44.7155 Y30.7030
G01 X44.1861 Y30.4113
G01 X44.1287 Y30.8599
G01 X44.4520 Y30.7745
G01 X44.3980 Y31.2182
G01 X43.8688 Y30.9267
G01 X43.8148 Y31.3693
G01 X43.2900 Y31.0848
G01 X43.9249 Y30.5673
G01 X43.3956 Y30.2755
G01 X44.0200 Y29.7600
G01 X43.4892 Y29.4683
G01 X43.4364 Y29.9111
G01 X42.9117 Y29.6266
G01 X43.5361 Y29.1111
G01 X43.0103 Y28.8254
G01 X43.6250 Y28.3135
G01 X43.0896 Y28.0160
G01 X43.0336 Y28.4646
G01 X42.5042 Y28.1729
G01 X42.4481 Y28.6214
G01 X42.7701 Y28.5360
G01 X42.7161 Y28.9789
G01 X42.1869 Y28.6871
G01 X42.1329 Y29.1308
G01 X41.6081 Y28.8452
G01 X41.5517 Y29.2938
G01 X41.8741 Y29.2084
G01 X41.8213 Y29.6523
G01 X42.1433 Y29.5669
G01 X41.9959 Y29.3699
G01 X42.3143 Y29.2832
G01 X42.2617 Y29.7273
G01 X42.5791 Y29.6419
G01 X42.5286 Y30.0797
G01 X41.9991 Y29.7882
G01 X41.9455 Y30.2308
G01 X41.4208 Y29.9462
G01 X41.3668 Y30.3891
G01 X41.6855 Y30.3037
G01 X41.6351 Y30.7418
G01 X41.1103 Y30.4557
G01 X41.0587 Y30.8938
G01 X40.5385 Y30.6152
G01 X41.1737 Y30.0974
G01 X40.6440 Y29.8056
G01 X41.2684 Y29.2904
G01 X40.7389 Y28.9987
G01 X40.6852 Y29.4428
G01 X40.1604 Y29.1568
G01 X40.7846 Y28.6415
G01 X40.2599 Y28.3567
G01 X40.8738 Y27.8448
G01 X40.3441 Y27.5533
G01 X40.2903 Y27.9959
G01 X39.7655 Y27.7102
G01 X39.7117 Y28.1542
G01 X40.0302 Y28.0685
G01 X39.9798 Y28.5066
G01 X39.4551 Y28.2208
G01 X39.4047 Y28.6589
G01 X38.8848 Y28.3803
G01 X39.5090 Y27.8649
G01 X38.9843 Y27.5792
G01 X39.5982 Y27.0673
G01 X39.0735 Y26.7824
G01 X39.0230 Y27.2205
G01 X38.5028 Y26.9407
G01 X39.1167 Y26.4289
G01 X38.5966 Y26.1500
G01 X39.2008 Y25.6406
G01 X38.6656 Y25.3431
G01 X38.6095 Y25.7917
G01 X38.0800 Y25.4998
G01 X38.0239 Y25.9484
G01 X38.3459 Y25.8630
G01 X38.2919 Y26.3060
G01 X37.7627 Y26.0141
G01 X37.7087 Y26.4580
G01 X37.1839 Y26.1722
G01 X37.1277 Y26.6208
G01 X37.4500 Y26.5353
G01 X37.3972 Y26.9794
G01 X37.7193 Y26.8940
G01 X37.5716 Y26.6970
G01 X37.8902 Y26.6103
G01 X37.8377 Y27.0544
G01 X38.1550 Y26.9690
G01 X38.1046 Y27.4067
G01 X37.5754 Y27.1152
G01 X37.5214 Y27.5578
G01 X36.9966 Y27.2733
G01 X36.9425 Y27.7162
G01 X37.2613 Y27.6306
G01 X37.2110 Y28.0685
G01 X36.6863 Y27.7827
G01 X36.6347 Y28.2208
G01 X36.1146 Y27.9422
G01 X36.0583 Y28.3908
G01 X36.3815 Y28.3054
G01 X36.3276 Y28.7492
G01 X36.6499 Y28.6638
G01 X36.5033 Y28.4659
G01 X36.8208 Y28.3803
G01 X36.7680 Y28.8242
G01 X37.0868 Y28.7387
G01 X37.0352 Y29.1768
G01 X37.3584 Y29.0913
G01 X37.2110 Y28.8931
G01 X37.5294 Y28.8077
G01 X37.3818 Y28.6110
G01 X37.2871 Y28.7656
G01 X37.1405 Y28.5710
G01 X37.4592 Y28.4856
G01 X37.3129 Y28.2913
G01 X37.6265 Y28.2055
G01 X37.5728 Y28.6484
G01 X37.8914 Y28.5629
G01 X37.8410 Y29.0011
G01 X38.1597 Y28.9155
G01 X38.0134 Y28.7210
G01 X38.3271 Y28.6344
G01 X38.2758 Y29.0736
G01 X38.5906 Y28.9869
G01 X38.5427 Y29.4203
G01 X38.0134 Y29.1287
G01 X37.9595 Y29.5713
G01 X37.4347 Y29.2868
G01 X37.3806 Y29.7297
G01 X37.6994 Y29.6440
G01 X37.6491 Y30.0821
G01 X37.1232 Y29.7964
G01 X37.0727 Y30.2343
G01 X36.5525 Y29.9555
G01 X36.4987 Y30.3985
G01 X36.8172 Y30.3129
G01 X36.7668 Y30.7511
G01 X37.0856 Y30.6656
G01 X36.9394 Y30.4710
G01 X37.2529 Y30.3856
G01 X37.2026 Y30.8235
G01 X37.5165 Y30.7369
G01 X37.4685 Y31.1703
G01 X36.9438 Y30.8845
G01 X36.8934 Y31.3226
G01 X36.3735 Y31.0438
G01 X36.3219 Y31.4819
G01 X36.6370 Y31.3952
G01 X36.5891 Y31.8288
G01 X36.0688 Y31.5487
G01 X36.0209 Y31.9832
G01 X35.5053 Y31.7091
G01 X36.1402 Y31.1915
G01 X35.6108 Y30.8999
G01 X36.2352 Y30.3856
G01 X35.7045 Y30.0937
G01 X35.6520 Y30.5367
G01 X35.1272 Y30.2509
G01 X35.7516 Y29.7366
G01 X35.2255 Y29.4508
G01 X35.8402 Y28.9389
G01 X35.3110 Y28.6472
G01 X35.2571 Y29.0901
G01 X34.7323 Y28.8053
G01 X34.6784 Y29.2481
G01 X34.9971 Y29.1626
G01 X34.9466 Y29.6007
G01 X34.4207 Y29.3150
G01 X34.3704 Y29.7543
G01 X33.8504 Y29.4742
G01 X34.4747 Y28.9587
G01 X33.9499 Y28.6742
G01 X34.5650 Y28.1624
G01 X34.0389 Y27.8766
G01 X33.9887 Y28.3147
G01 X33.4684 Y28.0358
G01 X34.0835 Y27.5239
G01 X33.5634 Y27.2438
G01 X34.1664 Y26.7356
G01 X33.6372 Y26.4442
G01 X33.5832 Y26.8868
G01 X33.0585 Y26.6010
G01 X33.0058 Y27.0449
G01 X33.3233 Y26.9594
G01 X33.2729 Y27.3974
G01 X32.7481 Y27.1117
G01 X32.6977 Y27.5498
G01 X32.1778 Y27.2710
G01 X32.1239 Y27.7137
G01 X32.4423 Y27.6283
G01 X32.3920 Y28.0664
G01 X32.7094 Y27.9806
G01 X32.5632 Y27.7863
G01 X32.8771 Y27.7009
G01 X32.8267 Y28.1390
G01 X33.1406 Y28.0524
G01 X33.0936 Y28.4856
G01 X32.5677 Y28.1998
G01 X32.5173 Y28.6378
G01 X31.9973 Y28.3590
G01 X31.9469 Y28.7971
G01 X32.2608 Y28.7105
G01 X32.2129 Y29.1439
G01 X31.6926 Y28.8652
G01 X31.6458 Y29.2974
G01 X31.1304 Y29.0245
G01 X31.7547 Y28.5102
G01 X31.2299 Y28.2245
G01 X31.8437 Y27.7125
G01 X31.3189 Y27.4256
G01 X31.2687 Y27.8649
G01 X30.7487 Y27.5860
G01 X31.3625 Y27.0741
G01 X30.8422 Y26.7941
G01 X31.4467 Y26.2859
G01 X30.9220 Y26.0000
G01 X30.8717 Y26.4381
G01 X30.3516 Y26.1593
G01 X30.3000 Y26.5974
G01 X30.6152 Y26.5107
G01 X30.5673 Y26.9441
G01 X30.0470 Y26.6654
G01 X29.9990 Y27.0975
G01 X29.4835 Y26.8246
G01 X30.0973 Y26.3128
G01 X29.5774 Y26.0340
G01 X30.1816 Y25.5246
G01 X29.6617 Y25.2456
G01 X29.6149 Y25.6780
G01 X29.0994 Y25.4052
G01 X29.7039 Y24.8966
G01 X29.1885 Y24.6224
G01 X29.7822 Y24.1166
G01 X30.1115 Y25.1766
G01 X30.7463 Y24.6588
G01 X31.0767 Y25.7038
G01 X31.7115 Y25.1859
G01 X31.1820 Y24.8944
G01 X31.8063 Y24.3790
G01 X32.1367 Y25.4237
G01 X32.7610 Y24.9095
G01 X33.0936 Y25.9403
G01 X33.7283 Y25.4226
G01 X33.1979 Y25.1311
G01 X33.8222 Y24.6156
G01 X33.2927 Y24.3238
G01 X33.2390 Y24.7679
G01 X32.7143 Y24.4821
G01 X33.3385 Y23.9667
G01 X32.8137 Y23.6822
G01 X33.4285 Y23.1702
G01 X33.7589 Y24.2150
G01 X34.3832 Y23.6995
G01 X34.7149 Y24.7305
G01 X35.3393 Y24.2162
G01 X34.8145 Y23.9304
G01 X35.4292 Y23.4185
G01 X35.7608 Y24.4491
G01 X36.3758 Y23.9373
G01 X36.7084 Y24.9542
G01 X37.3432 Y24.4363
G01 X36.8140 Y24.1448
G01 X37.4383 Y23.6294
G01 X36.9086 Y23.3377
G01 X36.8547 Y23.7816
G01 X36.3299 Y23.4956
G01 X36.9543 Y22.9804
G01 X36.4296 Y22.6959
G01 X37.0433 Y22.1836
G01 X36.5141 Y21.8923
G01 X36.4602 Y22.3349
G01 X35.9354 Y22.0491
G01 X35.8813 Y22.4932
G01 X36.2001 Y22.4078
G01 X36.1498 Y22.8459
G01 X35.6250 Y22.5597
G01 X35.5734 Y22.9978
G01 X35.0531 Y22.7193
G01 X35.6775 Y22.2039
G01 X35.1527 Y21.9180
G01 X35.7677 Y21.4061
G01 X35.2430 Y21.1216
G01 X35.1914 Y21.5594
G01 X34.6715 Y21.2785
G01 X35.2865 Y20.7679
G01 X34.7662 Y20.4889
G01 X35.3707 Y19.9795
G01 X35.7012 Y21.0241
G01 X36.3254 Y20.5099
G01 X36.6568 Y21.5409
G01 X37.2811 Y21.0254
G01 X36.7564 Y20.7408
G01 X37.3714 Y20.2289
G01 X37.7027 Y21.2595
G01 X38.3177 Y20.7476
G01 X38.6505 Y21.7646
G01 X39.2749 Y21.2491
G01 X38.7502 Y20.9634
G01 X39.3649 Y20.4514
G01 X38.8389 Y20.1668
G01 X38.7886 Y20.6049
G01 X38.2685 Y20.3248
G01 X38.8836 Y19.8130
G01 X38.3636 Y19.5343
G01 X38.9666 Y19.0248
G01 X39.2995 Y20.0545
G01 X39.9130 Y19.5437
G01 X40.2470 Y20.5603
G01 X40.8609 Y20.0484
G01 X40.3407 Y19.7698
G01 X40.9451 Y19.2601
G01 X41.2788 Y20.2770
G01 X41.8834 Y19.7686
G01 X42.2171 Y20.7714
G01 X42.8519 Y20.2534
G01 X42.3227 Y19.9617
G01 X42.9469 Y19.4465
G01 X42.4175 Y19.1548
G01 X42.3635 Y19.5986
G01 X41.8386 Y19.3128
G01 X42.4630 Y18.7977
G01 X41.9383 Y18.5128
G01 X42.5520 Y18.0009
G01 X42.0228 Y17.7095
G01 X41.9688 Y18.1521
G01 X41.4441 Y17.8664
G01 X41.3902 Y18.3102
G01 X41.7089 Y18.2247
G01 X41.6585 Y18.6628
G01 X41.1337 Y18.3770
G01 X41.0821 Y18.8151
G01 X40.5623 Y18.5362
G01 X41.1865 Y18.0210
G01 X40.6618 Y17.7352
G01 X41.2765 Y17.2235
G01 X40.7517 Y16.9386
G01 X40.7001 Y17.3767
G01 X40.1802 Y17.0969
G01 X40.7952 Y16.5850
G01 X40.2749 Y16.3061
G01 X40.8795 Y15.7966
G01 X40.3490 Y15.5049
G01 X40.2963 Y15.9490
G01 X39.7715 Y15.6630
G01 X39.7174 Y16.1070
G01 X40.0362 Y16.0204
G01 X39.9847 Y16.4596
G01 X39.4600 Y16.1740
G01 X39.4096 Y16.6117
G01 X38.8893 Y16.3319
G01 X38.8357 Y16.7758
G01 X39.1541 Y16.6903
G01 X39.1037 Y17.1283
G01 X39.4224 Y17.0429
G01 X39.2758 Y16.8486
G01 X39.5897 Y16.7616
G01 X39.5394 Y17.1997
G01 X39.8534 Y17.1142
G01 X39.8054 Y17.5479
G01 X39.2806 Y17.2618
G01 X39.2290 Y17.7000
G01 X38.7103 Y17.4201
G01 X38.6587 Y17.8594
G01 X38.9726 Y17.7727
G01 X38.9257 Y18.2061
G01 X38.4056 Y17.9260
G01 X38.3577 Y18.3596
G01 X37.8421 Y18.0865
G01 X38.4665 Y17.5713
G01 X37.9418 Y17.2854
G01 X38.5555 Y16.7736
G01 X38.0308 Y16.4888
G01 X37.9804 Y16.9269
G01 X37.4604 Y16.6471
G01 X38.0742 Y16.1352
G01 X37.5541 Y15.8564
G01 X38.1585 Y15.3470
G01 X37.6337 Y15.0620
G01 X37.5834 Y15.5001
G01 X37.0634 Y15.2204
G01 X37.0130 Y15.6585
G01 X37.3267 Y15.5729
G01 X37.2788 Y16.0063
G01 X36.7588 Y15.7262
G01 X36.7108 Y16.1598
G01 X36.1954 Y15.8866
G01 X36.8104 Y15.3748
G01 X36.2901 Y15.0951
G01 X36.8946 Y14.5868
G01 X36.3746 Y14.3067
G01 X36.3266 Y14.7400
G01 X35.8112 Y14.4671
G01 X36.4154 Y13.9577
G01 X35.9003 Y13.6847
G01 X36.4941 Y13.1786
G01 X36.8257 Y14.2236
G01 X37.4500 Y13.7094
G01 X37.7813 Y14.7400
G01 X38.4056 Y14.2248
G01 X37.8808 Y13.9386
G01 X38.4959 Y13.4269
G01 X38.8272 Y14.4577
G01 X39.4410 Y13.9459
G01 X39.7751 Y14.9625
G01 X40.3995 Y14.4485
G01 X39.8747 Y14.1623
G01 X40.4882 Y13.6506
G01 X39.9633 Y13.3648
G01 X39.9130 Y13.8029
G01 X39.3930 Y13.5243
G01 X40.0069 Y13.0124
G01 X39.4868 Y12.7324
G01 X40.0911 Y12.2242
G01 X40.4240 Y13.2548
G01 X41.0375 Y12.7428
G01 X41.3715 Y13.7597
G01 X41.9854 Y13.2479
G01 X41.4651 Y12.9678
G01 X42.0696 Y12.4595
G01 X42.4034 Y13.4760
G01 X43.0067 Y12.9678
G01 X43.3416 Y13.9706
G01 X43.9659 Y13.4551
G01 X43.4411 Y13.1693
G01 X44.0550 Y12.6574
G01 X43.5303 Y12.3729
G01 X43.4799 Y12.8110
G01 X42.9599 Y12.5309
G01 X43.5735 Y12.0191
G01 X43.0534 Y11.7402
G01 X43.6580 Y11.2307
G01 X43.1332 Y10.9461
G01 X43.0828 Y11.3842
G01 X42.5626 Y11.1041
G01 X42.5122 Y11.5422
G01 X42.8261 Y11.4568
G01 X42.7781 Y11.8900
G01 X42.2583 Y11.6103
G01 X42.2103 Y12.0436
G01 X41.6947 Y11.7707
G01 X42.3098 Y11.2588
G01 X41.7896 Y10.9788
G01 X42.3941 Y10.4705
G01 X41.8741 Y10.1905
G01 X41.8258 Y10.6241
G01 X41.3107 Y10.3512
G01 X41.9149 Y9.8415
G01 X41.3993 Y9.5685
G01 X41.9934 Y9.0627
G01 X42.3260 Y10.0933
G01 X42.9398 Y9.5814
G01 X43.2735 Y10.5983
G01 X43.8874 Y10.0864
G01 X43.3675 Y9.8064
G01 X43.9719 Y9.2981
G01 X44.3057 Y10.3146
G01 X44.9103 Y9.8064
G01 X45.2440 Y10.8091
G01 X45.8589 Y10.2972
G01 X45.3387 Y10.0172
G01 X45.9432 Y9.5089
G01 X45.4230 Y9.2289
G01 X45.3750 Y9.6624
G01 X44.8598 Y9.3893
G01 X45.4640 Y8.8798
G01 X44.9486 Y8.6069
G01 X45.5427 Y8.1011
G01 X45.8764 Y9.1176
G01 X46.4808 Y8.6093
G01 X46.8146 Y9.6120
G01 X47.4191 Y9.1023
G01 X46.9037 Y8.8294
G01 X47.4986 Y8.3235
G01 X47.8326 Y9.3263
G01 X48.4276 Y8.8201
G01 X48.7625 Y9.8099
G00 Z5.0000
G01 Y70.5588
G01 Z0.0000
G01 X49.3143 Y70.3010
G01 X48.9862 Y69.9954
G01 X49.5298 Y69.7375
G01 X49.2006 Y69.4320
G01 X49.0812 Y69.7410
G01 X48.7557 Y69.4400
G01 X49.2990 Y69.1824
G01 X48.9733 Y68.8814
G01 X49.5086 Y68.6247
G01 X49.1809 Y68.3180
G01 X49.0611 Y68.6284
G01 X48.7356 Y68.3260
G01 X48.6163 Y68.6367
G01 X48.8608 Y68.6319
G01 X48.7439 Y68.9387
G01 X48.4182 Y68.6376
G01 X48.3022 Y68.9435
G01 X47.9789 Y68.6485
G01 X48.5222 Y68.3905
G01 X48.1957 Y68.0895
G01 X48.7310 Y67.8330
G01 X48.4054 Y67.5320
G01 X48.2893 Y67.8388
G01 X47.9661 Y67.5425
G01 X48.5013 Y67.2861
G01 X48.1781 Y66.9895
G01 X48.7053 Y66.7331
G01 X48.3772 Y66.4273
G01 X48.2578 Y66.7368
G01 X47.9322 Y66.4357
G01 X47.8125 Y66.7450
G01 X48.0576 Y66.7412
G01 X47.9415 Y67.0471
G01 X47.6146 Y66.7461
G01 X47.4986 Y67.0528
G01 X47.1753 Y66.7566
G01 X47.0560 Y67.0658
G01 X47.3007 Y67.0625
G01 X47.1847 Y67.3692
G01 X47.4297 Y67.3644
G01 X47.3594 Y67.1983
G01 X47.6006 Y67.1935
G01 X47.4846 Y67.5003
G01 X47.7272 Y67.4946
G01 X47.6134 Y67.7979
G01 X47.2877 Y67.4970
G01 X47.1708 Y67.8036
G01 X46.8472 Y67.5074
G01 X46.7316 Y67.8143
G01 X46.9726 Y67.8085
G01 X46.8602 Y68.1118
G01 X46.5357 Y67.8166
G01 X46.4233 Y68.1200
G01 X46.1013 Y67.8283
G01 X46.6449 Y67.5719
G01 X46.3192 Y67.2709
G01 X46.8545 Y67.0142
G01 X46.5289 Y66.7132
G01 X46.4128 Y67.0189
G01 X46.0883 Y66.7239
G01 X46.6236 Y66.4661
G01 X46.3003 Y66.1710
G01 X46.8287 Y65.9143
G01 X46.5019 Y65.6133
G01 X46.3858 Y65.9190
G01 X46.0626 Y65.6240
G01 X45.9468 Y65.9295
G01 X46.1879 Y65.9251
G01 X46.0742 Y66.2282
G01 X45.7510 Y65.9320
G01 X45.6373 Y66.2354
G01 X45.3165 Y65.9449
G01 X45.8517 Y65.6882
G01 X45.5285 Y65.3918
G01 X46.0569 Y65.1368
G01 X45.7324 Y64.8402
G01 X45.6200 Y65.1436
G01 X45.2989 Y64.8531
G01 X45.8260 Y64.5967
G01 X45.5051 Y64.3061
G01 X46.0250 Y64.0497
G01 X45.6973 Y63.7439
G01 X45.5777 Y64.0530
G01 X45.2509 Y63.7519
G01 X45.1326 Y64.0614
G01 X45.3773 Y64.0579
G01 X45.2604 Y64.3636
G01 X44.9347 Y64.0626
G01 X44.8187 Y64.3694
G01 X44.4955 Y64.0719
G01 X44.3758 Y64.3823
G01 X44.6208 Y64.3787
G01 X44.5048 Y64.6858
G01 X44.7494 Y64.6810
G01 X44.6793 Y64.5145
G01 X44.9207 Y64.5100
G01 X44.8047 Y64.8156
G01 X45.0460 Y64.8110
G01 X44.9336 Y65.1142
G01 X44.6067 Y64.8135
G01 X44.4906 Y65.1203
G01 X44.1674 Y64.8240
G01 X44.0513 Y65.1295
G01 X44.2928 Y65.1251
G01 X44.1791 Y65.4282
G01 X43.8558 Y65.1331
G01 X43.7423 Y65.4355
G01 X43.4214 Y65.1448
G01 X43.3017 Y65.4540
G01 X43.5467 Y65.4507
G01 X43.4307 Y65.7575
G01 X43.6754 Y65.7539
G01 X43.6053 Y65.5866
G01 X43.8478 Y65.5817
G01 X43.7305 Y65.8884
G01 X43.9731 Y65.8827
G01 X43.8595 Y66.1863
G01 X44.1041 Y66.1826
G01 X44.0340 Y66.0162
G01 X44.2762 Y66.0118
G01 X44.2061 Y65.8453
G01 X44.1111 Y65.9388
G01 X44.0409 Y65.7751
G01 X44.2835 Y65.7691
G01 X44.2130 Y65.6051
G01 X44.4520 Y65.5994
G01 X44.3360 Y65.9050
G01 X44.5773 Y65.9005
G01 X44.4638 Y66.2036
G01 X44.7063 Y66.1992
G01 X44.6359 Y66.0351
G01 X44.8748 Y66.0280
G01 X44.7613 Y66.3314
G01 X45.0002 Y66.3257
G01 X44.8901 Y66.6255
G01 X44.5645 Y66.3246
G01 X44.4474 Y66.6312
G01 X44.1240 Y66.3349
G01 X44.0082 Y66.6418
G01 X44.2494 Y66.6373
G01 X44.1368 Y66.9393
G01 X43.8124 Y66.6441
G01 X43.6999 Y66.9476
G01 X43.3779 Y66.6571
G01 X43.2619 Y66.9626
G01 X43.5044 Y66.9581
G01 X43.3909 Y67.2615
G01 X43.6321 Y67.2568
G01 X43.5630 Y67.0915
G01 X43.8019 Y67.0859
G01 X43.6882 Y67.3890
G01 X43.9273 Y67.3820
G01 X43.8172 Y67.6831
G01 X43.4927 Y67.3877
G01 X43.3803 Y67.6901
G01 X43.0583 Y67.3998
G01 X42.9457 Y67.7029
G01 X43.1848 Y67.6973
G01 X43.0735 Y67.9971
G01 X42.7524 Y67.7065
G01 X42.6424 Y68.0064
G01 X42.3239 Y67.7219
G01 X42.8661 Y67.4640
G01 X42.5404 Y67.1628
G01 X43.0756 Y66.9065
G01 X42.7501 Y66.6054
G01 X42.6342 Y66.9112
G01 X42.3110 Y66.6160
G01 X42.8463 Y66.3596
G01 X42.5230 Y66.0630
G01 X43.0499 Y65.8066
G01 X42.7242 Y65.5056
G01 X42.6085 Y65.8126
G01 X42.2839 Y65.5161
G01 X42.1680 Y65.8231
G01 X42.4093 Y65.8171
G01 X42.2969 Y66.1206
G01 X41.9736 Y65.8255
G01 X41.8600 Y66.1275
G01 X41.5389 Y65.8372
G01 X42.0742 Y65.5805
G01 X41.7496 Y65.2855
G01 X42.2781 Y65.0287
G01 X41.9548 Y64.7326
G01 X41.8412 Y65.0360
G01 X41.5203 Y64.7454
G01 X42.0474 Y64.4887
G01 X41.7262 Y64.1984
G01 X42.2465 Y63.9418
G01 X41.9209 Y63.6408
G01 X41.8049 Y63.9479
G01 X41.4803 Y63.6515
G01 X41.3643 Y63.9582
G01 X41.6069 Y63.9535
G01 X41.4933 Y64.2557
G01 X41.1700 Y63.9607
G01 X41.0564 Y64.2639
G01 X40.7356 Y63.9735
G01 X40.6184 Y64.2791
G01 X40.8609 Y64.2746
G01 X40.7472 Y64.5778
G01 X40.9895 Y64.5733
G01 X40.9193 Y64.4081
G01 X41.1583 Y64.4021
G01 X41.0447 Y64.7055
G01 X41.2837 Y64.6999
G01 X41.1737 Y64.9997
G01 X40.8501 Y64.7044
G01 X40.7368 Y65.0065
G01 X40.4156 Y64.7160
G01 X40.3019 Y65.0194
G01 X40.5408 Y65.0135
G01 X40.4308 Y65.3134
G01 X40.1088 Y65.0231
G01 X39.9988 Y65.3229
G01 X39.6800 Y65.0384
G01 X40.2153 Y64.7804
G01 X39.8920 Y64.4855
G01 X40.4191 Y64.2287
G01 X40.0959 Y63.9325
G01 X39.9822 Y64.2358
G01 X39.6613 Y63.9453
G01 X40.1895 Y63.6890
G01 X39.8687 Y63.3984
G01 X40.3886 Y63.1429
G01 X40.0642 Y62.8467
G01 X39.9516 Y63.1501
G01 X39.6296 Y62.8596
G01 X39.5172 Y63.1630
G01 X39.7561 Y63.1559
G01 X39.6449 Y63.4570
G01 X39.3241 Y63.1663
G01 X39.2136 Y63.4662
G01 X38.8953 Y63.1805
G01 X39.4224 Y62.9240
G01 X39.1013 Y62.6335
G01 X39.6216 Y62.3781
G01 X39.3004 Y62.0865
G01 X39.1903 Y62.3876
G01 X38.8708 Y62.1018
G01 X39.3906 Y61.8451
G01 X39.0721 Y61.5606
G01 X39.5853 Y61.3039
G01 X39.2560 Y60.9984
G01 X39.1379 Y61.3075
G01 X38.8110 Y61.0064
G01 X38.6926 Y61.3157
G01 X38.9376 Y61.3124
G01 X38.8203 Y61.6178
G01 X38.4947 Y61.3169
G01 X38.3785 Y61.6239
G01 X38.0542 Y61.3276
G01 X37.9361 Y61.6368
G01 X38.1807 Y61.6331
G01 X38.0638 Y61.9399
G01 X38.3084 Y61.9366
G01 X38.2393 Y61.7690
G01 X38.4806 Y61.7645
G01 X38.3645 Y62.0712
G01 X38.6059 Y62.0653
G01 X38.4922 Y62.3687
G01 X38.1666 Y62.0677
G01 X38.0508 Y62.3748
G01 X37.7273 Y62.0782
G01 X37.6104 Y62.3852
G01 X37.8526 Y62.3792
G01 X37.7391 Y62.6826
G01 X37.4158 Y62.3876
G01 X37.3022 Y62.6908
G01 X36.9813 Y62.4004
G01 X36.8619 Y62.7097
G01 X37.1067 Y62.7060
G01 X36.9906 Y63.0118
G01 X37.2355 Y63.0084
G01 X37.1651 Y62.8418
G01 X37.4076 Y62.8362
G01 X37.2904 Y63.1429
G01 X37.5330 Y63.1384
G01 X37.4194 Y63.4416
G01 X37.6641 Y63.4371
G01 X37.5939 Y63.2707
G01 X37.8365 Y63.2659
G01 X37.7660 Y63.0998
G01 X37.6713 Y63.1933
G01 X37.6010 Y63.0294
G01 X37.8433 Y63.0248
G01 X37.7732 Y62.8596
G01 X38.0123 Y62.8536
G01 X37.8950 Y63.1595
G01 X38.1375 Y63.1546
G01 X38.0239 Y63.4581
G01 X38.2661 Y63.4533
G01 X38.1960 Y63.2893
G01 X38.4350 Y63.2837
G01 X38.3213 Y63.5870
G01 X38.5603 Y63.5798
G01 X38.4503 Y63.8809
G01 X38.1234 Y63.5798
G01 X38.0074 Y63.8857
G01 X37.6842 Y63.5892
G01 X37.5681 Y63.8963
G01 X37.8095 Y63.8914
G01 X37.6959 Y64.1950
G01 X37.3726 Y63.8986
G01 X37.2601 Y64.2018
G01 X36.9382 Y63.9115
G01 X36.8220 Y64.2171
G01 X37.0643 Y64.2125
G01 X36.9509 Y64.5157
G01 X37.1921 Y64.5112
G01 X37.1220 Y64.3472
G01 X37.3609 Y64.3400
G01 X37.2484 Y64.6434
G01 X37.4875 Y64.6377
G01 X37.3761 Y64.9376
G01 X37.0527 Y64.6422
G01 X36.9394 Y64.9458
G01 X36.6181 Y64.6539
G01 X36.5044 Y64.9574
G01 X36.7435 Y64.9515
G01 X36.6335 Y65.2513
G01 X36.3126 Y64.9610
G01 X36.2022 Y65.2621
G01 X35.8839 Y64.9764
G01 X35.7644 Y65.2855
G01 X36.0091 Y65.2819
G01 X35.8918 Y65.5878
G01 X36.1368 Y65.5841
G01 X36.0676 Y65.4178
G01 X36.3090 Y65.4133
G01 X36.1929 Y65.7188
G01 X36.4343 Y65.7139
G01 X36.3219 Y66.0174
G01 X36.5665 Y66.0138
G01 X36.4964 Y65.8465
G01 X36.7378 Y65.8417
G01 X36.6674 Y65.6756
G01 X36.5725 Y65.7691
G01 X36.5033 Y65.6051
G01 X36.7447 Y65.6006
G01 X36.6745 Y65.4366
G01 X36.9135 Y65.4294
G01 X36.7974 Y65.7365
G01 X37.0388 Y65.7317
G01 X36.9264 Y66.0351
G01 X37.1674 Y66.0292
G01 X37.0973 Y65.8650
G01 X37.3363 Y65.8582
G01 X37.2239 Y66.1629
G01 X37.4616 Y66.1568
G01 X37.3514 Y66.4567
G01 X37.5962 Y66.4531
G01 X37.5261 Y66.2858
G01 X37.7685 Y66.2809
G01 X37.6982 Y66.1146
G01 X37.6031 Y66.2084
G01 X37.5330 Y66.0444
G01 X37.7756 Y66.0395
G01 X37.7052 Y65.8759
G01 X37.9441 Y65.8687
G01 X37.8740 Y65.7023
G01 X37.7788 Y65.7961
G01 X37.7087 Y65.6321
G01 X37.6139 Y65.7260
G01 X37.7052 Y65.7655
G01 X37.6116 Y65.8582
G01 X37.5411 Y65.6942
G01 X37.4488 Y65.7881
G01 X37.3782 Y65.6261
G01 X37.6197 Y65.6204
G01 X37.5508 Y65.4564
G01 X37.7894 Y65.4507
G01 X37.7193 Y65.2867
G01 X37.6258 Y65.3790
G01 X37.5552 Y65.2174
G01 X37.7941 Y65.2117
G01 X37.7240 Y65.0500
G01 X37.9607 Y65.0416
G01 X37.8446 Y65.3488
G01 X38.0860 Y65.3440
G01 X37.9723 Y65.6474
G01 X38.2146 Y65.6413
G01 X38.1444 Y65.4774
G01 X38.3834 Y65.4717
G01 X38.2698 Y65.7751
G01 X38.5087 Y65.7691
G01 X38.3987 Y66.0690
G01 X38.6398 Y66.0642
G01 X38.5709 Y65.9005
G01 X38.8098 Y65.8933
G01 X38.7393 Y65.7293
G01 X38.6458 Y65.8231
G01 X38.5756 Y65.6616
G01 X38.8143 Y65.6543
G01 X38.7442 Y65.4927
G01 X38.9807 Y65.4858
G01 X38.8671 Y65.7889
G01 X39.1061 Y65.7833
G01 X38.9961 Y66.0831
G01 X39.2351 Y66.0771
G01 X39.1646 Y65.9143
G01 X39.4012 Y65.9075
G01 X39.2900 Y66.2072
G01 X39.5264 Y66.2004
G01 X39.4188 Y66.4979
G01 X39.0931 Y66.1968
G01 X38.9771 Y66.5023
G01 X38.6527 Y66.2072
G01 X38.5369 Y66.5128
G01 X38.7781 Y66.5083
G01 X38.6656 Y66.8118
G01 X38.3423 Y66.5152
G01 X38.2287 Y66.8187
G01 X37.9079 Y66.5280
G01 X37.7907 Y66.8351
G01 X38.0332 Y66.8291
G01 X37.9196 Y67.1326
G01 X38.1620 Y67.1278
G01 X38.0917 Y66.9638
G01 X38.3307 Y66.9581
G01 X38.2169 Y67.2615
G01 X38.4560 Y67.2544
G01 X38.3459 Y67.5554
G01 X38.0214 Y67.2592
G01 X37.9091 Y67.5623
G01 X37.5870 Y67.2720
G01 X37.4745 Y67.5752
G01 X37.7136 Y67.5684
G01 X37.6020 Y67.8694
G01 X37.2811 Y67.5787
G01 X37.1711 Y67.8787
G01 X36.8523 Y67.5929
G01 X36.7365 Y67.8999
G01 X36.9777 Y67.8940
G01 X36.8642 Y68.1974
G01 X37.1067 Y68.1926
G01 X37.0364 Y68.0286
G01 X37.2755 Y68.0229
G01 X37.1617 Y68.3260
G01 X37.4008 Y68.3192
G01 X37.2904 Y68.6202
G01 X37.5318 Y68.6142
G01 X37.4628 Y68.4502
G01 X37.7006 Y68.4445
G01 X37.6314 Y68.2805
G01 X37.5378 Y68.3731
G01 X37.4673 Y68.2116
G01 X37.7063 Y68.2055
G01 X37.6361 Y68.0438
G01 X37.8729 Y68.0370
G01 X37.7591 Y68.3389
G01 X37.9981 Y68.3333
G01 X37.8881 Y68.6343
G01 X38.1267 Y68.6271
G01 X38.0566 Y68.4654
G01 X38.2919 Y68.4586
G01 X38.1819 Y68.7584
G01 X38.4185 Y68.7513
G01 X38.3109 Y69.0490
G01 X37.9876 Y68.7525
G01 X37.8740 Y69.0559
G01 X37.5529 Y68.7653
G01 X37.4392 Y69.0689
G01 X37.6781 Y69.0616
G01 X37.5681 Y69.3627
G01 X37.2473 Y69.0723
G01 X37.1360 Y69.3722
G01 X36.8172 Y69.0865
G01 X36.7036 Y69.3896
G01 X36.9425 Y69.3840
G01 X36.8325 Y69.6838
G01 X37.0716 Y69.6778
G01 X37.0013 Y69.5161
G01 X37.2379 Y69.5081
G01 X37.1264 Y69.8092
G01 X37.3633 Y69.8008
G01 X37.2554 Y70.0986
G01 X36.9345 Y69.8080
G01 X36.8245 Y70.1078
G01 X36.5057 Y69.8232
G01 X36.3944 Y70.1231
G01 X36.6310 Y70.1159
G01 X36.5235 Y70.4122
G01 X36.2047 Y70.1277
G01 X36.0969 Y70.4238
G01 X35.7807 Y70.1441
G01 X36.3242 Y69.8862
G01 X35.9975 Y69.5855
G01 X36.5327 Y69.3288
G01 X36.2070 Y69.0277
G01 X36.0910 Y69.3348
G01 X35.7677 Y69.0382
G01 X36.3030 Y68.7818
G01 X35.9798 Y68.4855
G01 X36.5069 Y68.2289
G01 X36.1814 Y67.9278
G01 X36.0652 Y68.2349
G01 X35.7407 Y67.9384
G01 X35.6250 Y68.2454
G01 X35.8673 Y68.2405
G01 X35.7536 Y68.5428
G01 X35.4304 Y68.2478
G01 X35.3168 Y68.5510
G01 X34.9959 Y68.2608
G01 X35.5312 Y68.0028
G01 X35.2079 Y67.7078
G01 X35.7350 Y67.4510
G01 X35.4119 Y67.1548
G01 X35.2981 Y67.4582
G01 X34.9772 Y67.1677
G01 X35.5042 Y66.9112
G01 X35.1833 Y66.6207
G01 X35.7033 Y66.3653
G01 X35.3776 Y66.0642
G01 X35.2619 Y66.3701
G01 X34.9387 Y66.0738
G01 X34.8214 Y66.3806
G01 X35.0639 Y66.3757
G01 X34.9504 Y66.6792
G01 X34.6271 Y66.3829
G01 X34.5134 Y66.6864
G01 X34.1924 Y66.3959
G01 X34.0765 Y66.7014
G01 X34.3176 Y66.6957
G01 X34.2040 Y67.0004
G01 X34.4465 Y66.9955
G01 X34.3764 Y66.8316
G01 X34.6153 Y66.8246
G01 X34.5018 Y67.1278
G01 X34.7404 Y67.1221
G01 X34.6303 Y67.4220
G01 X34.3072 Y67.1266
G01 X34.1935 Y67.4301
G01 X33.8726 Y67.1383
G01 X33.7589 Y67.4418
G01 X33.9980 Y67.4360
G01 X33.8879 Y67.7359
G01 X33.5668 Y67.4454
G01 X33.4555 Y67.7463
G01 X33.1370 Y67.4607
G01 X33.6722 Y67.2039
G01 X33.3491 Y66.9077
G01 X33.8774 Y66.6510
G01 X33.5529 Y66.3559
G01 X33.4405 Y66.6583
G01 X33.1181 Y66.3676
G01 X33.6466 Y66.1113
G01 X33.3257 Y65.8208
G01 X33.8456 Y65.5653
G01 X33.5212 Y65.2690
G01 X33.4087 Y65.5712
G01 X33.0868 Y65.2819
G01 X32.9742 Y65.5852
G01 X33.2132 Y65.5794
G01 X33.1020 Y65.8792
G01 X32.7808 Y65.5887
G01 X32.6708 Y65.8884
G01 X32.3523 Y65.6027
G01 X32.8792 Y65.3463
G01 X32.5583 Y65.0558
G01 X33.0783 Y64.8005
G01 X32.7575 Y64.5100
G01 X32.6474 Y64.8099
G01 X32.3286 Y64.5241
G01 X32.8488 Y64.2686
G01 X32.5289 Y63.9829
G01 X33.0420 Y63.7274
G01 X32.7164 Y63.4266
G01 X32.5994 Y63.7321
G01 X32.2761 Y63.4371
G01 X32.1601 Y63.7427
G01 X32.4015 Y63.7382
G01 X32.2890 Y64.0414
G01 X31.9646 Y63.7451
G01 X31.8521 Y64.0485
G01 X31.5298 Y63.7580
G01 X31.4140 Y64.0639
G01 X31.6564 Y64.0590
G01 X31.5427 Y64.3624
G01 X31.7841 Y64.3577
G01 X31.7151 Y64.1938
G01 X31.9529 Y64.1868
G01 X31.8404 Y64.4899
G01 X32.0791 Y64.4841
G01 X31.9679 Y64.7841
G01 X31.6446 Y64.4887
G01 X31.5322 Y64.7922
G01 X31.2101 Y64.5016
G01 X31.0978 Y64.8038
G01 X31.3367 Y64.7982
G01 X31.2254 Y65.0981
G01 X30.9042 Y64.8075
G01 X30.7942 Y65.1085
G01 X30.4758 Y64.8228
G01 X30.3586 Y65.1283
G01 X30.6011 Y65.1238
G01 X30.4875 Y65.4270
G01 X30.7297 Y65.4213
G01 X30.6596 Y65.2585
G01 X30.8986 Y65.2513
G01 X30.7849 Y65.5547
G01 X31.0239 Y65.5490
G01 X30.9139 Y65.8489
G01 X31.1550 Y65.8441
G01 X31.0848 Y65.6801
G01 X31.3238 Y65.6744
G01 X31.2536 Y65.5092
G01 X31.1610 Y65.6027
G01 X31.0908 Y65.4411
G01 X31.3295 Y65.4355
G01 X31.2593 Y65.2725
G01 X31.4959 Y65.2654
G01 X31.3823 Y65.5688
G01 X31.6213 Y65.5632
G01 X31.5111 Y65.8629
G01 X31.7502 Y65.8571
G01 X31.6798 Y65.6954
G01 X31.9154 Y65.6882
G01 X31.8051 Y65.9880
G01 X32.0417 Y65.9811
G01 X31.9340 Y66.2774
G01 X31.6108 Y65.9823
G01 X31.4971 Y66.2858
G01 X31.1762 Y65.9953
G01 X31.0627 Y66.2975
G01 X31.3016 Y66.2915
G01 X31.1916 Y66.5914
G01 X30.8692 Y66.3008
G01 X30.7591 Y66.6018
G01 X30.4407 Y66.3161
G01 X30.3271 Y66.6195
G01 X30.5660 Y66.6136
G01 X30.4558 Y66.9133
G01 X30.6947 Y66.9077
G01 X30.6246 Y66.7450
G01 X30.8611 Y66.7377
G01 X30.7499 Y67.0376
G01 X30.9864 Y67.0306
G01 X30.8789 Y67.3281
G01 X30.5576 Y67.0376
G01 X30.4476 Y67.3374
G01 X30.1280 Y67.0516
G01 X30.0177 Y67.3526
G01 X30.2545 Y67.3446
G01 X30.1465 Y67.6421
G01 X29.8280 Y67.3564
G01 X29.7202 Y67.6539
G01 X29.4041 Y67.3728
G01 X29.9394 Y67.1161
G01 X29.6161 Y66.8210
G01 X30.1430 Y66.5644
G01 X29.8196 Y66.2681
G01 X29.7061 Y66.5716
G01 X29.3852 Y66.2809
G01 X29.9124 Y66.0247
G01 X29.5915 Y65.7340
G01 X30.1115 Y65.4785
G01 X29.7882 Y65.1823
G01 X29.6746 Y65.4858
G01 X29.3536 Y65.1952
G01 X29.2400 Y65.4986
G01 X29.4791 Y65.4916
G01 X29.3687 Y65.7925
G01 X29.0478 Y65.5020
G01 X28.9377 Y65.8018
G01 X28.6181 Y65.5161
G01 X29.1462 Y65.2597
G01 X28.8254 Y64.9691
G01 X29.3453 Y64.7127
G01 X29.0233 Y64.4222
G01 X28.9133 Y64.7232
G01 X28.5945 Y64.4374
G01 X29.1147 Y64.1808
G01 X28.7960 Y63.8963
G01 X29.3079 Y63.6395
G01 X28.9845 Y63.3445
G01 X28.8709 Y63.6480
G01 X28.5501 Y63.3573
G01 X28.4377 Y63.6596
G01 X28.6754 Y63.6536
G01 X28.5654 Y63.9547
G01 X28.2442 Y63.6632
G01 X28.1341 Y63.9640
G01 X27.8157 Y63.6782
G01 X27.7021 Y63.9816
G01 X27.9410 Y63.9759
G01 X27.8308 Y64.2758
G01 X28.0697 Y64.2698
G01 X27.9996 Y64.1070
G01 X28.2349 Y64.1001
G01 X28.1249 Y64.4000
G01 X28.3603 Y64.3928
G01 X28.2539 Y64.6903
G01 X27.9315 Y64.4000
G01 X27.8214 Y64.6999
G01 X27.5029 Y64.4138
G01 X27.3929 Y64.7148
G01 X27.6283 Y64.7067
G01 X27.5204 Y65.0042
G01 X27.2019 Y64.7184
G01 X27.0940 Y65.0159
G01 X26.7780 Y64.7361
G01 X27.3060 Y64.4795
G01 X26.9851 Y64.1889
G01 X27.5054 Y63.9325
G01 X27.1830 Y63.6420
G01 X27.0730 Y63.9418
G01 X26.7546 Y63.6560
G01 X27.2745 Y63.4009
G01 X26.9560 Y63.1147
G01 X27.4678 Y62.8596
G01 X27.1468 Y62.5691
G01 X27.0366 Y62.8690
G01 X26.7182 Y62.5831
G01 X26.6066 Y62.8842
G01 X26.8436 Y62.8761
G01 X26.7356 Y63.1735
G01 X26.4171 Y62.8878
G01 X26.3093 Y63.1852
G01 X25.9931 Y62.9052
G01 X26.5131 Y62.6487
G01 X26.1944 Y62.3630
G01 X26.7063 Y62.1074
G01 X26.3877 Y61.8218
G01 X26.2801 Y62.1193
G01 X25.9638 Y61.8394
G01 X26.4768 Y61.5828
G01 X26.1605 Y61.3030
G01 X26.6654 Y61.0476
G01 X26.3362 Y60.7405
G01 X26.2180 Y61.0511
G01 X25.8913 Y60.7501
G01 X25.7729 Y61.0592
G01 X26.0178 Y61.0556
G01 X25.9005 Y61.3615
G01 X25.5749 Y61.0604
G01 X25.4588 Y61.3660
G01 X25.1355 Y61.0710
G01 X25.0162 Y61.3801
G01 X25.2610 Y61.3768
G01 X25.1439 Y61.6824
G01 X25.3886 Y61.6787
G01 X25.3197 Y61.5126
G01 X25.5608 Y61.5079
G01 X25.4447 Y61.8136
G01 X25.6861 Y61.8089
G01 X25.5737 Y62.1123
G01 X25.2468 Y61.8112
G01 X25.1311 Y62.1168
G01 X24.8075 Y61.8218
G01 X24.6918 Y62.1277
G01 X24.9329 Y62.1228
G01 X24.8195 Y62.4262
G01 X24.4959 Y62.1298
G01 X24.3822 Y62.4332
G01 X24.0615 Y62.1426
G01 X23.9421 Y62.4520
G01 X24.1868 Y62.4486
G01 X24.0707 Y62.7552
G01 X24.3158 Y62.7519
G01 X24.2453 Y62.5843
G01 X24.4879 Y62.5795
G01 X24.3707 Y62.8866
G01 X24.6132 Y62.8806
G01 X24.4996 Y63.1840
G01 X24.7446 Y63.1805
G01 X24.6741 Y63.0144
G01 X24.9167 Y63.0096
G01 X24.8462 Y62.8418
G01 X24.7514 Y62.9369
G01 X24.6813 Y62.7717
G01 X24.9235 Y62.7670
G01 X24.8534 Y62.6029
G01 X25.0923 Y62.5973
G01 X24.9751 Y62.9028
G01 X25.2177 Y62.8983
G01 X25.1041 Y63.2017
G01 X25.3463 Y63.1970
G01 X25.2762 Y63.0329
G01 X25.5152 Y63.0260
G01 X25.4016 Y63.3292
G01 X25.6405 Y63.3235
G01 X25.5304 Y63.6233
G01 X25.2049 Y63.3223
G01 X25.0877 Y63.6291
G01 X24.7642 Y63.3327
G01 X24.6484 Y63.6395
G01 X24.8896 Y63.6338
G01 X24.7772 Y63.9373
G01 X24.4527 Y63.6420
G01 X24.3403 Y63.9453
G01 X24.0183 Y63.6536
G01 X23.9023 Y63.9607
G01 X24.1448 Y63.9559
G01 X24.0311 Y64.2594
G01 X24.2723 Y64.2534
G01 X24.2021 Y64.0894
G01 X24.4411 Y64.0836
G01 X24.3286 Y64.3871
G01 X24.5676 Y64.3811
G01 X24.4564 Y64.6810
G01 X24.1328 Y64.3848
G01 X24.0195 Y64.6881
G01 X23.6983 Y64.3976
G01 X23.5847 Y64.7011
G01 X23.8236 Y64.6950
G01 X23.7136 Y64.9949
G01 X23.3927 Y64.7044
G01 X23.2827 Y65.0042
G01 X22.9639 Y64.7184
G01 X22.8446 Y65.0287
G01 X23.0893 Y65.0242
G01 X22.9721 Y65.3311
G01 X23.2171 Y65.3274
G01 X23.1477 Y65.1613
G01 X23.3892 Y65.1553
G01 X23.2731 Y65.4624
G01 X23.5146 Y65.4576
G01 X23.4020 Y65.7611
G01 X23.6467 Y65.7562
G01 X23.5765 Y65.5899
G01 X23.8179 Y65.5852
G01 X23.7475 Y65.4190
G01 X23.6528 Y65.5128
G01 X23.5835 Y65.3488
G01 X23.8249 Y65.3428
G01 X23.7547 Y65.1787
G01 X23.9937 Y65.1730
G01 X23.8777 Y65.4797
G01 X24.1190 Y65.4740
G01 X24.0066 Y65.7772
G01 X24.2477 Y65.7727
G01 X24.1776 Y65.6086
G01 X24.4165 Y65.6027
G01 X24.3041 Y65.9050
G01 X24.5431 Y65.8993
G01 X24.4318 Y66.2004
G01 X24.6764 Y66.1956
G01 X24.6063 Y66.0292
G01 X24.8486 Y66.0247
G01 X24.7784 Y65.8582
G01 X24.6834 Y65.9517
G01 X24.6132 Y65.7881
G01 X24.8558 Y65.7821
G01 X24.7853 Y65.6179
G01 X25.0243 Y65.6123
G01 X24.9541 Y65.4460
G01 X24.8591 Y65.5395
G01 X24.7890 Y65.3757
G01 X24.6941 Y65.4694
G01 X24.7853 Y65.5080
G01 X24.6918 Y65.6015
G01 X24.6214 Y65.4378
G01 X24.5290 Y65.5301
G01 X24.4585 Y65.3685
G01 X24.6998 Y65.3637
G01 X24.6309 Y65.2001
G01 X24.8698 Y65.1941
G01 X24.7994 Y65.0287
G01 X24.7058 Y65.1226
G01 X24.6354 Y64.9610
G01 X24.8744 Y64.9549
G01 X24.8042 Y64.7922
G01 X25.0407 Y64.7853
G01 X24.9247 Y65.0921
G01 X25.1661 Y65.0864
G01 X25.0525 Y65.3896
G01 X25.2948 Y65.3850
G01 X25.2246 Y65.2209
G01 X25.4636 Y65.2150
G01 X25.3500 Y65.5184
G01 X25.5890 Y65.5116
G01 X25.4788 Y65.8126
G01 X25.7211 Y65.8066
G01 X25.6510 Y65.6426
G01 X25.8901 Y65.6370
G01 X25.8196 Y65.4729
G01 X25.7259 Y65.5653
G01 X25.6558 Y65.4036
G01 X25.8946 Y65.3979
G01 X25.8255 Y65.2363
G01 X26.0610 Y65.2291
G01 X25.9473 Y65.5313
G01 X26.1863 Y65.5256
G01 X26.0762 Y65.8265
G01 X26.3152 Y65.8195
G01 X26.2449 Y65.6579
G01 X26.4812 Y65.6510
G01 X26.3701 Y65.9509
G01 X26.6066 Y65.9437
G01 X26.4990 Y66.2412
G01 X26.1734 Y65.9401
G01 X26.0573 Y66.2459
G01 X25.7329 Y65.9497
G01 X25.6171 Y66.2564
G01 X25.8595 Y66.2517
G01 X25.7458 Y66.5551
G01 X25.4226 Y66.2576
G01 X25.3088 Y66.5623
G01 X24.9880 Y66.2716
G01 X24.8707 Y66.5773
G01 X25.1133 Y66.5728
G01 X24.9997 Y66.8759
G01 X25.2423 Y66.8714
G01 X25.1718 Y66.7074
G01 X25.4108 Y66.7005
G01 X25.2972 Y67.0037
G01 X25.5361 Y66.9979
G01 X25.4261 Y67.2978
G01 X25.1017 Y67.0025
G01 X24.9891 Y67.3060
G01 X24.6683 Y67.0142
G01 X24.5547 Y67.3176
G01 X24.7936 Y67.3119
G01 X24.6834 Y67.6118
G01 X24.3613 Y67.3213
G01 X24.2514 Y67.6223
G01 X23.9326 Y67.3365
G01 X23.8167 Y67.6421
G01 X24.0578 Y67.6373
G01 X23.9445 Y67.9407
G01 X24.1868 Y67.9362
G01 X24.1166 Y67.7723
G01 X24.3556 Y67.7650
G01 X24.2420 Y68.0684
G01 X24.4809 Y68.0625
G01 X24.3707 Y68.3623
G01 X24.6120 Y68.3578
G01 X24.5431 Y68.1938
G01 X24.7820 Y68.1878
G01 X24.7115 Y68.0229
G01 X24.6180 Y68.1165
G01 X24.5475 Y67.9549
G01 X24.7865 Y67.9491
G01 X24.7164 Y67.7863
G01 X24.9529 Y67.7791
G01 X24.8394 Y68.0826
G01 X25.0783 Y68.0766
G01 X24.9682 Y68.3765
G01 X25.2070 Y68.3708
G01 X25.1367 Y68.2091
G01 X25.3734 Y68.2019
G01 X25.2621 Y68.5018
G01 X25.4987 Y68.4949
G01 X25.3910 Y68.7912
G01 X25.0678 Y68.4960
G01 X24.9541 Y68.7996
G01 X24.6330 Y68.5066
G01 X24.5197 Y68.8112
G01 X24.7584 Y68.8052
G01 X24.6484 Y69.1051
G01 X24.3275 Y68.8145
G01 X24.2162 Y69.1156
G01 X23.8974 Y68.8298
G01 X23.7839 Y69.1333
G01 X24.0228 Y69.1261
G01 X23.9127 Y69.4271
G01 X24.1517 Y69.4214
G01 X24.0815 Y69.2587
G01 X24.3182 Y69.2514
G01 X24.2077 Y69.5513
G01 X24.4435 Y69.5444
G01 X24.3355 Y69.8419
G01 X24.0146 Y69.5513
G01 X23.9046 Y69.8511
G01 X23.5859 Y69.5653
G01 X23.4746 Y69.8652
G01 X23.7113 Y69.8583
G01 X23.6036 Y70.1558
G01 X23.2848 Y69.8701
G01 X23.1771 Y70.1675
G01 X22.8608 Y69.8862
G01 X22.7415 Y70.1969
G01 X22.9861 Y70.1921
G01 X22.8704 Y70.4988
G01 X23.1151 Y70.4956
G01 X23.0449 Y70.3291
G01 X23.2860 Y70.3235
G01 X23.1703 Y70.6302
G01 X23.4126 Y70.6254
G01 X23.2988 Y70.9288
G01 X23.5438 Y70.9241
G01 X23.4734 Y70.7580
G01 X23.7149 Y70.7531
G01 X23.6456 Y70.5867
G01 X23.5508 Y70.6805
G01 X23.4807 Y70.5166
G01 X23.7217 Y70.5109
G01 X23.6528 Y70.3468
G01 X23.8905 Y70.3408
G01 X23.7745 Y70.6478
G01 X24.0171 Y70.6418
G01 X23.9034 Y70.9453
G01 X24.1448 Y70.9406
G01 X24.0756 Y70.7765
G01 X24.3146 Y70.7708
G01 X24.2009 Y71.0731
G01 X24.4399 Y71.0670
G01 X24.3298 Y71.3681
G01 X24.5746 Y71.3634
G01 X24.5043 Y71.1973
G01 X24.7455 Y71.1924
G01 X24.6752 Y71.0260
G01 X24.5805 Y71.1198
G01 X24.5113 Y70.9559
G01 X24.7527 Y70.9498
G01 X24.6822 Y70.7859
G01 X24.9211 Y70.7802
G01 X24.8509 Y70.6137
G01 X24.7562 Y70.7076
G01 X24.6870 Y70.5434
G01 X24.5923 Y70.6371
G01 X24.6822 Y70.6758
G01 X24.5886 Y70.7695
G01 X24.5197 Y70.6056
G01 X24.4259 Y70.6982
G01 X24.3556 Y70.5363
G01 X24.5980 Y70.5306
G01 X24.5277 Y70.3678
G01 X24.7668 Y70.3618
G01 X24.6962 Y70.1969
G01 X24.6027 Y70.2905
G01 X24.5334 Y70.1289
G01 X24.7724 Y70.1231
G01 X24.7023 Y69.9603
G01 X24.9377 Y69.9531
G01 X24.8216 Y70.2601
G01 X25.0629 Y70.2541
G01 X24.9506 Y70.5576
G01 X25.1920 Y70.5528
G01 X25.1215 Y70.3888
G01 X25.3604 Y70.3831
G01 X25.2481 Y70.6863
G01 X25.4870 Y70.6794
G01 X25.3758 Y70.9804
G01 X25.6183 Y70.9744
G01 X25.5479 Y70.8108
G01 X25.7869 Y70.8047
G01 X25.7167 Y70.6406
G01 X25.6241 Y70.7333
G01 X25.5538 Y70.5717
G01 X25.7927 Y70.5658
G01 X25.7224 Y70.4040
G01 X25.9578 Y70.3972
G01 X25.8454 Y70.6992
G01 X26.0844 Y70.6936
G01 X25.9730 Y70.9933
G01 X26.2121 Y70.9874
G01 X26.1418 Y70.8257
G01 X26.3785 Y70.8188
G01 X26.2684 Y71.1186
G01 X26.5038 Y71.1114
G01 X26.3959 Y71.4092
G01 X26.6409 Y71.4045
G01 X26.5716 Y71.2380
G01 X26.8130 Y71.2335
G01 X26.7428 Y71.0670
G01 X26.6478 Y71.1607
G01 X26.5776 Y70.9969
G01 X26.8199 Y70.9921
G01 X26.7498 Y70.8269
G01 X26.9887 Y70.8212
G01 X26.9186 Y70.6548
G01 X26.8235 Y70.7486
G01 X26.7532 Y70.5846
G01 X26.6582 Y70.6782
G01 X26.7498 Y70.7169
G01 X26.6561 Y70.8108
G01 X26.5856 Y70.6466
G01 X26.4933 Y70.7403
G01 X26.4228 Y70.5774
G01 X26.6654 Y70.5729
G01 X26.5950 Y70.4089
G01 X26.8340 Y70.4029
G01 X26.7638 Y70.2377
G01 X26.6699 Y70.3315
G01 X26.5998 Y70.1699
G01 X26.8387 Y70.1639
G01 X26.7696 Y70.0011
G01 X27.0052 Y69.9942
G01 X26.9347 Y69.8277
G01 X26.8399 Y69.9216
G01 X26.7696 Y69.7576
G01 X26.6760 Y69.8511
G01 X26.7662 Y69.8898
G01 X26.6723 Y69.9836
G01 X26.6022 Y69.8197
G01 X26.5095 Y69.9132
G01 X26.4393 Y69.7504
G01 X26.3443 Y69.8454
G01 X26.4345 Y69.8841
G01 X26.3422 Y69.9776
G01 X26.4322 Y70.0164
G01 X26.4345 Y69.9439
G01 X26.5237 Y69.9813
G01 X26.4313 Y70.0748
G01 X26.5200 Y70.1123
G01 X26.4289 Y70.2050
G01 X26.3584 Y70.0409
G01 X26.2660 Y70.1348
G01 X26.1956 Y69.9732
G01 X26.1020 Y70.0656
G01 X26.1922 Y70.1042
G01 X26.1008 Y70.1969
G01 X26.0307 Y70.0352
G01 X25.9392 Y70.1277
G01 X25.8691 Y69.9684
G01 X26.1101 Y69.9624
G01 X26.0398 Y69.7987
G01 X26.2789 Y69.7926
G01 X26.2097 Y69.6287
G01 X26.1162 Y69.7213
G01 X26.0456 Y69.5597
G01 X26.2846 Y69.5537
G01 X26.2145 Y69.3921
G01 X26.4511 Y69.3840
G01 X26.3809 Y69.2200
G01 X26.2869 Y69.3136
G01 X26.2180 Y69.1518
G01 X26.1242 Y69.2445
G01 X26.2145 Y69.2832
G01 X26.1218 Y69.3755
G01 X26.0528 Y69.2140
G01 X25.9602 Y69.3066
G01 X25.8913 Y69.1473
G01 X26.1302 Y69.1402
G01 X26.0597 Y68.9785
G01 X26.2951 Y68.9717
G01 X26.2250 Y68.8100
G01 X26.1335 Y68.9023
G01 X26.0634 Y68.7431
G01 X26.2999 Y68.7351
G01 X26.2297 Y68.5755
G01 X26.4627 Y68.5674
G01 X26.3467 Y68.8734
G01 X26.5881 Y68.8685
G01 X26.4756 Y69.1719
G01 X26.7170 Y69.1672
G01 X26.6466 Y69.0032
G01 X26.8855 Y68.9974
G01 X26.7719 Y69.2994
G01 X27.0109 Y69.2938
G01 X26.9009 Y69.5936
G01 X27.1435 Y69.5887
G01 X27.0730 Y69.4248
G01 X27.3119 Y69.4190
G01 X27.2418 Y69.2550
G01 X27.1480 Y69.3477
G01 X27.0777 Y69.1861
G01 X27.3168 Y69.1800
G01 X27.2474 Y69.0185
G01 X27.4829 Y69.0104
G01 X27.3693 Y69.3136
G01 X27.6083 Y69.3078
G01 X27.4982 Y69.6077
G01 X27.7371 Y69.6016
G01 X27.6669 Y69.4400
G01 X27.9036 Y69.4332
G01 X27.7923 Y69.7331
G01 X28.0288 Y69.7258
G01 X27.9210 Y70.0224
G01 X28.1636 Y70.0175
G01 X28.0934 Y69.8536
G01 X28.3320 Y69.8479
G01 X28.2619 Y69.6838
G01 X28.1683 Y69.7762
G01 X28.0991 Y69.6146
G01 X28.3381 Y69.6089
G01 X28.2679 Y69.4472
G01 X28.5033 Y69.4389
G01 X28.4328 Y69.2748
G01 X28.3405 Y69.3687
G01 X28.2701 Y69.2071
G01 X28.1764 Y69.2994
G01 X28.2668 Y69.3381
G01 X28.1753 Y69.4307
G01 X28.1050 Y69.2690
G01 X28.0136 Y69.3615
G01 X27.9435 Y69.2022
G01 X28.1823 Y69.1954
G01 X28.1120 Y69.0338
G01 X28.3486 Y69.0266
G01 X28.2785 Y68.8649
G01 X28.1869 Y68.9575
G01 X28.1168 Y68.7982
G01 X28.3521 Y68.7899
G01 X28.2816 Y68.6308
G01 X28.5150 Y68.6226
G01 X28.4025 Y68.9257
G01 X28.6416 Y68.9201
G01 X28.5302 Y69.2200
G01 X28.7689 Y69.2140
G01 X28.7000 Y69.0511
G01 X28.9354 Y69.0442
G01 X28.8254 Y69.3442
G01 X29.0608 Y69.3370
G01 X28.9531 Y69.6347
G01 X29.1921 Y69.6287
G01 X29.1229 Y69.4671
G01 X29.3582 Y69.4589
G01 X29.2880 Y69.2973
G01 X29.1966 Y69.3896
G01 X29.1264 Y69.2304
G01 X29.3630 Y69.2235
G01 X29.2928 Y69.0628
G01 X29.5259 Y69.0547
G01 X29.4158 Y69.3557
G01 X29.6511 Y69.3477
G01 X29.5432 Y69.6452
G01 X29.7797 Y69.6380
G01 X29.7096 Y69.4787
G01 X29.9427 Y69.4694
G01 X29.8350 Y69.7669
G01 X30.0679 Y69.7587
G01 X29.9639 Y70.0526
G01 X29.6383 Y69.7516
G01 X29.5211 Y70.0586
G01 X29.1978 Y69.7620
G01 X29.0816 Y70.0680
G01 X29.3231 Y70.0632
G01 X29.2108 Y70.3666
G01 X28.8862 Y70.0716
G01 X28.7738 Y70.3739
G01 X28.4517 Y70.0832
G01 X28.3357 Y70.3900
G01 X28.5783 Y70.3855
G01 X28.4646 Y70.6887
G01 X28.7057 Y70.6830
G01 X28.6368 Y70.5190
G01 X28.8758 Y70.5129
G01 X28.7621 Y70.8164
G01 X29.0011 Y70.8108
G01 X28.8910 Y71.1105
G01 X28.5666 Y70.8141
G01 X28.4541 Y71.1174
G01 X28.1318 Y70.8269
G01 X28.0193 Y71.1304
G01 X28.2582 Y71.1244
G01 X28.1471 Y71.4241
G01 X27.8262 Y71.1340
G01 X27.7161 Y71.4338
G01 X27.3974 Y71.1480
G01 X27.2805 Y71.4547
G01 X27.5227 Y71.4501
G01 X27.4091 Y71.7522
G01 X27.6517 Y71.7477
G01 X27.5812 Y71.5838
G01 X27.8202 Y71.5777
G01 X27.7066 Y71.8800
G01 X27.9455 Y71.8752
G01 X27.8355 Y72.1751
G01 X28.0769 Y72.1705
G01 X28.0065 Y72.0054
G01 X28.2454 Y71.9993
G01 X28.1764 Y71.8354
G01 X28.0826 Y71.9292
G01 X28.0124 Y71.7663
G01 X28.2514 Y71.7604
G01 X28.1809 Y71.5988
G01 X28.4179 Y71.5918
G01 X28.3041 Y71.8954
G01 X28.5431 Y71.8881
G01 X28.4328 Y72.1892
G01 X28.6718 Y72.1823
G01 X28.6016 Y72.0206
G01 X28.8371 Y72.0133
G01 X28.7269 Y72.3134
G01 X28.9637 Y72.3064
G01 X28.8556 Y72.6039
G01 X28.5324 Y72.3076
G01 X28.4186 Y72.6107
G01 X28.0979 Y72.3205
G01 X27.9842 Y72.6237
G01 X28.2231 Y72.6180
G01 X28.1132 Y72.9178
G01 X27.7911 Y72.6273
G01 X27.6808 Y72.9271
G01 X27.3624 Y72.6413
G01 X27.2486 Y72.9449
G01 X27.4877 Y72.9388
G01 X27.3777 Y73.2387
G01 X27.6166 Y73.2330
G01 X27.5461 Y73.0714
G01 X27.7828 Y73.0642
G01 X27.6715 Y73.3641
G01 X27.9081 Y73.3571
G01 X27.8004 Y73.6534
G01 X27.4796 Y73.3629
G01 X27.3693 Y73.6626
G01 X27.0496 Y73.3781
G01 X26.9396 Y73.6780
G01 X27.1761 Y73.6710
G01 X27.0685 Y73.9673
G01 X26.7498 Y73.6828
G01 X26.6421 Y73.9790
G01 X26.3257 Y73.6990
G01 X26.2085 Y74.0049
G01 X26.4511 Y74.0001
G01 X26.3373 Y74.3034
G01 X26.5800 Y74.2987
G01 X26.5095 Y74.1346
G01 X26.7486 Y74.1277
G01 X26.6348 Y74.4313
G01 X26.8739 Y74.4252
G01 X26.7638 Y74.7251
G01 X27.0052 Y74.7206
G01 X26.9347 Y74.5565
G01 X27.1737 Y74.5505
G01 X27.1047 Y74.3865
G01 X27.0109 Y74.4792
G01 X26.9408 Y74.3176
G01 X27.1797 Y74.3116
G01 X27.1092 Y74.1500
G01 X27.3458 Y74.1418
G01 X27.2322 Y74.4454
G01 X27.4712 Y74.4393
G01 X27.3612 Y74.7392
G01 X27.6001 Y74.7335
G01 X27.5300 Y74.5718
G01 X27.7653 Y74.5647
G01 X27.6553 Y74.8646
G01 X27.8919 Y74.8576
G01 X27.7839 Y75.1539
G01 X28.0253 Y75.1491
G01 X27.9551 Y74.9851
G01 X28.1938 Y74.9793
G01 X28.1249 Y74.8153
G01 X28.0310 Y74.9080
G01 X27.9608 Y74.7464
G01 X28.1998 Y74.7403
G01 X28.1297 Y74.5787
G01 X28.3663 Y74.5707
G01 X28.2958 Y74.4066
G01 X28.2022 Y74.5002
G01 X28.1330 Y74.3386
G01 X28.0394 Y74.4313
G01 X28.1297 Y74.4698
G01 X28.0370 Y74.5623
G01 X27.9681 Y74.4007
G01 X27.8754 Y74.4932
G01 X27.8061 Y74.3328
G01 X28.0452 Y74.3270
G01 X27.9749 Y74.1652
G01 X28.2103 Y74.1583
G01 X28.1402 Y73.9967
G01 X28.0487 Y74.0890
G01 X27.9786 Y73.9286
G01 X28.2152 Y73.9218
G01 X28.1447 Y73.7622
G01 X28.3779 Y73.7541
G01 X28.2643 Y74.0576
G01 X28.5033 Y74.0516
G01 X28.3932 Y74.3514
G01 X28.6319 Y74.3458
G01 X28.5618 Y74.1829
G01 X28.7983 Y74.1757
G01 X28.6872 Y74.4755
G01 X28.9237 Y74.4687
G01 X28.8160 Y74.7662
G01 X29.0550 Y74.7602
G01 X28.9845 Y74.5973
G01 X29.2211 Y74.5905
G01 X29.1510 Y74.4288
G01 X29.0596 Y74.5214
G01 X28.9893 Y74.3620
G01 X29.2248 Y74.3550
G01 X29.1555 Y74.1947
G01 X29.3888 Y74.1863
G01 X29.2776 Y74.4874
G01 X29.5141 Y74.4792
G01 X29.4063 Y74.7767
G01 X29.6428 Y74.7697
G01 X29.5725 Y74.6103
G01 X29.8056 Y74.6009
G01 X29.6980 Y74.8984
G01 X29.9310 Y74.8903
G01 X29.8268 Y75.1843
G01 X29.5025 Y74.8891
G01 X29.3899 Y75.1914
G01 X29.0680 Y74.9008
G01 X28.9552 Y75.2043
G01 X29.1942 Y75.1983
G01 X29.0830 Y75.4982
G01 X28.7621 Y75.2078
G01 X28.6521 Y75.5077
G01 X28.3333 Y75.2229
G01 X28.2197 Y75.5252
G01 X28.4586 Y75.5194
G01 X28.3486 Y75.8192
G01 X28.5876 Y75.8134
G01 X28.5174 Y75.6516
G01 X28.7528 Y75.6448
G01 X28.6428 Y75.9446
G01 X28.8793 Y75.9375
G01 X28.7715 Y76.2350
G01 X28.4505 Y75.9435
G01 X28.3393 Y76.2445
G01 X28.0205 Y75.9585
G01 X27.9104 Y76.2583
G01 X28.1459 Y76.2514
G01 X28.0394 Y76.5489
G01 X27.7194 Y76.2630
G01 X27.6129 Y76.5605
G01 X27.2955 Y76.2796
G01 X27.1830 Y76.5829
G01 X27.4219 Y76.5771
G01 X27.3108 Y76.8770
G01 X27.5497 Y76.8709
G01 X27.4808 Y76.7093
G01 X27.7161 Y76.7023
G01 X27.6059 Y77.0023
G01 X27.8415 Y76.9954
G01 X27.7348 Y77.2915
G01 X27.9726 Y77.2856
G01 X27.9036 Y77.1240
G01 X28.1390 Y77.1171
G01 X28.0685 Y76.9542
G01 X27.9772 Y77.0479
G01 X27.9069 Y76.8874
G01 X28.1435 Y76.8804
G01 X28.0733 Y76.7210
G01 X28.3063 Y76.7128
G01 X28.1963 Y77.0127
G01 X28.4316 Y77.0058
G01 X28.3240 Y77.3020
G01 X28.5606 Y77.2952
G01 X28.4904 Y77.1357
G01 X28.7234 Y77.1275
G01 X28.6158 Y77.4239
G01 X28.8487 Y77.4157
G01 X28.7444 Y77.7095
G01 X28.4235 Y77.4193
G01 X28.3135 Y77.7204
G01 X27.9936 Y77.4344
G01 X27.8834 Y77.7343
G01 X28.1201 Y77.7273
G01 X28.0124 Y78.0248
G01 X27.6937 Y77.7389
G01 X27.5861 Y78.0353
G01 X27.2696 Y77.7555
G01 X27.1584 Y78.0553
G01 X27.3950 Y78.0482
G01 X27.2874 Y78.3457
G01 X27.5239 Y78.3387
G01 X27.4538 Y78.1782
G01 X27.6867 Y78.1702
G01 X27.5791 Y78.4664
G01 X27.8121 Y78.4592
G01 X27.7078 Y78.7534
G01 X27.3880 Y78.4664
G01 X27.2813 Y78.7651
G01 X26.9641 Y78.4839
G01 X26.8574 Y78.7816
G01 X27.0907 Y78.7732
G01 X26.9851 Y79.0674
G01 X26.6690 Y78.7861
G01 X26.5647 Y79.0815
G01 X26.2507 Y78.8050
G01 X26.7932 Y78.5483
G01 X26.4676 Y78.2473
G01 X27.0029 Y77.9909
G01 X26.6772 Y77.6898
G01 X26.5611 Y77.9954
G01 X26.2367 Y77.7004
G01 X26.7731 Y77.4427
G01 X26.4487 Y77.1473
G01 X26.9770 Y76.8910
G01 X26.6514 Y76.5899
G01 X26.5340 Y76.8958
G01 X26.2108 Y76.6005
G01 X26.0947 Y76.9063
G01 X26.3362 Y76.9014
G01 X26.2237 Y77.2049
G01 X25.8992 Y76.9083
G01 X25.7869 Y77.2119
G01 X25.4648 Y76.9213
G01 X26.0012 Y76.6649
G01 X25.6769 Y76.3686
G01 X26.2052 Y76.1131
G01 X25.8816 Y75.8169
G01 X25.7683 Y76.1203
G01 X25.4471 Y75.8298
G01 X25.9742 Y75.5731
G01 X25.6535 Y75.2828
G01 X26.1734 Y75.0262
G01 X25.8477 Y74.7251
G01 X25.7316 Y75.0322
G01 X25.4072 Y74.7356
G01 X25.2915 Y75.0426
G01 X25.5337 Y75.0366
G01 X25.4201 Y75.3401
G01 X25.0968 Y75.0450
G01 X24.9833 Y75.3482
G01 X24.6624 Y75.0568
G01 X24.5452 Y75.3635
G01 X24.7876 Y75.3587
G01 X24.6741 Y75.6621
G01 X24.9167 Y75.6564
G01 X24.8462 Y75.4925
G01 X25.0851 Y75.4864
G01 X24.9715 Y75.7899
G01 X25.2105 Y75.7839
G01 X25.1005 Y76.0838
G01 X24.7761 Y75.7875
G01 X24.6636 Y76.0911
G01 X24.3415 Y75.8004
G01 X24.2290 Y76.1038
G01 X24.4681 Y76.0979
G01 X24.3568 Y76.3977
G01 X24.0356 Y76.1075
G01 X23.9256 Y76.4073
G01 X23.6071 Y76.1212
G01 X24.1424 Y75.8649
G01 X23.8192 Y75.5698
G01 X24.3460 Y75.3131
G01 X24.0228 Y75.0168
G01 X23.9091 Y75.3204
G01 X23.5884 Y75.0297
G01 X24.1166 Y74.7730
G01 X23.7946 Y74.4828
G01 X24.3146 Y74.2261
G01 X23.9913 Y73.9311
G01 X23.8777 Y74.2342
G01 X23.5568 Y73.9440
G01 X23.4444 Y74.2461
G01 X23.6822 Y74.2403
G01 X23.5718 Y74.5413
G01 X23.2509 Y74.2494
G01 X23.1409 Y74.5505
G01 X22.8222 Y74.2648
G01 X23.3492 Y74.0084
G01 X23.0284 Y73.7179
G01 X23.5484 Y73.4612
G01 X23.2275 Y73.1709
G01 X23.1163 Y73.4719
G01 X22.7976 Y73.1859
G01 X23.3179 Y72.9295
G01 X22.9991 Y72.6438
G01 X23.5121 Y72.3882
G01 X23.1853 Y72.0872
G01 X23.0696 Y72.3942
G01 X22.7460 Y72.0980
G01 X22.6302 Y72.4048
G01 X22.8714 Y72.3987
G01 X22.7579 Y72.7023
G01 X22.4345 Y72.4072
G01 X22.3211 Y72.7103
G01 X21.9999 Y72.4188
G01 X21.8838 Y72.7256
G01 X22.1252 Y72.7211
G01 X22.0128 Y73.0243
G01 X22.2542 Y73.0185
G01 X22.1837 Y72.8545
G01 X22.4227 Y72.8485
G01 X22.3103 Y73.1520
G01 X22.5480 Y73.1464
G01 X22.4380 Y73.4462
G01 X22.1148 Y73.1497
G01 X22.0011 Y73.4531
G01 X21.6803 Y73.1625
G01 X21.5666 Y73.4659
G01 X21.8056 Y73.4600
G01 X21.6956 Y73.7598
G01 X21.3744 Y73.4696
G01 X21.2643 Y73.7694
G01 X20.9447 Y73.4837
G01 X20.8287 Y73.7904
G01 X21.0712 Y73.7856
G01 X20.9576 Y74.0890
G01 X21.1987 Y74.0834
G01 X21.1297 Y73.9194
G01 X21.3675 Y73.9134
G01 X21.2551 Y74.2168
G01 X21.4940 Y74.2109
G01 X21.3829 Y74.5107
G01 X21.6251 Y74.5062
G01 X21.5549 Y74.3422
G01 X21.7939 Y74.3350
G01 X21.7234 Y74.1712
G01 X21.6311 Y74.2648
G01 X21.5606 Y74.1032
G01 X21.7995 Y74.0963
G01 X21.7294 Y73.9343
G01 X21.9648 Y73.9274
G01 X21.8523 Y74.2309
G01 X22.0914 Y74.2250
G01 X21.9801 Y74.5248
G01 X22.2191 Y74.5191
G01 X22.1498 Y74.3562
G01 X22.3853 Y74.3490
G01 X22.2752 Y74.6489
G01 X22.5106 Y74.6420
G01 X22.4041 Y74.9395
G01 X22.0797 Y74.6432
G01 X21.9672 Y74.9467
G01 X21.6452 Y74.6562
G01 X21.5327 Y74.9594
G01 X21.7715 Y74.9536
G01 X21.6601 Y75.2535
G01 X21.3393 Y74.9628
G01 X21.2293 Y75.2627
G01 X20.9105 Y74.9770
G01 X20.7969 Y75.2805
G01 X21.0359 Y75.2745
G01 X20.9258 Y75.5743
G01 X21.1647 Y75.5686
G01 X21.0946 Y75.4070
G01 X21.3301 Y75.3998
G01 X21.2200 Y75.6997
G01 X21.4566 Y75.6927
G01 X21.3486 Y75.9902
G01 X21.0278 Y75.6984
G01 X20.9165 Y75.9995
G01 X20.5977 Y75.7137
G01 X20.4877 Y76.0136
G01 X20.7231 Y76.0067
G01 X20.6167 Y76.3041
G01 X20.2970 Y76.0185
G01 X20.1902 Y76.3160
G01 X19.8727 Y76.0346
G01 X20.4091 Y75.7782
G01 X20.0846 Y75.4819
G01 X20.6131 Y75.2263
G01 X20.2898 Y74.9302
G01 X20.1762 Y75.2336
G01 X19.8553 Y74.9419
G01 X20.3825 Y74.6864
G01 X20.0613 Y74.3961
G01 X20.5816 Y74.1395
G01 X20.2583 Y73.8444
G01 X20.1447 Y74.1467
G01 X19.8235 Y73.8561
G01 X19.7099 Y74.1593
G01 X19.9489 Y74.1536
G01 X19.8387 Y74.4534
G01 X19.5180 Y74.1628
G01 X19.4067 Y74.4627
G01 X19.0879 Y74.1782
G01 X19.6164 Y73.9218
G01 X19.2943 Y73.6312
G01 X19.8142 Y73.3745
G01 X19.4933 Y73.0843
G01 X19.3833 Y73.3841
G01 X19.0646 Y73.0981
G01 X19.5846 Y72.8429
G01 X19.2661 Y72.5572
G01 X19.7780 Y72.3016
G01 X19.4547 Y72.0054
G01 X19.3411 Y72.3087
G01 X19.0202 Y72.0182
G01 X18.9066 Y72.3217
G01 X19.1456 Y72.3157
G01 X19.0352 Y72.6156
G01 X18.7143 Y72.3250
G01 X18.6043 Y72.6249
G01 X18.2847 Y72.3403
G01 X18.1722 Y72.6425
G01 X18.4109 Y72.6366
G01 X18.2996 Y72.9364
G01 X18.5386 Y72.9307
G01 X18.4685 Y72.7691
G01 X18.7051 Y72.7619
G01 X18.5950 Y73.0618
G01 X18.8303 Y73.0549
G01 X18.7228 Y73.3523
G01 X18.4016 Y73.0605
G01 X18.2915 Y73.3616
G01 X17.9732 Y73.0758
G01 X17.8627 Y73.3757
G01 X18.0981 Y73.3688
G01 X17.9905 Y73.6663
G01 X17.6720 Y73.3793
G01 X17.5641 Y73.6780
G01 X17.2480 Y73.3970
G01 X17.7761 Y73.1404
G01 X17.4541 Y72.8497
G01 X17.9739 Y72.5946
G01 X17.6531 Y72.3040
G01 X17.5431 Y72.6039
G01 X17.2243 Y72.3181
G01 X17.7446 Y72.0615
G01 X17.4259 Y71.7770
G01 X17.9377 Y71.5217
G01 X17.6168 Y71.2298
G01 X17.5069 Y71.5310
G01 X17.1869 Y71.2452
G01 X17.0768 Y71.5451
G01 X17.3135 Y71.5379
G01 X17.2058 Y71.8354
G01 X16.8870 Y71.5495
G01 X16.7793 Y71.8473
G01 X16.4630 Y71.5661
G01 X16.9833 Y71.3106
G01 X16.6645 Y71.0248
G01 X17.1764 Y70.7695
G01 X16.8579 Y70.4839
G01 X16.7499 Y70.7814
G01 X16.4339 Y70.5000
G01 X16.9470 Y70.2449
G01 X16.6294 Y69.9648
G01 X17.1355 Y69.7097
G01 X16.8087 Y69.4086
G01 X16.6927 Y69.7141
G01 X16.3695 Y69.4190
G01 X16.2534 Y69.7246
G01 X16.4948 Y69.7201
G01 X16.3811 Y70.0236
G01 X16.0579 Y69.7270
G01 X15.9442 Y70.0306
G01 X15.6233 Y69.7399
G01 X15.5073 Y70.0458
G01 X15.7487 Y70.0409
G01 X15.6363 Y70.3445
G01 X15.8774 Y70.3396
G01 X15.8072 Y70.1756
G01 X16.0461 Y70.1699
G01 X15.9326 Y70.4722
G01 X16.1715 Y70.4662
G01 X16.0613 Y70.7660
G01 X15.7378 Y70.4710
G01 X15.6243 Y70.7741
G01 X15.3034 Y70.4839
G01 X15.1898 Y70.7859
G01 X15.4288 Y70.7802
G01 X15.3188 Y71.0812
G01 X14.9979 Y70.7893
G01 X14.8875 Y71.0904
G01 X14.5678 Y70.8047
G01 X14.4518 Y71.1105
G01 X14.6944 Y71.1058
G01 X14.5806 Y71.4092
G01 X14.8221 Y71.4045
G01 X14.7517 Y71.2404
G01 X14.9907 Y71.2347
G01 X14.8782 Y71.5367
G01 X15.1172 Y71.5310
G01 X15.0059 Y71.8309
G01 X15.2485 Y71.8260
G01 X15.1780 Y71.6620
G01 X15.4170 Y71.6551
G01 X15.3468 Y71.4923
G01 X15.2542 Y71.5849
G01 X15.1841 Y71.4234
G01 X15.4230 Y71.4173
G01 X15.3525 Y71.2557
G01 X15.5880 Y71.2476
G01 X15.4755 Y71.5507
G01 X15.7145 Y71.5451
G01 X15.6033 Y71.8450
G01 X15.8422 Y71.8389
G01 X15.7733 Y71.6773
G01 X16.0087 Y71.6705
G01 X15.8987 Y71.9703
G01 X16.1341 Y71.9631
G01 X16.0261 Y72.2597
G01 X15.7028 Y71.9643
G01 X15.5893 Y72.2677
G01 X15.2684 Y71.9771
G01 X15.1558 Y72.2795
G01 X15.3949 Y72.2734
G01 X15.2836 Y72.5745
G01 X14.9625 Y72.2831
G01 X14.8525 Y72.5840
G01 X14.5339 Y72.2980
G01 X14.4202 Y72.6015
G01 X14.6593 Y72.5958
G01 X14.5493 Y72.8956
G01 X14.7879 Y72.8896
G01 X14.7178 Y72.7268
G01 X14.9531 Y72.7200
G01 X14.8431 Y73.0198
G01 X15.0785 Y73.0126
G01 X14.9721 Y73.3101
G01 X14.6497 Y73.0198
G01 X14.5396 Y73.3196
G01 X14.2212 Y73.0339
G01 X14.1112 Y73.3347
G01 X14.3466 Y73.3265
G01 X14.2385 Y73.6240
G01 X13.9202 Y73.3382
G01 X13.8122 Y73.6357
G01 X13.4961 Y73.3559
G01 X13.3802 Y73.6614
G01 X13.6227 Y73.6570
G01 X13.5091 Y73.9601
G01 X13.7502 Y73.9556
G01 X13.6799 Y73.7904
G01 X13.9190 Y73.7845
G01 X13.8065 Y74.0879
G01 X14.0454 Y74.0822
G01 X13.9342 Y74.3820
G01 X14.1766 Y74.3772
G01 X14.1063 Y74.2132
G01 X14.3454 Y74.2063
G01 X14.2749 Y74.0423
G01 X14.1825 Y74.1359
G01 X14.1121 Y73.9741
G01 X14.3511 Y73.9673
G01 X14.2809 Y73.8057
G01 X14.5162 Y73.7985
G01 X14.4038 Y74.1019
G01 X14.6428 Y74.0963
G01 X14.5316 Y74.3961
G01 X14.7705 Y74.3901
G01 X14.7001 Y74.2284
G01 X14.9367 Y74.2205
G01 X14.8266 Y74.5214
G01 X15.0620 Y74.5131
G01 X14.9543 Y74.8106
G01 X15.1970 Y74.8061
G01 X15.1264 Y74.6420
G01 X15.3655 Y74.6348
G01 X15.2952 Y74.4710
G01 X15.2026 Y74.5647
G01 X15.1325 Y74.4030
G01 X15.3714 Y74.3961
G01 X15.3010 Y74.2342
G01 X15.5364 Y74.2273
G01 X15.4674 Y74.0633
G01 X15.3739 Y74.1559
G01 X15.3034 Y73.9944
G01 X15.2110 Y74.0879
G01 X15.2997 Y74.1254
G01 X15.2086 Y74.2193
G01 X15.1382 Y74.0565
G01 X15.0470 Y74.1488
G01 X14.9765 Y73.9895
G01 X15.2156 Y73.9838
G01 X15.1454 Y73.8222
G01 X15.3820 Y73.8138
G01 X15.3116 Y73.6522
G01 X15.2204 Y73.7448
G01 X15.1500 Y73.5853
G01 X15.3856 Y73.5785
G01 X15.3163 Y73.4192
G01 X15.5493 Y73.4108
G01 X15.4360 Y73.7130
G01 X15.6746 Y73.7074
G01 X15.5646 Y74.0072
G01 X15.8036 Y74.0012
G01 X15.7334 Y73.8396
G01 X15.9688 Y73.8328
G01 X15.8588 Y74.1326
G01 X16.0953 Y74.1254
G01 X15.9874 Y74.4228
G01 X16.2264 Y74.4160
G01 X16.1563 Y74.2543
G01 X16.3916 Y74.2471
G01 X16.3226 Y74.0855
G01 X16.2299 Y74.1782
G01 X16.1610 Y74.0189
G01 X16.3964 Y74.0105
G01 X16.3259 Y73.8513
G01 X16.5592 Y73.8432
G01 X16.4489 Y74.1431
G01 X16.6846 Y74.1359
G01 X16.5778 Y74.4336
G01 X16.8133 Y74.4264
G01 X16.7430 Y74.2660
G01 X16.9760 Y74.2579
G01 X16.8695 Y74.5554
G01 X17.1026 Y74.5469
G01 X16.9973 Y74.8411
G01 X16.6739 Y74.5448
G01 X16.5605 Y74.8480
G01 X16.2392 Y74.5577
G01 X16.1257 Y74.8608
G01 X16.3646 Y74.8552
G01 X16.2546 Y75.1551
G01 X15.9338 Y74.8646
G01 X15.8237 Y75.1644
G01 X15.5037 Y74.8786
G01 X15.3913 Y75.1821
G01 X15.6303 Y75.1761
G01 X15.5190 Y75.4760
G01 X15.7581 Y75.4703
G01 X15.6876 Y75.3086
G01 X15.9242 Y75.3015
G01 X15.8142 Y75.6012
G01 X16.0494 Y75.5944
G01 X15.9418 Y75.8907
G01 X15.6210 Y75.6000
G01 X15.5110 Y75.9000
G01 X15.1922 Y75.6154
G01 X15.0821 Y75.9153
G01 X15.3175 Y75.9084
G01 X15.2098 Y76.2046
G01 X14.8911 Y75.9199
G01 X14.7835 Y76.2163
G01 X14.4671 Y75.9363
G01 X14.3534 Y76.2396
G01 X14.5925 Y76.2336
G01 X14.4824 Y76.5335
G01 X14.7214 Y76.5279
G01 X14.6509 Y76.3650
G01 X14.8875 Y76.3580
G01 X14.7763 Y76.6581
G01 X15.0129 Y76.6509
G01 X14.9053 Y76.9482
G01 X15.1442 Y76.9426
G01 X15.0741 Y76.7797
G01 X15.3106 Y76.7726
G01 X15.2402 Y76.6109
G01 X15.1490 Y76.7036
G01 X15.0785 Y76.5444
G01 X15.3139 Y76.5371
G01 X15.2450 Y76.3767
G01 X15.4779 Y76.3686
G01 X15.3667 Y76.6696
G01 X15.6033 Y76.6612
G01 X15.4956 Y76.9587
G01 X15.7322 Y76.9518
G01 X15.6618 Y76.7926
G01 X15.8950 Y76.7830
G01 X15.7871 Y77.0808
G01 X16.0204 Y77.0724
G01 X15.9160 Y77.3666
G01 X15.5939 Y77.0759
G01 X15.4839 Y77.3758
G01 X15.1652 Y77.0901
G01 X15.0551 Y77.3911
G01 X15.2906 Y77.3840
G01 X15.1829 Y77.6806
G01 X14.8641 Y77.3947
G01 X14.7565 Y77.6922
G01 X14.4401 Y77.4122
G01 X14.3301 Y77.7120
G01 X14.5654 Y77.7051
G01 X14.4590 Y78.0014
G01 X14.6944 Y77.9945
G01 X14.6242 Y77.8349
G01 X14.8571 Y77.8268
G01 X14.7505 Y78.1231
G01 X14.9837 Y78.1150
G01 X14.8782 Y78.4088
G01 X14.5598 Y78.1243
G01 X14.4518 Y78.4206
G01 X14.1358 Y78.1408
G01 X14.0278 Y78.4383
G01 X14.2611 Y78.4290
G01 X14.1568 Y78.7240
G01 X13.8404 Y78.4430
G01 X13.7351 Y78.7368
G01 X13.4212 Y78.4617
G01 X13.9564 Y78.2053
G01 X13.6332 Y77.9087
G01 X14.1616 Y77.6523
G01 X13.8371 Y77.3573
G01 X13.7247 Y77.6605
G01 X13.4023 Y77.3701
G01 X13.9306 Y77.1135
G01 X13.6098 Y76.8230
G01 X14.1298 Y76.5665
G01 X13.8065 Y76.2702
G01 X13.6929 Y76.5734
G01 X13.3720 Y76.2832
G01 X13.2584 Y76.5863
G01 X13.4973 Y76.5795
G01 X13.3872 Y76.8804
G01 X13.0650 Y76.5899
G01 X12.9549 Y76.8898
G01 X12.6364 Y76.6051
G01 X13.1634 Y76.3485
G01 X12.8424 Y76.0583
G01 X13.3625 Y75.8015
G01 X13.0416 Y75.5110
G01 X12.9316 Y75.8109
G01 X12.6128 Y75.5252
G01 X13.1331 Y75.2700
G01 X12.8131 Y74.9839
G01 X13.3261 Y74.7287
G01 X13.0029 Y74.4324
G01 X12.8892 Y74.7356
G01 X12.5684 Y74.4454
G01 X12.4547 Y74.7485
G01 X12.6936 Y74.7429
G01 X12.5837 Y75.0426
G01 X12.2628 Y74.7520
G01 X12.1513 Y75.0519
G01 X11.8329 Y74.7662
G01 X11.7192 Y75.0696
G01 X11.9582 Y75.0637
G01 X11.8482 Y75.3635
G01 X12.0871 Y75.3578
G01 X12.0166 Y75.1962
G01 X12.2533 Y75.1889
G01 X12.1432 Y75.4888
G01 X12.3786 Y75.4819
G01 X12.2709 Y75.7782
G01 X11.9501 Y75.4876
G01 X11.8396 Y75.7887
G01 X11.5212 Y75.5030
G01 X11.4101 Y75.8027
G01 X11.6466 Y75.7958
G01 X11.5387 Y76.0933
G01 X11.2203 Y75.8076
G01 X11.1126 Y76.1051
G01 X10.7962 Y75.8237
G01 X11.3234 Y75.5675
G01 X11.0022 Y75.2768
G01 X11.5224 Y75.0217
G01 X11.2013 Y74.7299
G01 X11.0913 Y75.0310
G01 X10.7728 Y74.7452
G01 X11.2928 Y74.4885
G01 X10.9732 Y74.2039
G01 X11.4861 Y73.9473
G01 X11.1650 Y73.6570
G01 X11.0537 Y73.9580
G01 X10.7353 Y73.6723
G01 X10.6253 Y73.9722
G01 X10.8618 Y73.9649
G01 X10.7539 Y74.2624
G01 X10.4354 Y73.9767
G01 X10.3275 Y74.2730
G01 X10.0115 Y73.9932
G01 X10.5314 Y73.7377
G01 X10.2117 Y73.4519
G01 X10.7249 Y73.1966
G01 X10.4061 Y72.9106
G01 X10.2984 Y73.2084
G01 X9.9821 Y72.9271
G01 X10.4939 Y72.6719
G01 X10.1776 Y72.3907
G01 X10.6825 Y72.1364
G01 X10.3593 Y71.8401
G01 X10.2456 Y72.1436
G01 X9.9248 Y71.8530
G01 X9.8111 Y72.1565
G01 X10.0501 Y72.1505
G01 X9.9398 Y72.4503
G01 X9.6189 Y72.1601
G01 X9.5089 Y72.4599
G01 X9.1902 Y72.1738
G01 X9.0768 Y72.4774
G01 X9.3155 Y72.4717
G01 X9.2042 Y72.7715
G01 X9.4432 Y72.7655
G01 X9.3742 Y72.6039
G01 X9.6096 Y72.5958
G01 X9.4996 Y72.8968
G01 X9.7350 Y72.8896
G01 X9.6283 Y73.1859
G01 X9.3062 Y72.8956
G01 X9.1962 Y73.1954
G01 X8.8774 Y72.9106
G01 X8.7673 Y73.2105
G01 X9.0028 Y73.2036
G01 X8.8951 Y73.4998
G01 X8.5767 Y73.2153
G01 X8.4687 Y73.5115
G01 X8.1526 Y73.2317
G01 X8.0390 Y73.5348
G01 X8.2777 Y73.5280
G01 X8.1676 Y73.8291
G01 X8.4066 Y73.8231
G01 X8.3364 Y73.6602
G01 X8.5730 Y73.6534
G01 X8.4630 Y73.9533
G01 X8.6984 Y73.9463
G01 X8.5904 Y74.2438
G01 X8.8294 Y74.2378
G01 X8.7593 Y74.0750
G01 X8.9958 Y74.0681
G01 X8.9257 Y73.9066
G01 X8.8342 Y73.9989
G01 X8.7641 Y73.8396
G01 X9.0007 Y73.8328
G01 X8.9302 Y73.6723
G01 X9.1634 Y73.6640
G01 X9.0522 Y73.9649
G01 X9.2888 Y73.9568
G01 X9.1808 Y74.2543
G01 X9.4174 Y74.2471
G01 X9.3473 Y74.0879
G01 X9.5803 Y74.0785
G01 X9.4727 Y74.3760
G01 X9.7056 Y74.3680
G01 X9.6016 Y74.6619
G01 X9.2804 Y74.3716
G01 X9.1691 Y74.6714
G01 X8.8507 Y74.3854
G01 X8.7404 Y74.6864
G01 X8.9761 Y74.6783
G01 X8.8693 Y74.9758
G01 X8.5496 Y74.6901
G01 X8.4429 Y74.9874
G01 X8.1256 Y74.7077
G01 X8.0153 Y75.0076
G01 X8.2522 Y75.0004
G01 X8.1442 Y75.2966
G01 X8.3796 Y75.2897
G01 X8.3094 Y75.1306
G01 X8.5436 Y75.1221
G01 X8.4360 Y75.4187
G01 X8.6690 Y75.4102
G01 X8.5637 Y75.7044
G01 X8.2450 Y75.4199
G01 X8.1373 Y75.7161
G01 X7.8210 Y75.4360
G01 X7.7133 Y75.7335
G01 X7.9463 Y75.7242
G01 X7.8420 Y76.0185
G01 X7.5259 Y75.7383
G01 X7.4203 Y76.0325
G01 X7.1064 Y75.7573
G01 X7.6348 Y75.5005
G01 X7.3139 Y75.2099
G01 X7.8339 Y74.9536
G01 X7.5118 Y74.6631
G01 X7.4018 Y74.9640
G01 X7.0830 Y74.6783
G01 X7.6030 Y74.4220
G01 X7.2845 Y74.1371
G01 X7.7964 Y73.8806
G01 X7.4755 Y73.5901
G01 X7.3652 Y73.8900
G01 X7.0467 Y73.6054
G01 X6.9355 Y73.9040
G01 X7.1721 Y73.8981
G01 X7.0644 Y74.1947
G01 X6.7457 Y73.9097
G01 X6.6380 Y74.2063
G01 X6.3217 Y73.9263
G01 X6.8416 Y73.6698
G01 X6.5232 Y73.3850
G01 X7.0351 Y73.1298
G01 X6.7163 Y72.8441
G01 X6.6086 Y73.1404
G01 X6.2923 Y72.8602
G01 X6.8053 Y72.6051
G01 X6.4893 Y72.3238
G01 X6.9940 Y72.0698
G01 X6.6731 Y71.7781
G01 X6.5619 Y72.0791
G01 X6.2431 Y71.7934
G01 X6.1331 Y72.0932
G01 X6.3684 Y72.0860
G01 X6.2620 Y72.3839
G01 X5.9421 Y72.0980
G01 X5.8356 Y72.3954
G01 X5.5180 Y72.1142
G01 X5.4080 Y72.4140
G01 X5.6446 Y72.4072
G01 X5.5370 Y72.7046
G01 X5.7723 Y72.6978
G01 X5.7034 Y72.5369
G01 X5.9363 Y72.5290
G01 X5.8287 Y72.8263
G01 X6.0617 Y72.8183
G01 X5.9561 Y73.1121
G01 X5.6377 Y72.8263
G01 X5.5297 Y73.1238
G01 X5.2137 Y72.8429
G01 X5.1057 Y73.1404
G01 X5.3390 Y73.1322
G01 X5.2347 Y73.4260
G01 X4.9183 Y73.1464
G01 X4.8143 Y73.4402
G01 X4.4991 Y73.1649
G01 X5.0191 Y72.9085
G01 X4.7006 Y72.6228
G01 X5.2137 Y72.3673
G01 X4.8949 Y72.0815
G01 X4.7873 Y72.3790
G01 X4.4709 Y72.0989
G01 X4.9828 Y71.8426
G01 X4.6664 Y71.5625
G01 X5.1714 Y71.3073
G01 X4.8530 Y71.0215
G01 X4.7450 Y71.3190
G01 X4.4289 Y71.0388
G01 X4.3210 Y71.3354
G01 X4.5543 Y71.3270
G01 X4.4500 Y71.6212
G01 X4.1336 Y71.3412
G01 X4.0283 Y71.6354
G01 X3.7144 Y71.3600
G01 X4.2274 Y71.1046
G01 X3.9111 Y70.8236
G01 X4.4161 Y70.5682
G01 X4.0997 Y70.2880
G01 X3.9942 Y70.5822
G01 X3.6802 Y70.3069
G01 X4.1852 Y70.0515
G01 X3.8712 Y69.7762
G01 X4.3690 Y69.5210
G01 X3.8700 Y69.1731
G01 X3.7692 Y69.6100
G01 X3.2751 Y69.2678
G01 X3.1743 Y69.7060
G01 X3.5012 Y69.6544
G01 X3.4040 Y70.0878
G01 X2.9096 Y69.7459
G01 X2.8112 Y70.1779
G01 X2.3215 Y69.8430
G01 X2.2196 Y70.2799
G01 X2.5476 Y70.2283
G01 X2.4505 Y70.6617
G01 X2.7773 Y70.6104
G01 X2.6520 Y70.4005
G01 X2.9752 Y70.3479
G01 X2.8781 Y70.7802
G01 X3.2013 Y70.7285
G01 X3.1062 Y71.1562
G01 X2.6121 Y70.8141
G01 X2.5149 Y71.2476
G01 X2.0241 Y70.9111
G01 X1.9269 Y71.3447
G01 X2.2502 Y71.2920
G01 X2.1554 Y71.7195
G01 X1.6657 Y71.3846
G01 X1.5707 Y71.8132
G01 X1.0858 Y71.4841
G01 X0.9838 Y71.9222
G01 X1.3119 Y71.8706
G01 X1.2135 Y72.3029
G01 X1.5416 Y72.2513
G01 X1.4163 Y72.0416
G01 X1.7395 Y71.9889
G01 X1.6412 Y72.4225
G01 X1.9644 Y72.3697
G01 X1.8705 Y72.7973
G01 X2.1974 Y72.7469
G01 X2.0721 Y72.5358
G01 X2.3953 Y72.4834
G01 X2.2699 Y72.2734
G01 X2.1611 Y72.4176
G01 X2.0358 Y72.2102
G01 X2.3590 Y72.1577
G01 X2.2336 Y71.9514
G01 X2.5536 Y71.8977
G01 X2.4553 Y72.3298
G01 X2.7785 Y72.2782
G01 X2.6847 Y72.7058
G01 X3.0079 Y72.6530
G01 X2.8826 Y72.4470
G01 X3.2013 Y72.3930
G01 X3.1074 Y72.8219
G01 X3.4262 Y72.7679
G01 X3.3359 Y73.1908
G01 X2.8418 Y72.8485
G01 X2.7431 Y73.2821
G01 X2.2537 Y72.9472
G01 X2.1554 Y73.3793
G01 X2.4787 Y73.3265
G01 X2.3848 Y73.7554
G01 X1.8939 Y73.4204
G01 X1.8004 Y73.8477
G01 X1.3143 Y73.5187
G01 X1.2159 Y73.9521
G01 X1.5404 Y73.8993
G01 X1.4454 Y74.3281
G01 X1.7686 Y74.2754
G01 X1.6432 Y74.0681
G01 X1.9632 Y74.0141
G01 X1.8681 Y74.4430
G01 X2.1881 Y74.3889
G01 X2.0966 Y74.8130
G01 X1.6069 Y74.4780
G01 X1.5122 Y74.9056
G01 X1.0261 Y74.5764
G01 X0.9323 Y75.0052
G01 X1.2510 Y74.9512
G01 X1.1596 Y75.3753
G01 X0.6735 Y75.0462
G01 X0.5832 Y75.4691
G01 X0.1008 Y75.1467
G01 X0.0000 Y75.5848
G01 X0.3281 Y75.5335
G01 X0.2297 Y75.9657
G01 X0.5574 Y75.9153
G01 X0.4321 Y75.7044
G01 X0.7556 Y75.6516
G01 X0.6570 Y76.0850
G01 X0.9806 Y76.0325
G01 X0.8867 Y76.4610
G01 X1.2135 Y76.4095
G01 X1.0882 Y76.1986
G01 X1.4115 Y76.1470
G01 X1.2861 Y75.9363
G01 X1.1772 Y76.0804
G01 X1.0519 Y75.8729
G01 X1.3752 Y75.8213
G01 X1.2498 Y75.6142
G01 X1.5695 Y75.5602
G01 X1.4711 Y75.9937
G01 X1.7943 Y75.9411
G01 X1.7008 Y76.3686
G01 X2.0241 Y76.3171
G01 X1.8987 Y76.1096
G01 X2.2175 Y76.0559
G01 X2.1236 Y76.4843
G01 X2.4424 Y76.4306
G01 X2.3521 Y76.8547
G01 X2.6789 Y76.8031
G01 X2.5536 Y76.5923
G01 X2.8769 Y76.5407
G01 X2.7515 Y76.3300
G01 X2.6424 Y76.4739
G01 X2.5173 Y76.2667
G01 X2.8406 Y76.2151
G01 X2.7152 Y76.0079
G01 X3.0349 Y75.9539
G01 X2.9084 Y75.7443
G01 X2.7995 Y75.8882
G01 X2.6742 Y75.6810
G01 X2.5653 Y75.8249
G01 X2.6940 Y75.8601
G01 X2.5863 Y76.0031
G01 X2.4610 Y75.7958
G01 X2.3545 Y75.9386
G01 X2.2292 Y75.7347
G01 X2.5536 Y75.6822
G01 X2.4282 Y75.4760
G01 X2.7467 Y75.4220
G01 X2.6214 Y75.2148
G01 X2.5149 Y75.3578
G01 X2.3896 Y75.1539
G01 X2.7092 Y75.1000
G01 X2.5839 Y74.8963
G01 X2.8990 Y74.8423
G01 X2.8019 Y75.2745
G01 X3.1252 Y75.2229
G01 X3.0301 Y75.6504
G01 X3.3549 Y75.5976
G01 X3.2295 Y75.3917
G01 X3.5479 Y75.3377
G01 X3.4544 Y75.7653
G01 X3.7728 Y75.7125
G01 X3.6814 Y76.1353
G01 X4.0047 Y76.0838
G01 X3.8805 Y75.8765
G01 X4.1993 Y75.8225
G01 X4.0739 Y75.6154
G01 X3.9672 Y75.7584
G01 X3.8418 Y75.5544
G01 X4.1618 Y75.5017
G01 X4.0364 Y75.2978
G01 X4.3516 Y75.2429
G01 X4.2577 Y75.6715
G01 X4.5765 Y75.6178
G01 X4.4862 Y76.0418
G01 X4.8047 Y75.9879
G01 X4.6805 Y75.7839
G01 X4.9957 Y75.7290
G01 X4.9042 Y76.1530
G01 X5.2194 Y76.0979
G01 X5.1315 Y76.5173
G01 X4.6374 Y76.1752
G01 X4.5390 Y76.6076
G01 X4.0493 Y76.2724
G01 X3.9522 Y76.7059
G01 X4.2754 Y76.6532
G01 X4.1804 Y77.0808
G01 X3.6910 Y76.7459
G01 X3.5960 Y77.1743
G01 X3.1098 Y76.8454
G01 X3.0127 Y77.2775
G01 X3.3359 Y77.2259
G01 X3.2412 Y77.6535
G01 X3.5644 Y77.6007
G01 X3.4403 Y77.3947
G01 X3.7588 Y77.3407
G01 X3.6640 Y77.7684
G01 X3.9836 Y77.7156
G01 X3.8922 Y78.1384
G01 X3.4028 Y77.8035
G01 X3.3078 Y78.2322
